;FLAVOR:Marlin
;TIME:866
;Filament used: 0.300673m
;Layer height: 0.12
;MINX:97.2
;MINY:87.2
;MINZ:0.2
;MAXX:147.867
;MAXY:137.818
;MAXZ:3.32
;TARGET_MACHINE.NAME:Creality Ender-3
;Generated with Cura_SteamEngine 5.11.0
M140 S60
M105
M190 S60
M104 S200
M105
M109 S200
; Ender 3 Custom Start G-code
G92 E0 ; Reset Extruder
G28 ; Home all axes
G1 Z2.0 F3000 ; Move Z Axis up little to prevent scratching of Heat Bed
G1 X0.1 Y20 Z0.3 F5000.0 ; Move to start position
G1 X0.1 Y200.0 Z0.3 F1500.0 E15 ; Draw the first line
G1 X0.4 Y200.0 Z0.3 F5000.0 ; Move to side a little
G1 X0.4 Y20 Z0.3 F1500.0 E30 ; Draw the second line
G92 E0 ; Reset Extruder
G1 Z2.0 F3000 ; Move Z Axis up little to prevent scratching of Heat Bed
G1 X5 Y20 Z0.3 F5000.0 ; Move over to prevent blob squish
M82 ;absolute extrusion mode
G92 E0
G92 E0
G1 F2700 E-5
;LAYER_COUNT:27
;LAYER:0
M107
G0 F6000 X98.719 Y100.223 Z0.2
;TYPE:SKIRT
G1 F2700 E0
G1 F1200 X100.295 Y98.749 E0.07177
G1 X102.019 Y97.727 E0.13843
G1 X102.501 Y97.524 E0.15583
G1 X104.343 Y97.248 E0.21777
G1 X107.2 Y97.223 E0.3128
G1 X107.2 Y94.147 E0.41511
G1 X107.666 Y92.251 E0.48005
G1 X108.719 Y90.223 E0.55605
G1 X110.295 Y88.749 E0.62782
G1 X112.019 Y87.727 E0.69448
G1 X112.501 Y87.524 E0.71188
G1 X114.343 Y87.248 E0.77382
G1 X120.877 Y87.2 E0.99115
G1 X122.388 Y87.583 E1.043
G1 X122.613 Y87.508 E1.05089
G1 X124.34 Y87.248 E1.10897
G1 X130.877 Y87.2 E1.3264
G1 X132.55 Y87.625 E1.38381
G1 X133.729 Y88.076 E1.4258
G1 X135.406 Y89.313 E1.49511
G1 X136.416 Y90.575 E1.54887
G1 X137.179 Y91.782 E1.59636
G1 X137.867 Y94.18 E1.67934
G1 X137.693 Y96.638 E1.7613
G1 X137.605 Y97.22 E1.78087
G1 X140.879 Y97.2 E1.88977
G1 X142.55 Y97.625 E1.94712
G1 X143.729 Y98.076 E1.9891
G1 X145.406 Y99.313 E2.05841
G1 X146.416 Y100.575 E2.11217
G1 X147.179 Y101.782 E2.15967
G1 X147.867 Y104.18 E2.24264
G1 X147.693 Y106.638 E2.3246
G1 X147.599 Y107.262 E2.34559
G1 X147.424 Y108.094 E2.37387
G1 X147.337 Y108.423 E2.38518
G1 X146.91 Y109.699 E2.42994
G1 X146.669 Y110.27 E2.45055
G1 X146.473 Y110.659 E2.46504
G1 X147.174 Y111.777 E2.50893
G1 X147.867 Y114.189 E2.5924
G1 X147.693 Y116.638 E2.67406
G1 X147.599 Y117.262 E2.69505
G1 X147.424 Y118.094 E2.72332
G1 X147.337 Y118.423 E2.73464
G1 X146.91 Y119.699 E2.7794
G1 X146.669 Y120.27 E2.80001
G1 X146.261 Y121.086 E2.83035
G1 X146.018 Y121.513 E2.84669
G1 X145.49 Y122.342 E2.87938
G1 X145.241 Y122.688 E2.89356
G1 X144.59 Y123.481 E2.92769
G1 X144.095 Y124.009 E2.95176
G1 X143.087 Y124.923 E2.99702
G1 X142.669 Y125.251 E3.01469
G1 X141.693 Y125.921 E3.05406
G1 X141.261 Y126.173 E3.0707
G1 X140.287 Y126.656 E3.10686
G1 X139.719 Y126.901 E3.12743
G1 X139.19 Y127.098 E3.14621
G1 X138.385 Y127.344 E3.1742
G1 X137.538 Y127.549 E3.20319
G1 X137.424 Y128.094 E3.22171
G1 X137.337 Y128.423 E3.23302
G1 X136.91 Y129.699 E3.27778
G1 X136.669 Y130.27 E3.29839
G1 X136.261 Y131.086 E3.32874
G1 X136.018 Y131.513 E3.34508
G1 X135.49 Y132.342 E3.37777
G1 X135.241 Y132.688 E3.39194
G1 X134.59 Y133.481 E3.42607
G1 X134.095 Y134.009 E3.45014
G1 X133.087 Y134.923 E3.4954
G1 X132.669 Y135.251 E3.51307
G1 X131.693 Y135.921 E3.55244
G1 X131.261 Y136.173 E3.56908
G1 X130.287 Y136.656 E3.60524
G1 X129.719 Y136.901 E3.62581
G1 X129.19 Y137.098 E3.64459
G1 X128.385 Y137.344 E3.67258
G1 X127.591 Y137.539 E3.69978
G1 X127.084 Y137.635 E3.71694
G1 X126.378 Y137.729 E3.74063
G1 X125.475 Y137.792 E3.77074
G1 X124.362 Y137.818 E3.80776
G1 X122.192 Y137.355 E3.88156
G1 X120.67 Y136.464 E3.94022
G1 X120.287 Y136.656 E3.95447
G1 X119.719 Y136.901 E3.97505
G1 X119.19 Y137.098 E3.99382
G1 X118.385 Y137.344 E4.02182
G1 X117.591 Y137.539 E4.04901
G1 X117.084 Y137.635 E4.06617
G1 X116.378 Y137.729 E4.08986
G1 X115.475 Y137.792 E4.11997
G1 X114.362 Y137.818 E4.157
G1 X112.192 Y137.355 E4.2308
G1 X109.928 Y136.027 E4.3181
G1 X108.49 Y134.32 E4.39233
G1 X107.969 Y133.517 E4.42417
G1 X107.2 Y131.237 E4.5042
G1 X107.2 Y124.15 E4.73991
G1 X107.614 Y122.463 E4.79769
G1 X107.2 Y121.241 E4.8406
G1 X107.2 Y117.62 E4.96104
G1 X106.378 Y117.729 E4.98862
G1 X105.475 Y117.792 E5.01872
G1 X104.362 Y117.818 E5.05575
G1 X102.192 Y117.355 E5.12955
G1 X99.928 Y116.027 E5.21685
G1 X98.49 Y114.32 E5.29109
G1 X97.969 Y113.517 E5.32292
G1 X97.2 Y111.237 E5.40295
G1 X97.2 Y104.147 E5.63877
G1 X97.666 Y102.251 E5.7037
G1 X98.719 Y100.223 E5.77971
G0 F6000 X99.042 Y100.468
G1 F1200 X100.534 Y99.073 E5.84764
G1 X102.174 Y98.096 E5.91114
G1 X102.609 Y97.913 E5.92683
G1 X104.402 Y97.644 E5.98713
G1 X107.6 Y97.62 E6.0935
G1 X107.6 Y94.193 E6.20749
G1 X108.042 Y92.394 E6.2691
G1 X109.042 Y90.468 E6.34128
G1 X110.534 Y89.073 E6.40922
G1 X112.174 Y88.096 E6.47271
G1 X112.609 Y87.913 E6.4884
G1 X114.402 Y87.644 E6.54871
G1 X120.827 Y87.6 E6.76241
G1 X122.409 Y88.002 E6.8167
G1 X122.673 Y87.904 E6.82606
G1 X124.4 Y87.644 E6.88415
G1 X130.827 Y87.6 E7.09792
G1 X132.451 Y88.013 E7.15365
G1 X133.533 Y88.429 E7.19221
G1 X135.128 Y89.606 E7.25814
G1 X136.078 Y90.789 E7.3086
G1 X136.811 Y91.949 E7.35424
G1 X137.463 Y94.221 E7.43286
G1 X137.297 Y96.578 E7.51145
G1 X137.203 Y97.202 E7.53244
G1 X137.114 Y97.623 E7.54675
G1 X140.828 Y97.6 E7.67028
G1 X142.451 Y98.013 E7.72598
G1 X143.533 Y98.429 E7.76453
G1 X145.128 Y99.606 E7.83047
G1 X146.078 Y100.789 E7.88093
G1 X146.811 Y101.949 E7.92657
G1 X147.463 Y104.221 E8.00518
G1 X147.297 Y106.578 E8.08377
G1 X147.203 Y107.202 E8.10476
G1 X147.037 Y107.992 E8.13161
G1 X146.95 Y108.321 E8.14293
G1 X146.541 Y109.543 E8.18579
G1 X146.3 Y110.114 E8.2064
G1 X146.002 Y110.705 E8.22842
G1 X146.169 Y110.92 E8.23747
G1 X146.806 Y111.944 E8.27758
G1 X147.463 Y114.23 E8.35669
G1 X147.297 Y116.578 E8.43498
G1 X147.203 Y117.202 E8.45597
G1 X147.037 Y117.992 E8.48282
G1 X146.95 Y118.321 E8.49414
G1 X146.541 Y119.543 E8.537
G1 X146.3 Y120.114 E8.55761
G1 X145.913 Y120.889 E8.58642
G1 X145.681 Y121.298 E8.60206
G1 X145.165 Y122.108 E8.63401
G1 X144.916 Y122.454 E8.64819
G1 X144.298 Y123.207 E8.68059
G1 X143.803 Y123.735 E8.70466
G1 X142.84 Y124.608 E8.74789
G1 X142.422 Y124.936 E8.76556
G1 X141.491 Y125.575 E8.80312
G1 X141.059 Y125.827 E8.81975
G1 X140.128 Y126.289 E8.85432
G1 X139.579 Y126.526 E8.87421
G1 X139.073 Y126.715 E8.89217
G1 X138.268 Y126.961 E8.92017
G1 X137.511 Y127.147 E8.9461
G1 X137.203 Y127.202 E8.9565
G1 X137.037 Y127.992 E8.98335
G1 X136.95 Y128.321 E8.99467
G1 X136.541 Y129.543 E9.03753
G1 X136.3 Y130.114 E9.05815
G1 X135.913 Y130.889 E9.08696
G1 X135.681 Y131.298 E9.1026
G1 X135.165 Y132.108 E9.13454
G1 X134.916 Y132.454 E9.14872
G1 X134.298 Y133.207 E9.18112
G1 X133.803 Y133.735 E9.20519
G1 X132.84 Y134.608 E9.24842
G1 X132.422 Y134.936 E9.26609
G1 X131.491 Y135.575 E9.30365
G1 X131.059 Y135.827 E9.32029
G1 X130.128 Y136.289 E9.35485
G1 X129.579 Y136.526 E9.37474
G1 X129.073 Y136.715 E9.39271
G1 X128.268 Y136.961 E9.4207
G1 X127.517 Y137.146 E9.44643
G1 X127.031 Y137.238 E9.46288
G1 X126.325 Y137.332 E9.48657
G1 X125.466 Y137.392 E9.51521
G1 X124.399 Y137.417 E9.55071
G1 X122.338 Y136.977 E9.6208
G1 X120.684 Y136.009 E9.68454
G1 X120.128 Y136.289 E9.70525
G1 X119.579 Y136.526 E9.72514
G1 X119.073 Y136.715 E9.7431
G1 X118.268 Y136.961 E9.7711
G1 X117.517 Y137.146 E9.79682
G1 X117.031 Y137.238 E9.81328
G1 X116.325 Y137.332 E9.83696
G1 X115.466 Y137.392 E9.8656
G1 X114.399 Y137.417 E9.9011
G1 X112.338 Y136.977 E9.9712
G1 X110.191 Y135.718 E10.05398
G1 X108.796 Y134.062 E10.12599
G1 X108.332 Y133.342 E10.15448
G1 X107.6 Y131.171 E10.23069
G1 X107.6 Y124.196 E10.46268
G1 X108.03 Y122.444 E10.52268
G1 X107.6 Y121.175 E10.56724
G1 X107.6 Y117.126 E10.70191
G1 X107.031 Y117.238 E10.7212
G1 X106.325 Y117.332 E10.74489
G1 X105.466 Y117.392 E10.77353
G1 X104.399 Y117.417 E10.80903
G1 X102.338 Y116.977 E10.87912
G1 X100.191 Y115.718 E10.9619
G1 X98.796 Y114.062 E11.03392
G1 X98.332 Y113.342 E11.06241
G1 X97.6 Y111.171 E11.13861
G1 X97.6 Y104.193 E11.3707
G1 X98.042 Y102.394 E11.43231
G1 X99.042 Y100.468 E11.50449
G0 F6000 X99.365 Y100.713
G1 F1200 X100.773 Y99.397 E11.56859
G1 X102.379 Y98.44 E11.63077
G1 X102.716 Y98.302 E11.64289
G1 X104.461 Y98.04 E11.70158
G1 X108 Y98.017 E11.81929
G1 X108 Y94.24 E11.94491
G1 X108.419 Y92.536 E12.00327
G1 X109.365 Y90.713 E12.07158
G1 X110.773 Y89.397 E12.13568
G1 X112.379 Y88.44 E12.19786
G1 X112.716 Y88.302 E12.20998
G1 X114.461 Y88.04 E12.26867
G1 X120.777 Y88 E12.47874
G1 X122.44 Y88.423 E12.53581
G1 X122.733 Y88.3 E12.54638
G1 X124.46 Y88.04 E12.60447
G1 X130.777 Y88 E12.81458
G1 X132.352 Y88.401 E12.86863
G1 X133.339 Y88.783 E12.90384
G1 X134.849 Y89.897 E12.96625
G1 X135.74 Y91.003 E13.01348
G1 X136.443 Y92.116 E13.05727
G1 X137.059 Y94.262 E13.13153
G1 X136.901 Y96.518 E13.20675
G1 X136.807 Y97.142 E13.22773
G1 X136.621 Y98.026 E13.25778
G1 X140.777 Y98 E13.39601
G1 X142.352 Y98.401 E13.45007
G1 X143.339 Y98.783 E13.48527
G1 X144.849 Y99.897 E13.54768
G1 X145.74 Y101.003 E13.59492
G1 X146.443 Y102.116 E13.6387
G1 X147.059 Y104.262 E13.71296
G1 X146.901 Y106.518 E13.78818
G1 X146.807 Y107.142 E13.80917
G1 X146.65 Y107.89 E13.83459
G1 X146.563 Y108.219 E13.84591
G1 X146.172 Y109.387 E13.88687
G1 X145.931 Y109.958 E13.90749
G1 X145.531 Y110.752 E13.93706
G1 X145.829 Y111.131 E13.95309
G1 X146.438 Y112.11 E13.99144
G1 X147.059 Y114.271 E14.06623
G1 X146.901 Y116.518 E14.14115
G1 X146.807 Y117.142 E14.16213
G1 X146.65 Y117.89 E14.18756
G1 X146.563 Y118.219 E14.19887
G1 X146.172 Y119.387 E14.23984
G1 X145.931 Y119.958 E14.26045
G1 X145.565 Y120.692 E14.28773
G1 X145.344 Y121.083 E14.30267
G1 X144.84 Y121.874 E14.33387
G1 X144.591 Y122.22 E14.34805
G1 X144.006 Y122.933 E14.37872
G1 X143.511 Y123.461 E14.40279
G1 X142.593 Y124.293 E14.444
G1 X142.175 Y124.621 E14.46167
G1 X141.289 Y125.229 E14.49741
G1 X140.857 Y125.481 E14.51405
G1 X139.969 Y125.922 E14.54702
G1 X139.439 Y126.151 E14.56623
G1 X138.956 Y126.332 E14.58338
G1 X138.151 Y126.578 E14.61138
G1 X137.442 Y126.753 E14.63567
G1 X136.85 Y126.857 E14.65566
G1 X136.807 Y127.142 E14.66525
G1 X136.65 Y127.89 E14.69067
G1 X136.563 Y128.219 E14.70198
G1 X136.172 Y129.387 E14.74295
G1 X135.931 Y129.958 E14.76357
G1 X135.565 Y130.692 E14.79084
G1 X135.344 Y131.083 E14.80578
G1 X134.84 Y131.874 E14.83698
G1 X134.591 Y132.22 E14.85116
G1 X134.006 Y132.933 E14.88183
G1 X133.511 Y133.461 E14.9059
G1 X132.593 Y134.293 E14.94711
G1 X132.175 Y134.621 E14.96478
G1 X131.289 Y135.229 E15.00052
G1 X130.857 Y135.481 E15.01716
G1 X129.969 Y135.922 E15.05013
G1 X129.439 Y136.151 E15.06934
G1 X128.956 Y136.332 E15.08649
G1 X128.151 Y136.578 E15.11449
G1 X127.443 Y136.753 E15.13875
G1 X126.978 Y136.841 E15.15449
G1 X126.272 Y136.935 E15.17817
G1 X125.457 Y136.992 E15.20535
G1 X124.435 Y137.016 E15.23935
G1 X122.485 Y136.6 E15.30567
G1 X120.698 Y135.554 E15.37454
G1 X119.969 Y135.922 E15.4017
G1 X119.439 Y136.151 E15.4209
G1 X118.956 Y136.332 E15.43805
G1 X118.151 Y136.578 E15.46605
G1 X117.443 Y136.753 E15.49031
G1 X116.978 Y136.841 E15.50605
G1 X116.272 Y136.935 E15.52974
G1 X115.457 Y136.992 E15.55691
G1 X114.435 Y137.016 E15.59091
G1 X112.485 Y136.6 E15.65723
G1 X110.454 Y135.409 E15.73554
G1 X109.102 Y133.804 E15.80534
G1 X108.696 Y133.168 E15.83043
G1 X108 Y131.105 E15.90285
G1 X108 Y124.242 E16.13111
G1 X108.395 Y122.634 E16.18618
G1 X108.462 Y122.469 E16.19211
G1 X108 Y121.108 E16.23991
G1 X108 Y116.615 E16.38935
G1 X107.443 Y116.753 E16.40844
G1 X106.978 Y116.841 E16.42418
G1 X106.272 Y116.935 E16.44786
G1 X105.457 Y116.992 E16.47504
G1 X104.435 Y117.016 E16.50904
G1 X102.485 Y116.6 E16.57536
G1 X100.454 Y115.409 E16.65366
G1 X99.102 Y113.804 E16.72346
G1 X98.696 Y113.168 E16.74856
G1 X98 Y111.105 E16.82097
G1 X98 Y104.24 E17.04931
G1 X98.419 Y102.536 E17.10767
G1 X99.365 Y100.713 E17.17598
G0 F6000 X99.688 Y100.958
G1 F1200 X101.012 Y99.721 E17.23625
G1 X102.584 Y98.784 E17.29711
G1 X102.827 Y98.689 E17.30579
G1 X104.464 Y98.44 E17.36086
G1 X108.4 Y98.414 E17.49178
G1 X108.4 Y94.286 E17.62908
G1 X108.795 Y92.679 E17.68412
G1 X109.688 Y90.958 E17.74861
G1 X111.012 Y89.721 E17.80887
G1 X112.584 Y88.784 E17.86974
G1 X112.827 Y88.689 E17.87842
G1 X114.464 Y88.44 E17.93349
G1 X120.726 Y88.4 E18.14177
G1 X122.253 Y88.789 E18.19418
G1 X122.453 Y88.864 E18.20128
G1 X122.793 Y88.695 E18.21391
G1 X124.463 Y88.44 E18.2701
G1 X130.726 Y88.4 E18.47841
G1 X132.253 Y88.789 E18.53082
G1 X133.146 Y89.137 E18.5627
G1 X134.569 Y90.187 E18.62152
G1 X135.402 Y91.217 E18.66558
G1 X136.074 Y92.28 E18.70741
G1 X136.655 Y94.306 E18.77751
G1 X136.505 Y96.458 E18.84926
G1 X136.411 Y97.082 E18.87025
G1 X136.263 Y97.788 E18.89424
G1 X136.176 Y98.117 E18.90556
G1 X136.072 Y98.429 E18.91649
G1 X140.726 Y98.4 E19.07129
G1 X142.253 Y98.789 E19.1237
G1 X143.146 Y99.137 E19.15558
G1 X144.569 Y100.187 E19.2144
G1 X145.402 Y101.217 E19.25846
G1 X146.074 Y102.28 E19.30028
G1 X146.655 Y104.306 E19.37038
G1 X146.505 Y106.458 E19.44213
G1 X146.411 Y107.082 E19.46312
G1 X146.263 Y107.788 E19.48711
G1 X146.176 Y108.117 E19.49843
G1 X145.803 Y109.231 E19.53751
G1 X145.562 Y109.802 E19.55812
G1 X145.215 Y110.497 E19.58396
G1 X145.05 Y110.79 E19.59514
G1 X145.489 Y111.342 E19.6186
G1 X146.07 Y112.276 E19.65518
G1 X146.655 Y114.312 E19.72564
G1 X146.505 Y116.458 E19.79719
G1 X146.411 Y117.082 E19.81818
G1 X146.263 Y117.788 E19.84217
G1 X146.176 Y118.117 E19.85349
G1 X145.803 Y119.231 E19.89257
G1 X145.562 Y119.802 E19.91318
G1 X145.207 Y120.513 E19.93961
G1 X145.007 Y120.868 E19.95316
G1 X144.515 Y121.64 E19.98361
G1 X144.266 Y121.986 E19.99779
G1 X143.714 Y122.659 E20.02674
G1 X143.219 Y123.187 E20.05081
G1 X142.346 Y123.978 E20.08999
G1 X141.928 Y124.306 E20.10767
G1 X141.087 Y124.883 E20.14159
G1 X140.655 Y125.135 E20.15822
G1 X139.81 Y125.555 E20.18961
G1 X139.299 Y125.776 E20.20812
G1 X138.816 Y125.957 E20.22528
G1 X138.055 Y126.19 E20.25175
G1 X137.368 Y126.36 E20.27529
G1 X136.924 Y126.444 E20.29032
G1 X136.499 Y126.499 E20.30457
G1 X136.411 Y127.082 E20.32418
G1 X136.263 Y127.788 E20.34818
G1 X136.176 Y128.117 E20.35949
G1 X135.803 Y129.231 E20.39857
G1 X135.562 Y129.802 E20.41918
G1 X135.207 Y130.513 E20.44561
G1 X135.007 Y130.868 E20.45917
G1 X134.515 Y131.64 E20.48961
G1 X134.266 Y131.986 E20.50379
G1 X133.714 Y132.659 E20.53274
G1 X133.219 Y133.187 E20.55681
G1 X132.346 Y133.978 E20.596
G1 X131.928 Y134.306 E20.61367
G1 X131.087 Y134.883 E20.64759
G1 X130.655 Y135.135 E20.66422
G1 X129.81 Y135.555 E20.69561
G1 X129.299 Y135.776 E20.71413
G1 X128.816 Y135.957 E20.73128
G1 X128.055 Y136.19 E20.75775
G1 X127.368 Y136.36 E20.78129
G1 X126.925 Y136.444 E20.79629
G1 X126.219 Y136.538 E20.81998
G1 X125.448 Y136.592 E20.84568
G1 X124.472 Y136.615 E20.87816
G1 X122.631 Y136.222 E20.94077
G1 X120.84 Y135.174 E21.00978
G1 X120.735 Y135.088 E21.0143
G1 X119.81 Y135.555 E21.04876
G1 X119.299 Y135.776 E21.06728
G1 X118.816 Y135.957 E21.08444
G1 X118.055 Y136.19 E21.11091
G1 X117.368 Y136.36 E21.13445
G1 X116.925 Y136.444 E21.14944
G1 X116.219 Y136.538 E21.17313
G1 X115.448 Y136.592 E21.19884
G1 X114.472 Y136.615 E21.23131
G1 X112.631 Y136.222 E21.29392
G1 X110.715 Y135.098 E21.3678
G1 X109.439 Y133.589 E21.43353
G1 X109.06 Y132.995 E21.45697
G1 X108.4 Y131.039 E21.52563
G1 X108.4 Y124.288 E21.75017
G1 X108.783 Y122.729 E21.80356
G1 X108.892 Y122.491 E21.81227
G1 X108.4 Y121.041 E21.86319
G1 X108.4 Y116.085 E22.02803
G1 X108.055 Y116.19 E22.04003
G1 X107.368 Y116.36 E22.06356
G1 X106.925 Y116.444 E22.07856
G1 X106.219 Y116.538 E22.10225
G1 X105.448 Y116.592 E22.12796
G1 X104.472 Y116.615 E22.16043
G1 X102.631 Y116.222 E22.22304
G1 X100.715 Y115.098 E22.29692
G1 X99.439 Y113.589 E22.36265
G1 X99.06 Y112.995 E22.38609
G1 X98.4 Y111.039 E22.45475
G1 X98.4 Y104.286 E22.67935
G1 X98.795 Y102.679 E22.73439
G1 X99.688 Y100.958 E22.79888
G0 F6000 X100.011 Y101.203
G1 F1200 X101.251 Y100.045 E22.85531
G1 X102.789 Y99.128 E22.91487
G1 X102.932 Y99.077 E22.91992
G1 X104.467 Y98.84 E22.97157
G1 X108.8 Y98.811 E23.11569
G1 X108.8 Y94.332 E23.26467
G1 X109.171 Y92.822 E23.31638
G1 X110.011 Y91.203 E23.37705
G1 X111.251 Y90.045 E23.43348
G1 X112.789 Y89.128 E23.49303
G1 X112.932 Y89.077 E23.49808
G1 X114.467 Y88.84 E23.54974
G1 X120.675 Y88.8 E23.75623
G1 X122.154 Y89.177 E23.80699
