;FLAVOR:Marlin
;TIME:6054
;Filament used: 3.68904m
;Layer height: 0.12
;MINX:95.383
;MINY:62.572
;MINZ:0.2
;MAXX:146.765
;MAXY:178.024
;MAXZ:7.76
;TARGET_MACHINE.NAME:Creality Ender-3
;Generated with Cura_SteamEngine 5.11.0
M140 S60
M105
M190 S60
M104 S200
M105
M109 S200
; Ender 3 Custom Start G-code
G92 E0 ; Reset Extruder
G28 ; Home all axes
G1 Z2.0 F3000 ; Move Z Axis up little to prevent scratching of Heat Bed
G1 X0.1 Y20 Z0.3 F5000.0 ; Move to start position
G1 X0.1 Y200.0 Z0.3 F1500.0 E15 ; Draw the first line
G1 X0.4 Y200.0 Z0.3 F5000.0 ; Move to side a little
G1 X0.4 Y20 Z0.3 F1500.0 E30 ; Draw the second line
G92 E0 ; Reset Extruder
G1 Z2.0 F3000 ; Move Z Axis up little to prevent scratching of Heat Bed
G1 X5 Y20 Z0.3 F5000.0 ; Move over to prevent blob squish
M82 ;absolute extrusion mode
G92 E0
G92 E0
G1 F2700 E-5
;LAYER_COUNT:64
;LAYER:0
M107
;MESH:Switch.stl(1)
G0 F6000 X108.039 Y115.207 Z0.2
;TYPE:WALL-INNER
G1 F2700 E0
G1 F1200 X112.266 Y115.208 E0.14059
G1 X112.688 Y114.989 E0.1564
G1 X112.868 Y114.8 E0.16508
G1 X112.999 Y114.583 E0.17352
G1 X113.052 Y114.32 E0.18244
G1 X113.096 Y67.208 E1.74939
G1 X113.037 Y67.004 E1.75645
G1 X99.118 Y67.008 E2.2194
G1 X99.052 Y67.127 E2.22393
G1 X99.088 Y114.295 E3.79274
G1 X99.127 Y114.532 E3.80073
G1 X99.281 Y114.8 E3.81101
G1 X99.434 Y114.969 E3.81859
G1 X99.627 Y115.097 E3.8263
G1 X100.024 Y115.204 E3.83997
G1 X108.039 Y115.207 E4.10655
G0 F6000 X108.07 Y115.607
;TYPE:WALL-OUTER
G1 F1200 X112.113 Y115.608 E4.24102
G1 X112.413 Y115.576 E4.25106
G1 X112.728 Y115.443 E4.26243
G1 X112.946 Y115.297 E4.27116
G1 X113.188 Y115.045 E4.28278
G1 X113.378 Y114.73 E4.29501
G1 X113.452 Y114.36 E4.30756
G1 X113.496 Y67.179 E5.87681
G1 X113.466 Y66.977 E5.8836
G1 X113.355 Y66.751 E5.89198
G1 X113.196 Y66.638 E5.89846
G1 X113.052 Y66.604 E5.90338
G1 X99.092 Y66.604 E6.3677
G1 X98.949 Y66.638 E6.37259
G1 X98.79 Y66.753 E6.37911
G1 X98.682 Y66.976 E6.38735
G1 X98.652 Y67.175 E6.39405
G1 X98.688 Y114.327 E7.96233
G1 X98.744 Y114.668 E7.97382
G1 X98.955 Y115.037 E7.98796
G1 X99.172 Y115.275 E7.99867
G1 X99.444 Y115.456 E8.00954
G1 X99.757 Y115.572 E8.02064
G1 X99.998 Y115.604 E8.02873
G1 X108.07 Y115.607 E8.2972
G0 F6000 X108.01 Y114.847
;TYPE:SKIN
G1 F1200 X100.056 Y114.844 E8.56175
G1 X99.793 Y114.771 E8.57083
G1 X99.569 Y114.578 E8.58067
G1 X99.448 Y114.366 E8.58879
G1 X99.413 Y67.364 E10.15208
G1 X112.731 Y67.364 E10.59504
G1 X112.692 Y114.278 E12.1554
G1 X112.657 Y114.438 E12.16085
G1 X112.452 Y114.706 E12.17207
G1 X112.179 Y114.848 E12.18231
G1 X108.01 Y114.847 E12.32097
G0 F6000 X108.009 Y115.106
G0 X100.032 Y115.043
G0 X99.517 Y114.876
G0 X99.706 Y114.413
G1 F1200 X99.838 Y114.546 E12.3272
G0 F6000 X100.502 Y114.644
G1 F1200 X99.648 Y113.79 E12.36737
G0 F6000 X99.647 Y113.223
G1 F1200 X101.067 Y114.644 E12.43419
G0 F6000 X101.633 Y114.644
G1 F1200 X99.647 Y112.658 E12.5276
G0 F6000 X99.646 Y112.091
G1 F1200 X102.199 Y114.644 E12.64769
G0 F6000 X102.765 Y114.645
G1 F1200 X99.646 Y111.526 E12.7944
G0 F6000 X99.645 Y110.959
G1 F1200 X103.331 Y114.645 E12.96778
G0 F6000 X103.897 Y114.645
G1 F1200 X99.645 Y110.393 E13.16778
G0 F6000 X99.645 Y109.827
G1 F1200 X104.462 Y114.645 E13.39438
G0 F6000 X105.029 Y114.645
G1 F1200 X99.644 Y109.261 E13.64765
G0 F6000 X99.643 Y108.694
G1 F1200 X105.594 Y114.645 E13.92756
G0 F6000 X106.16 Y114.645
G1 F1200 X99.643 Y108.129 E14.23408
G0 F6000 X99.643 Y107.562
G1 F1200 X106.726 Y114.645 E14.56724
G0 F6000 X107.291 Y114.645
G1 F1200 X99.643 Y106.997 E14.92698
G0 F6000 X99.642 Y106.43
G1 F1200 X107.858 Y114.646 E15.31344
G0 F6000 X108.424 Y114.646
G1 F1200 X99.641 Y105.864 E15.72654
G0 F6000 X99.641 Y105.298
G1 F1200 X108.989 Y114.646 E16.16624
G0 F6000 X109.555 Y114.646
G1 F1200 X99.641 Y104.732 E16.63256
G0 F6000 X99.641 Y104.166
G1 F1200 X110.121 Y114.647 E17.12553
G0 F6000 X110.687 Y114.647
G1 F1200 X99.64 Y103.6 E17.64515
G0 F6000 X99.639 Y103.033
G1 F1200 X111.253 Y114.647 E18.19144
G0 F6000 X111.818 Y114.647
G1 F1200 X99.639 Y102.468 E18.7643
G0 F6000 X99.638 Y101.901
G1 F1200 X112.298 Y114.56 E19.35977
G0 F6000 X112.493 Y114.19
G1 F1200 X99.638 Y101.335 E19.96443
G0 F6000 X99.638 Y100.769
G1 F1200 X112.493 Y113.624 E20.56908
G0 F6000 X112.494 Y113.059
G1 F1200 X99.637 Y100.203 E21.17382
G0 F6000 X99.637 Y99.637
G1 F1200 X112.494 Y112.494 E21.77857
G0 F6000 X112.494 Y111.929
G1 F1200 X99.636 Y99.071 E22.38337
G0 F6000 X99.636 Y98.505
G1 F1200 X112.495 Y111.364 E22.98822
G0 F6000 X112.496 Y110.799
G1 F1200 X99.636 Y97.939 E23.59311
G0 F6000 X99.635 Y97.372
G1 F1200 X112.496 Y110.233 E24.19806
G0 F6000 X112.496 Y109.668
G1 F1200 X99.635 Y96.806 E24.80302
G0 F6000 X99.634 Y96.24
G1 F1200 X112.497 Y109.103 E25.40806
G0 F6000 X112.497 Y108.537
G1 F1200 X99.634 Y95.674 E26.01309
G0 F6000 X99.633 Y95.108
G1 F1200 X112.498 Y107.972 E26.6182
G0 F6000 X112.498 Y107.407
G1 F1200 X99.633 Y94.542 E27.22333
G0 F6000 X99.633 Y93.976
G1 F1200 X112.499 Y106.842 E27.82851
G0 F6000 X112.499 Y106.277
G1 F1200 X99.632 Y93.41 E28.43373
G0 F6000 X99.632 Y92.844
G1 F1200 X112.499 Y105.711 E29.03896
G0 F6000 X112.5 Y105.146
G1 F1200 X99.631 Y92.277 E29.64427
G0 F6000 X99.631 Y91.711
G1 F1200 X112.501 Y104.581 E30.24964
G0 F6000 X112.501 Y104.015
G1 F1200 X99.631 Y91.145 E30.855
G0 F6000 X99.63 Y90.579
G1 F1200 X112.501 Y103.45 E31.46042
G0 F6000 X112.502 Y102.885
G1 F1200 X99.63 Y90.013 E32.06588
G0 F6000 X99.629 Y89.447
G1 F1200 X112.502 Y102.32 E32.67138
G0 F6000 X112.503 Y101.755
G1 F1200 X99.629 Y88.88 E33.27696
G0 F6000 X99.629 Y88.315
G1 F1200 X112.504 Y101.19 E33.88256
G0 F6000 X112.504 Y100.624
G1 F1200 X99.628 Y87.748 E34.48821
G0 F6000 X99.627 Y87.182
G1 F1200 X112.504 Y100.059 E35.0939
G0 F6000 X112.505 Y99.494
G1 F1200 X99.627 Y86.616 E35.69964
G0 F6000 X99.626 Y86.05
G1 F1200 X112.505 Y98.928 E36.30541
G0 F6000 X112.506 Y98.364
G1 F1200 X99.626 Y85.484 E36.91124
G0 F6000 X99.626 Y84.918
G1 F1200 X112.506 Y97.799 E37.5171
G0 F6000 X112.506 Y97.233
G1 F1200 X99.625 Y84.351 E38.12301
G0 F6000 X99.625 Y83.786
G1 F1200 X112.507 Y96.668 E38.72894
G0 F6000 X112.508 Y96.103
G1 F1200 X99.624 Y83.219 E39.33496
G0 F6000 X99.624 Y82.654
G1 F1200 X112.508 Y95.537 E39.94096
G0 F6000 X112.508 Y94.972
G1 F1200 X99.624 Y82.087 E40.54701
G0 F6000 X99.623 Y81.521
G1 F1200 X112.509 Y94.407 E41.15313
G0 F6000 X112.509 Y93.842
G1 F1200 X99.623 Y80.955 E41.75927
G0 F6000 X99.622 Y80.389
G1 F1200 X112.51 Y93.277 E42.36548
G0 F6000 X112.51 Y92.711
G1 F1200 X99.622 Y79.823 E42.97169
G0 F6000 X99.621 Y79.257
G1 F1200 X112.511 Y92.146 E43.57798
G0 F6000 X112.511 Y91.581
G1 F1200 X99.621 Y78.69 E44.18431
G0 F6000 X99.621 Y78.125
G1 F1200 X112.511 Y91.015 E44.79061
G0 F6000 X112.512 Y90.45
G1 F1200 X99.62 Y77.558 E45.39701
G0 F6000 X99.62 Y76.993
G1 F1200 X112.513 Y89.885 E46.00344
G0 F6000 X112.513 Y89.32
G1 F1200 X99.619 Y76.426 E46.60993
G0 F6000 X99.619 Y75.86
G1 F1200 X112.513 Y88.755 E47.21645
G0 F6000 X112.514 Y88.19
G1 F1200 X99.619 Y75.294 E47.82301
G0 F6000 X99.618 Y74.728
G1 F1200 X112.514 Y87.624 E48.4296
G0 F6000 X112.515 Y87.059
G1 F1200 X99.618 Y74.162 E49.03624
G0 F6000 X99.617 Y73.596
G1 F1200 X112.516 Y86.494 E49.64294
G0 F6000 X112.516 Y85.928
G1 F1200 X99.616 Y73.029 E50.2497
G0 F6000 X99.616 Y72.464
G1 F1200 X112.516 Y85.363 E50.85645
G0 F6000 X112.517 Y84.798
G1 F1200 X99.616 Y71.897 E51.46327
G0 F6000 X99.616 Y71.332
G1 F1200 X112.517 Y84.233 E52.0701
G0 F6000 X112.518 Y83.668
G1 F1200 X99.615 Y70.765 E52.67701
G0 F6000 X99.614 Y70.199
G1 F1200 X112.518 Y83.103 E53.28398
G0 F6000 X112.518 Y82.537
G1 F1200 X99.614 Y69.633 E53.89094
G0 F6000 X99.614 Y69.067
G1 F1200 X112.519 Y81.972 E54.49795
G0 F6000 X112.52 Y81.407
G1 F1200 X99.614 Y68.501 E55.10501
G0 F6000 X99.613 Y67.935
G1 F1200 X112.52 Y80.841 E55.7121
G0 F6000 X112.52 Y80.276
G1 F1200 X99.808 Y67.564 E56.31003
G0 F6000 X100.374 Y67.564
G1 F1200 X112.52 Y79.711 E56.88136
G0 F6000 X112.521 Y79.146
G1 F1200 X100.939 Y67.564 E57.42614
G0 F6000 X101.505 Y67.564
G1 F1200 X112.522 Y78.581 E57.94435
G0 F6000 X112.522 Y78.015
G1 F1200 X102.071 Y67.564 E58.43593
G0 F6000 X102.637 Y67.564
G1 F1200 X112.523 Y77.45 E58.90094
G0 F6000 X112.523 Y76.885
G1 F1200 X103.202 Y67.564 E59.33937
G0 F6000 X103.768 Y67.564
G1 F1200 X112.523 Y76.319 E59.75118
G0 F6000 X112.524 Y75.754
G1 F1200 X104.334 Y67.564 E60.13641
G0 F6000 X104.899 Y67.564
G1 F1200 X112.525 Y75.189 E60.49509
G0 F6000 X112.525 Y74.624
G1 F1200 X105.465 Y67.564 E60.82717
G0 F6000 X106.031 Y67.564
G1 F1200 X112.525 Y74.059 E61.13266
G0 F6000 X112.526 Y73.494
G1 F1200 X106.596 Y67.564 E61.41158
G0 F6000 X107.162 Y67.564
G1 F1200 X112.526 Y72.928 E61.66389
G0 F6000 X112.527 Y72.363
G1 F1200 X107.728 Y67.564 E61.88962
G0 F6000 X108.293 Y67.564
G1 F1200 X112.528 Y71.798 E62.0888
G0 F6000 X112.528 Y71.233
G1 F1200 X108.859 Y67.564 E62.26138
G0 F6000 X109.425 Y67.564
G1 F1200 X112.528 Y70.668 E62.40736
G0 F6000 X112.529 Y70.103
G1 F1200 X109.99 Y67.564 E62.52678
G0 F6000 X110.556 Y67.564
G1 F1200 X112.529 Y69.537 E62.61959
G0 F6000 X112.53 Y68.972
G1 F1200 X111.122 Y67.564 E62.68581
G0 F6000 X111.688 Y67.564
G1 F1200 X112.53 Y68.407 E62.72544
G0 F6000 X112.53 Y67.841
G1 F1200 X112.253 Y67.564 E62.73847
G1 F2700 E57.73847
;MESH:Switch.stl(2)
G0 F6000 X112.253 Y67.104
G0 X112.921 Y67.176
G0 X113.224 Y114.343
G0 X114.319 Y114.343
G0 X127.826 Y114.314
G0 X132.88 Y115.205
;TYPE:WALL-INNER
G1 F2700 E62.73847
G1 F1200 X142.266 Y115.208 E63.05065
G1 X142.688 Y114.989 E63.06647
G1 X142.868 Y114.8 E63.07515
G1 X142.999 Y114.583 E63.08358
G1 X143.052 Y114.32 E63.0925
G1 X143.096 Y67.208 E64.65945
G1 X143.037 Y67.004 E64.66652
G1 X129.118 Y67.008 E65.12946
G1 X129.052 Y67.127 E65.13399
G1 X129.088 Y114.295 E66.7028
G1 X129.127 Y114.532 E66.71079
G1 X129.281 Y114.8 E66.72107
G1 X129.434 Y114.969 E66.72866
G1 X129.627 Y115.097 E66.73636
G1 X130.024 Y115.204 E66.75003
G1 X132.88 Y115.205 E66.84502
G0 F6000 X132.829 Y115.605
;TYPE:WALL-OUTER
G1 F1200 X142.113 Y115.608 E67.15381
G1 X142.413 Y115.576 E67.16385
G1 X142.728 Y115.443 E67.17522
G1 X142.946 Y115.297 E67.18395
G1 X143.188 Y115.045 E67.19557
G1 X143.378 Y114.73 E67.2078
G1 X143.452 Y114.36 E67.22035
G1 X143.496 Y67.179 E68.7896
G1 X143.466 Y66.977 E68.79639
G1 X143.355 Y66.751 E68.80476
G1 X143.196 Y66.638 E68.81125
G1 X143.052 Y66.604 E68.81617
G1 X129.092 Y66.604 E69.28049
G1 X128.949 Y66.638 E69.28537
G1 X128.79 Y66.753 E69.2919
G1 X128.682 Y66.976 E69.30014
G1 X128.652 Y67.175 E69.30684
G1 X128.688 Y114.327 E70.87512
G1 X128.744 Y114.668 E70.88661
G1 X128.955 Y115.037 E70.90075
G1 X129.172 Y115.275 E70.91146
G1 X129.444 Y115.456 E70.92233
G1 X129.757 Y115.572 E70.93343
G1 X129.998 Y115.604 E70.94152
G1 X132.829 Y115.605 E71.03568
G0 F6000 X132.926 Y114.845
;TYPE:SKIN
G1 F1200 X130.056 Y114.844 E71.13113
G1 X129.793 Y114.771 E71.14021
G1 X129.569 Y114.578 E71.15004
G1 X129.448 Y114.366 E71.15816
G1 X129.413 Y67.364 E72.72146
G1 X142.731 Y67.364 E73.16442
G1 X142.692 Y114.278 E74.72478
G1 X142.657 Y114.438 E74.73023
G1 X142.452 Y114.706 E74.74145
G1 X142.179 Y114.848 E74.75169
G1 X132.926 Y114.845 E75.05944
G0 F6000 X132.925 Y115.104
G0 X130.032 Y115.043
G0 X129.7 Y114.953
G0 X129.413 Y114.707
G0 X129.187 Y113.808
G0 X129.647 Y113.808
G1 F1200 X130.483 Y114.644 E75.09877
G0 F6000 X131.049 Y114.644
G1 F1200 X129.647 Y113.242 E75.16471
G0 F6000 X129.647 Y112.676
G1 F1200 X131.614 Y114.644 E75.25726
G0 F6000 X132.18 Y114.644
G1 F1200 X129.646 Y112.11 E75.37645
G0 F6000 X129.646 Y111.544
G1 F1200 X132.747 Y114.645 E75.52231
G0 F6000 X133.312 Y114.645
G1 F1200 X129.645 Y110.978 E75.69479
G0 F6000 X129.644 Y110.411
G1 F1200 X133.878 Y114.645 E75.89395
G0 F6000 X134.444 Y114.645
G1 F1200 X129.644 Y109.846 E76.1197
G0 F6000 X129.644 Y109.279
G1 F1200 X135.01 Y114.645 E76.3721
G0 F6000 X135.576 Y114.645
G1 F1200 X129.644 Y108.713 E76.65113
G0 F6000 X129.643 Y108.147
G1 F1200 X136.141 Y114.645 E76.95677
G0 F6000 X136.707 Y114.645
G1 F1200 X129.642 Y107.581 E77.28906
G0 F6000 X129.642 Y107.015
G1 F1200 X137.273 Y114.645 E77.64798
G0 F6000 X137.839 Y114.646
G1 F1200 X129.642 Y106.449 E78.03354
G0 F6000 X129.641 Y105.882
G1 F1200 X138.405 Y114.646 E78.44577
G0 F6000 X138.971 Y114.646
G1 F1200 X129.641 Y105.316 E78.88463
G0 F6000 X129.64 Y104.75
G1 F1200 X139.536 Y114.646 E79.35011
G0 F6000 X140.103 Y114.647
G1 F1200 X129.64 Y104.184 E79.84225
G0 F6000 X129.64 Y103.618
G1 F1200 X140.668 Y114.647 E80.361
G0 F6000 X141.234 Y114.647
G1 F1200 X129.639 Y103.052 E80.90639
G0 F6000 X129.639 Y102.486
G1 F1200 X141.8 Y114.647 E81.47841
G0 F6000 X142.285 Y114.567
G1 F1200 X129.638 Y101.92 E82.07328
G0 F6000 X129.638 Y101.354
G1 F1200 X142.493 Y114.208 E82.67792
G0 F6000 X142.493 Y113.643
G1 F1200 X129.637 Y100.787 E83.28263
G0 F6000 X129.637 Y100.221
G1 F1200 X142.493 Y113.078 E83.88736
G0 F6000 X142.494 Y112.513
G1 F1200 X129.637 Y99.655 E84.49214
G0 F6000 X129.636 Y99.089
G1 F1200 X142.494 Y111.947 E85.09694
G0 F6000 X142.495 Y111.382
G1 F1200 X129.636 Y98.523 E85.70178
G0 F6000 X129.635 Y97.957
G1 F1200 X142.495 Y110.817 E86.30668
G0 F6000 X142.495 Y110.251
G1 F1200 X129.635 Y97.391 E86.91157
G0 F6000 X129.635 Y96.825
G1 F1200 X142.496 Y109.686 E87.51652
G0 F6000 X142.497 Y109.121
G1 F1200 X129.634 Y96.258 E88.12155
G0 F6000 X129.634 Y95.693
G1 F1200 X142.497 Y108.556 E88.72659
G0 F6000 X142.498 Y107.991
G1 F1200 X129.633 Y95.126 E89.33172
G0 F6000 X129.632 Y94.56
G1 F1200 X142.498 Y107.426 E89.9369
G0 F6000 X142.498 Y106.86
G1 F1200 X129.632 Y93.994 E90.54207
G0 F6000 X129.632 Y93.428
G1 F1200 X142.499 Y106.295 E91.1473
G0 F6000 X142.5 Y105.73
G1 F1200 X129.632 Y92.862 E91.75257
G0 F6000 X129.631 Y92.296
G1 F1200 X142.5 Y105.164 E92.35786
G0 F6000 X142.5 Y104.599
G1 F1200 X129.63 Y91.729 E92.96323
G0 F6000 X129.63 Y91.164
G1 F1200 X142.501 Y104.034 E93.56862
G0 F6000 X142.502 Y103.47
G1 F1200 X129.63 Y90.597 E94.1741
G0 F6000 X129.63 Y90.032
G1 F1200 X142.502 Y102.904 E94.77956
G0 F6000 X142.503 Y102.339
G1 F1200 X129.629 Y89.465 E95.38511
G0 F6000 X129.628 Y88.899
G1 F1200 X142.503 Y101.774 E95.99071
G0 F6000 X142.503 Y101.208
G1 F1200 X129.628 Y88.333 E96.59631
G0 F6000 X129.628 Y87.767
G1 F1200 X142.504 Y100.643 E97.20196
G0 F6000 X142.505 Y100.078
G1 F1200 X129.628 Y87.201 E97.80766
G0 F6000 X129.627 Y86.635
G1 F1200 X142.505 Y99.513 E98.4134
G0 F6000 X142.505 Y98.948
G1 F1200 X129.626 Y86.068 E99.01921
G0 F6000 X129.626 Y85.503
G1 F1200 X142.506 Y98.383 E99.62505
G0 F6000 X142.506 Y97.817
G1 F1200 X129.625 Y84.936 E100.23093
G0 F6000 X129.625 Y84.37
G1 F1200 X142.507 Y97.252 E100.83686
G0 F6000 X142.507 Y96.687
G1 F1200 X129.625 Y83.804 E101.44281
G0 F6000 X129.624 Y83.238
G1 F1200 X142.507 Y96.121 E102.04879
G0 F6000 X142.508 Y95.556
G1 F1200 X129.624 Y82.672 E102.65481
G0 F6000 X129.623 Y82.106
G1 F1200 X142.509 Y94.991 E103.26091
G0 F6000 X142.509 Y94.426
G1 F1200 X129.623 Y81.539 E103.86705
G0 F6000 X129.623 Y80.974
G1 F1200 X142.51 Y93.861 E104.47321
G0 F6000 X142.51 Y93.296
G1 F1200 X129.622 Y80.407 E105.07945
G0 F6000 X129.622 Y79.842
G1 F1200 X142.51 Y92.73 E105.68566
G0 F6000 X142.511 Y92.165
G1 F1200 X129.621 Y79.275 E106.29197
G0 F6000 X129.62 Y78.709
G1 F1200 X142.512 Y91.6 E106.89834
G0 F6000 X142.512 Y91.034
G1 F1200 X129.62 Y78.143 E107.50472
G0 F6000 X129.62 Y77.577
G1 F1200 X142.512 Y90.469 E108.11112
G0 F6000 X142.513 Y89.904
G1 F1200 X129.62 Y77.011 E108.71757
G0 F6000 X129.619 Y76.445
G1 F1200 X142.513 Y89.339 E109.32406
G0 F6000 X142.514 Y88.774
G1 F1200 X129.618 Y75.878 E109.93065
G0 F6000 X129.618 Y75.313
G1 F1200 X142.515 Y88.209 E110.53726
G0 F6000 X142.515 Y87.643
G1 F1200 X129.618 Y74.746 E111.1439
G0 F6000 X129.618 Y74.18
G1 F1200 X142.515 Y87.078 E111.75056
G0 F6000 X142.516 Y86.513
G1 F1200 X129.617 Y73.614 E112.35729
G0 F6000 X129.616 Y73.048
G1 F1200 X142.516 Y85.947 E112.96404
G0 F6000 X142.517 Y85.382
G1 F1200 X129.616 Y72.482 E113.57084
G0 F6000 X129.616 Y71.916
G1 F1200 X142.517 Y84.817 E114.17766
G0 F6000 X142.518 Y84.252
G1 F1200 X129.616 Y71.35 E114.78453
G0 F6000 X129.615 Y70.784
G1 F1200 X142.518 Y83.687 E115.39145
G0 F6000 X142.519 Y83.122
