;FLAVOR:Marlin
;TIME:2079
;Filament used: 1.36976m
;Layer height: 0.12
;MINX:70.9
;MINY:85.397
;MINZ:0.2
;MAXX:164.1
;MAXY:149.603
;MAXZ:4.88
;TARGET_MACHINE.NAME:Creality Ender-3
;Generated with Cura_SteamEngine 5.11.0
M140 S60
M105
M190 S60
M104 S200
M105
M109 S200
; Ender 3 Custom Start G-code
G92 E0 ; Reset Extruder
G28 ; Home all axes
G1 Z2.0 F3000 ; Move Z Axis up little to prevent scratching of Heat Bed
G1 X0.1 Y20 Z0.3 F5000.0 ; Move to start position
G1 X0.1 Y200.0 Z0.3 F1500.0 E15 ; Draw the first line
G1 X0.4 Y200.0 Z0.3 F5000.0 ; Move to side a little
G1 X0.4 Y20 Z0.3 F1500.0 E30 ; Draw the second line
G92 E0 ; Reset Extruder
G1 Z2.0 F3000 ; Move Z Axis up little to prevent scratching of Heat Bed
G1 X5 Y20 Z0.3 F5000.0 ; Move over to prevent blob squish
M82 ;absolute extrusion mode
G92 E0
G92 E0
G1 F2700 E-5
;LAYER_COUNT:40
;LAYER:0
M107
;MESH:Top.stl
G0 F6000 X90.508 Y145.448 Z0.2
;TYPE:WALL-INNER
G1 F2700 E0
G1 F1200 X78.454 Y145.447 E0.40092
G1 X78.091 Y145.428 E0.41301
G1 X77.653 Y145.356 E0.42777
G1 X77.166 Y145.215 E0.44463
G1 X76.759 Y145.043 E0.45933
G1 X76.386 Y144.837 E0.4735
G1 X76.036 Y144.585 E0.48785
G1 X75.724 Y144.313 E0.50161
G1 X75.411 Y143.964 E0.51721
G1 X75.174 Y143.632 E0.53077
G1 X74.941 Y143.216 E0.54663
G1 X74.772 Y142.81 E0.56126
G1 X74.64 Y142.348 E0.57724
G1 X74.576 Y141.974 E0.58986
G1 X74.548 Y141.508 E0.60539
G1 X74.548 Y93.488 E2.20254
G1 X74.576 Y93.021 E2.2181
G1 X74.64 Y92.653 E2.23052
G1 X74.781 Y92.166 E2.24739
G1 X74.953 Y91.759 E2.26208
G1 X75.156 Y91.391 E2.27606
G1 X75.427 Y91.017 E2.29142
G1 X75.701 Y90.705 E2.30523
G1 X76.037 Y90.41 E2.3201
G1 X76.423 Y90.137 E2.33583
G1 X76.785 Y89.94 E2.34954
G1 X77.187 Y89.773 E2.36401
G1 X77.652 Y89.64 E2.3801
G1 X78.091 Y89.569 E2.39489
G1 X78.488 Y89.548 E2.40811
G1 X90.542 Y89.549 E2.80903
G1 X90.974 Y89.576 E2.82343
G1 X91.411 Y89.655 E2.8382
G1 X91.834 Y89.781 E2.85288
G1 X92.182 Y89.925 E2.86541
G1 X92.632 Y90.174 E2.88251
G1 X92.936 Y90.39 E2.89491
G1 X93.266 Y90.678 E2.90948
G1 X93.569 Y91.017 E2.9246
G1 X93.859 Y91.423 E2.9412
G1 X94.043 Y91.759 E2.95394
G1 X94.237 Y92.229 E2.97085
G1 X94.356 Y92.653 E2.9855
G1 X94.42 Y93.021 E2.99792
G1 X94.448 Y93.488 E3.01348
G1 X94.447 Y141.542 E4.61177
G1 X94.42 Y141.974 E4.62616
G1 X94.341 Y142.411 E4.64093
G1 X94.215 Y142.834 E4.65561
G1 X94.071 Y143.182 E4.66814
G1 X93.851 Y143.586 E4.68344
G1 X93.606 Y143.936 E4.69765
G1 X93.266 Y144.318 E4.71466
G1 X92.936 Y144.606 E4.72923
G1 X92.632 Y144.822 E4.74163
G1 X92.182 Y145.071 E4.75873
G1 X91.771 Y145.237 E4.77348
G1 X91.348 Y145.356 E4.78809
G1 X90.974 Y145.42 E4.80071
G1 X90.508 Y145.448 E4.81624
G0 F6000 X90.507 Y146.351
G0 X112.507 Y146.351
G0 X112.508 Y145.448
G1 F1200 X100.454 Y145.447 E5.21716
G1 X100.091 Y145.428 E5.22925
G1 X99.653 Y145.356 E5.24401
G1 X99.166 Y145.215 E5.26087
G1 X98.759 Y145.043 E5.27557
G1 X98.423 Y144.859 E5.28831
G1 X98.061 Y144.604 E5.30304
G1 X97.678 Y144.266 E5.32003
G1 X97.39 Y143.936 E5.3346
G1 X97.174 Y143.632 E5.347
G1 X96.925 Y143.182 E5.36411
G1 X96.759 Y142.771 E5.37885
G1 X96.64 Y142.346 E5.39353
G1 X96.57 Y141.925 E5.40772
G1 X96.548 Y141.508 E5.42161
G1 X96.548 Y93.488 E7.01876
G1 X96.576 Y93.021 E7.03432
G1 X96.64 Y92.653 E7.04675
G1 X96.781 Y92.166 E7.06361
G1 X96.953 Y91.759 E7.07831
G1 X97.145 Y91.41 E7.09155
G1 X97.427 Y91.017 E7.10764
G1 X97.733 Y90.676 E7.12288
G1 X98.061 Y90.393 E7.13729
G1 X98.423 Y90.137 E7.15204
G1 X98.759 Y89.953 E7.16478
G1 X99.229 Y89.759 E7.18169
G1 X99.652 Y89.64 E7.1963
G1 X100.091 Y89.569 E7.2111
G1 X100.488 Y89.548 E7.22432
G1 X112.542 Y89.549 E7.62524
G1 X112.974 Y89.576 E7.63963
G1 X113.411 Y89.655 E7.6544
G1 X113.834 Y89.781 E7.66908
G1 X114.182 Y89.925 E7.68161
G1 X114.632 Y90.174 E7.69871
G1 X114.936 Y90.39 E7.71112
G1 X115.266 Y90.678 E7.72569
G1 X115.569 Y91.017 E7.74081
G1 X115.859 Y91.423 E7.7574
G1 X116.043 Y91.759 E7.77014
G1 X116.237 Y92.229 E7.78706
G1 X116.356 Y92.653 E7.8017
G1 X116.42 Y93.021 E7.81413
G1 X116.448 Y93.488 E7.82969
G1 X116.447 Y141.542 E9.42797
G1 X116.42 Y141.974 E9.44237
G1 X116.341 Y142.411 E9.45714
G1 X116.215 Y142.834 E9.47182
G1 X116.071 Y143.182 E9.48434
G1 X115.851 Y143.586 E9.49964
G1 X115.606 Y143.936 E9.51385
G1 X115.266 Y144.318 E9.53086
G1 X114.936 Y144.606 E9.54543
G1 X114.632 Y144.822 E9.55783
G1 X114.182 Y145.071 E9.57494
G1 X113.771 Y145.237 E9.58968
G1 X113.348 Y145.356 E9.6043
G1 X112.974 Y145.42 E9.61692
G1 X112.508 Y145.448 E9.63244
G0 F6000 X112.507 Y146.351
G0 X117.5 Y146.351
G0 X117.5 Y146.452
G1 F1200 X157.72 Y146.452 E10.97017
G1 X158.116 Y146.41 E10.98341
G1 X158.393 Y146.354 E10.99281
G1 X158.725 Y146.261 E11.00428
G1 X159.02 Y146.152 E11.01474
G1 X159.297 Y146.028 E11.02483
G1 X159.573 Y145.872 E11.03538
G1 X159.824 Y145.703 E11.04544
G1 X160.07 Y145.507 E11.0559
G1 X160.303 Y145.295 E11.06638
G1 X160.505 Y145.071 E11.07641
G1 X160.702 Y144.822 E11.08697
G1 X160.872 Y144.569 E11.09711
G1 X161.032 Y144.283 E11.10801
G1 X161.152 Y144.023 E11.11753
G1 X161.261 Y143.725 E11.12809
G1 X161.351 Y143.411 E11.13895
G1 X161.41 Y143.108 E11.14922
G1 X161.455 Y142.726 E11.16201
G1 X161.448 Y142.504 E11.1694
G1 X161.451 Y92.273 E12.84009
G1 X161.41 Y91.89 E12.8529
G1 X161.351 Y91.586 E12.8632
G1 X161.261 Y91.264 E12.87432
G1 X161.153 Y90.979 E12.88446
G1 X161.032 Y90.712 E12.89421
G1 X160.867 Y90.418 E12.90542
G1 X160.71 Y90.182 E12.91485
G1 X160.506 Y89.926 E12.92574
G1 X160.296 Y89.694 E12.93614
G1 X160.08 Y89.499 E12.94582
G1 X159.814 Y89.289 E12.9571
G1 X159.569 Y89.124 E12.96692
G1 X159.297 Y88.972 E12.97728
G1 X159.013 Y88.843 E12.98766
G1 X158.724 Y88.735 E12.99792
G1 X158.421 Y88.649 E13.0084
G1 X158.117 Y88.59 E13.01869
G1 X157.718 Y88.544 E13.03205
G1 X77.276 Y88.544 E15.70757
G1 X76.88 Y88.586 E15.72081
G1 X76.556 Y88.654 E15.73182
G1 X76.276 Y88.735 E15.74152
G1 X75.981 Y88.843 E15.75196
G1 X75.699 Y88.972 E15.76228
G1 X75.424 Y89.125 E15.77275
G1 X75.182 Y89.287 E15.78243
G1 X74.927 Y89.488 E15.79323
G1 X74.694 Y89.705 E15.80382
G1 X74.498 Y89.918 E15.81345
G1 X74.306 Y90.16 E15.82372
G1 X74.127 Y90.424 E15.83433
G1 X73.964 Y90.713 E15.84537
G1 X73.843 Y90.979 E15.85509
G1 X73.735 Y91.264 E15.86522
G1 X73.645 Y91.586 E15.87634
G1 X73.586 Y91.89 E15.88664
G1 X73.546 Y92.267 E15.89925
G1 X73.552 Y92.492 E15.90674
G1 X73.544 Y142.72 E17.57733
G1 X73.586 Y143.111 E17.59041
G1 X73.645 Y143.411 E17.60058
G1 X73.735 Y143.725 E17.61144
G1 X73.844 Y144.023 E17.622
G1 X73.975 Y144.306 E17.63237
G1 X74.124 Y144.573 E17.64254
G1 X74.293 Y144.821 E17.65252
G1 X74.491 Y145.071 E17.66313
G1 X74.697 Y145.299 E17.67335
G1 X74.935 Y145.512 E17.68397
G1 X75.178 Y145.707 E17.69433
G1 X75.428 Y145.873 E17.70431
G1 X75.701 Y146.028 E17.71476
G1 X75.975 Y146.151 E17.72474
G1 X76.274 Y146.261 E17.73534
G1 X76.58 Y146.348 E17.74592
G1 X76.88 Y146.41 E17.75611
G1 X77.276 Y146.451 E17.76935
G1 X117.5 Y146.452 E19.10721
G0 F6000 X117.5 Y146.351
G0 X122.453 Y146.351
G0 X122.454 Y145.447
G1 F1200 X122.091 Y145.428 E19.1193
G1 X121.653 Y145.356 E19.13406
G1 X121.166 Y145.215 E19.15092
G1 X120.759 Y145.043 E19.16562
G1 X120.423 Y144.859 E19.17836
G1 X120.061 Y144.604 E19.19309
G1 X119.678 Y144.266 E19.21008
G1 X119.39 Y143.936 E19.22465
G1 X119.174 Y143.632 E19.23705
G1 X118.925 Y143.182 E19.25416
G1 X118.759 Y142.771 E19.2689
G1 X118.64 Y142.346 E19.28358
G1 X118.57 Y141.925 E19.29777
G1 X118.548 Y141.508 E19.31166
G1 X118.548 Y93.488 E20.90881
G1 X118.576 Y93.021 E20.92437
G1 X118.64 Y92.653 E20.9368
G1 X118.781 Y92.166 E20.95366
G1 X118.953 Y91.759 E20.96836
G1 X119.145 Y91.41 E20.9816
G1 X119.427 Y91.017 E20.99769
G1 X119.733 Y90.676 E21.01293
G1 X120.061 Y90.393 E21.02734
G1 X120.423 Y90.137 E21.04209
G1 X120.759 Y89.953 E21.05483
G1 X121.229 Y89.759 E21.07174
G1 X121.652 Y89.64 E21.08635
G1 X122.091 Y89.569 E21.10115
G1 X122.488 Y89.548 E21.11437
G1 X134.542 Y89.549 E21.51529
G1 X134.974 Y89.576 E21.52968
G1 X135.411 Y89.655 E21.54445
G1 X135.834 Y89.781 E21.55913
G1 X136.182 Y89.925 E21.57166
G1 X136.632 Y90.174 E21.58876
G1 X136.936 Y90.39 E21.60117
G1 X137.266 Y90.678 E21.61574
G1 X137.569 Y91.017 E21.63086
G1 X137.859 Y91.423 E21.64745
G1 X138.043 Y91.759 E21.66019
G1 X138.237 Y92.229 E21.67711
G1 X138.356 Y92.653 E21.69175
G1 X138.42 Y93.021 E21.70418
G1 X138.448 Y93.488 E21.71974
G1 X138.447 Y141.542 E23.31802
G1 X138.42 Y141.974 E23.33242
G1 X138.341 Y142.411 E23.34719
G1 X138.215 Y142.834 E23.36187
G1 X138.071 Y143.182 E23.37439
G1 X137.851 Y143.586 E23.38969
G1 X137.606 Y143.936 E23.4039
G1 X137.266 Y144.318 E23.42091
G1 X136.936 Y144.606 E23.43548
G1 X136.632 Y144.822 E23.44788
G1 X136.182 Y145.071 E23.46499
G1 X135.771 Y145.237 E23.47973
G1 X135.348 Y145.356 E23.49435
G1 X134.974 Y145.42 E23.50697
G1 X134.508 Y145.448 E23.52249
G1 X122.454 Y145.447 E23.92341
G0 F6000 X122.453 Y146.351
G0 X144.453 Y146.351
G0 X144.454 Y145.447
G1 F1200 X144.091 Y145.428 E23.9355
G1 X143.653 Y145.356 E23.95026
G1 X143.166 Y145.215 E23.96713
G1 X142.759 Y145.043 E23.98182
G1 X142.423 Y144.859 E23.99457
G1 X142.061 Y144.604 E24.00929
G1 X141.678 Y144.266 E24.02628
G1 X141.39 Y143.936 E24.04085
G1 X141.174 Y143.632 E24.05325
G1 X140.925 Y143.182 E24.07036
G1 X140.759 Y142.771 E24.0851
G1 X140.64 Y142.346 E24.09978
G1 X140.57 Y141.925 E24.11398
G1 X140.548 Y141.508 E24.12787
G1 X140.548 Y93.488 E25.72502
G1 X140.576 Y93.021 E25.74058
G1 X140.64 Y92.653 E25.753
G1 X140.781 Y92.166 E25.76986
G1 X140.953 Y91.759 E25.78456
G1 X141.145 Y91.41 E25.79781
G1 X141.427 Y91.017 E25.8139
G1 X141.733 Y90.676 E25.82913
G1 X142.061 Y90.393 E25.84354
G1 X142.423 Y90.137 E25.85829
G1 X142.759 Y89.953 E25.87103
G1 X143.229 Y89.759 E25.88794
G1 X143.652 Y89.64 E25.90256
G1 X144.091 Y89.569 E25.91735
G1 X144.488 Y89.548 E25.93057
G1 X156.542 Y89.549 E26.33149
G1 X156.974 Y89.576 E26.34589
G1 X157.346 Y89.64 E26.35844
G1 X157.774 Y89.759 E26.37322
G1 X158.213 Y89.938 E26.38898
G1 X158.612 Y90.16 E26.40417
G1 X158.962 Y90.409 E26.41846
G1 X159.292 Y90.702 E26.43314
G1 X159.586 Y91.038 E26.44798
G1 X159.859 Y91.423 E26.46368
G1 X160.071 Y91.818 E26.47859
G1 X160.237 Y92.229 E26.49334
G1 X160.356 Y92.653 E26.50798
G1 X160.428 Y93.091 E26.52275
G1 X160.449 Y93.488 E26.53597
G1 X160.447 Y141.541 E28.13422
G1 X160.42 Y141.974 E28.14865
G1 X160.357 Y142.348 E28.16126
G1 X160.236 Y142.776 E28.17606
G1 X160.072 Y143.182 E28.19062
G1 X159.84 Y143.605 E28.20667
G1 X159.606 Y143.936 E28.22015
G1 X159.273 Y144.312 E28.23685
G1 X158.965 Y144.584 E28.25052
G1 X158.611 Y144.835 E28.26495
G1 X158.224 Y145.051 E28.27969
G1 X157.771 Y145.237 E28.29598
G1 X157.348 Y145.356 E28.3106
G1 X156.974 Y145.42 E28.32322
G1 X156.508 Y145.448 E28.33874
G1 X144.454 Y145.447 E28.73966
G0 F6000 X144.476 Y145.048
;TYPE:WALL-OUTER
G1 F1200 X144.089 Y145.025 E28.75256
G1 X143.721 Y144.962 E28.76497
G1 X143.34 Y144.853 E28.77815
G1 X142.951 Y144.692 E28.79216
G1 X142.595 Y144.495 E28.80569
G1 X142.28 Y144.267 E28.81862
G1 X141.978 Y144.001 E28.83201
G1 X141.716 Y143.704 E28.84518
G1 X141.5 Y143.4 E28.85758
G1 X141.295 Y143.029 E28.87168
G1 X141.143 Y142.66 E28.88496
G1 X141.034 Y142.278 E28.89817
G1 X140.968 Y141.89 E28.91126
G1 X140.948 Y141.508 E28.92398
G1 X140.948 Y93.488 E30.52113
G1 X140.97 Y93.089 E30.53442
G1 X141.034 Y92.721 E30.54685
G1 X141.143 Y92.34 E30.56003
G1 X141.304 Y91.951 E30.57403
G1 X141.501 Y91.595 E30.58756
G1 X141.729 Y91.28 E30.6005
G1 X141.996 Y90.977 E30.61393
G1 X142.295 Y90.717 E30.62711
G1 X142.615 Y90.488 E30.6402
G1 X142.951 Y90.304 E30.65294
G1 X143.34 Y90.143 E30.66694
G1 X143.721 Y90.034 E30.68012
G1 X144.113 Y89.968 E30.69334
G1 X144.488 Y89.948 E30.70583
G1 X156.52 Y89.948 E31.10602
G1 X156.906 Y89.97 E31.11888
G1 X157.3 Y90.039 E31.13218
G1 X157.661 Y90.143 E31.14468
G1 X158.05 Y90.304 E31.15868
G1 X158.4 Y90.5 E31.17202
G1 X158.713 Y90.723 E31.1848
G1 X159.01 Y90.986 E31.198
G1 X159.279 Y91.295 E31.21162
G1 X159.508 Y91.615 E31.22471
G1 X159.701 Y91.971 E31.23818
G1 X159.853 Y92.34 E31.25145
G1 X159.962 Y92.721 E31.26463
G1 X160.026 Y93.089 E31.27706
G1 X160.049 Y93.488 E31.29035
G1 X160.048 Y141.519 E32.88787
G1 X160.026 Y141.906 E32.90076
G1 X159.962 Y142.279 E32.91335
G1 X159.845 Y142.681 E32.92727
G1 X159.702 Y143.029 E32.93979
G1 X159.502 Y143.391 E32.95354
G1 X159.266 Y143.721 E32.96704
G1 X159.017 Y144.003 E32.97955
G1 X158.704 Y144.28 E32.99345
G1 X158.393 Y144.5 E33.00612
G1 X158.043 Y144.695 E33.01945
G1 X157.66 Y144.853 E33.03323
G1 X157.279 Y144.962 E33.04641
G1 X156.906 Y145.026 E33.05899
G1 X156.508 Y145.048 E33.07225
G1 X144.476 Y145.048 E33.47244
G1 F2700 E28.47244
G0 F6000 X144.459 Y145.357
G0 X142.337 Y145.017
G0 X137.385 Y144.453
G0 X122.476 Y145.048
G1 F2700 E33.47244
G1 F1200 X122.089 Y145.025 E33.48533
G1 X121.721 Y144.962 E33.49775
G1 X121.34 Y144.853 E33.51093
G1 X120.951 Y144.692 E33.52493
G1 X120.595 Y144.495 E33.53847
G1 X120.28 Y144.267 E33.5514
G1 X119.978 Y144.001 E33.56478
G1 X119.716 Y143.704 E33.57796
G1 X119.5 Y143.4 E33.59036
G1 X119.295 Y143.029 E33.60446
G1 X119.143 Y142.66 E33.61773
G1 X119.034 Y142.278 E33.63094
G1 X118.968 Y141.89 E33.64403
G1 X118.948 Y141.508 E33.65676
G1 X118.948 Y93.488 E35.25391
G1 X118.97 Y93.089 E35.2672
G1 X119.034 Y92.721 E35.27962
G1 X119.143 Y92.34 E35.2928
G1 X119.304 Y91.951 E35.30681
G1 X119.501 Y91.595 E35.32034
G1 X119.729 Y91.28 E35.33327
G1 X119.996 Y90.977 E35.34671
G1 X120.295 Y90.717 E35.35988
G1 X120.615 Y90.488 E35.37297
G1 X120.951 Y90.304 E35.38571
G1 X121.34 Y90.143 E35.39972
G1 X121.721 Y90.034 E35.4129
G1 X122.113 Y89.968 E35.42612
G1 X122.488 Y89.948 E35.43861
G1 X134.52 Y89.948 E35.83879
G1 X134.906 Y89.97 E35.85165
G1 X135.3 Y90.039 E35.86496
G1 X135.66 Y90.143 E35.87742
G1 X136.029 Y90.295 E35.89069
G1 X136.4 Y90.5 E35.90479
G1 X136.704 Y90.716 E35.9172
G1 X137.019 Y90.996 E35.93121
G1 X137.279 Y91.295 E35.94439
G1 X137.508 Y91.615 E35.95748
G1 X137.692 Y91.951 E35.97022
G1 X137.853 Y92.34 E35.98422
G1 X137.962 Y92.721 E35.9974
G1 X138.026 Y93.089 E36.00983
G1 X138.048 Y93.488 E36.02312
G1 X138.048 Y141.52 E37.62067
G1 X138.028 Y141.89 E37.63299
G1 X137.957 Y142.3 E37.64683
G1 X137.853 Y142.66 E37.6593
G1 X137.701 Y143.029 E37.67257
G1 X137.496 Y143.4 E37.68667
G1 X137.28 Y143.704 E37.69907
G1 X137.001 Y144.018 E37.71304
G1 X136.704 Y144.28 E37.72621
G1 X136.4 Y144.496 E37.73862
G1 X136.029 Y144.701 E37.75272
G1 X135.66 Y144.853 E37.76599
G1 X135.279 Y144.962 E37.77917
G1 X134.906 Y145.026 E37.79176
G1 X134.508 Y145.048 E37.80501
G1 X122.476 Y145.048 E38.2052
G1 F2700 E33.2052
G0 F6000 X122.459 Y145.357
G0 X120.337 Y145.017
G0 X120.335 Y146.271
G0 X117.5 Y146.852
G1 F2700 E38.2052
G1 F1200 X157.741 Y146.852 E39.54362
G1 X158.177 Y146.806 E39.5582
G1 X158.512 Y146.737 E39.56958
G1 X158.849 Y146.641 E39.58123
G1 X159.172 Y146.522 E39.59268
G1 X159.477 Y146.385 E39.6038
G1 X159.783 Y146.213 E39.61548
G1 X160.061 Y146.026 E39.62662
G1 X160.33 Y145.811 E39.63808
G1 X160.586 Y145.578 E39.64959
G1 X160.811 Y145.33 E39.66073
G1 X161.026 Y145.058 E39.67226
G1 X161.213 Y144.779 E39.68343
G1 X161.389 Y144.465 E39.6954
G1 X161.522 Y144.175 E39.70601
G1 X161.641 Y143.849 E39.71756
G1 X161.741 Y143.505 E39.72947
G1 X161.806 Y143.169 E39.74085
G1 X161.855 Y142.743 E39.75512
G1 X161.848 Y142.504 E39.76307
G1 X161.851 Y92.251 E41.43449
G1 X161.806 Y91.83 E41.44857
G1 X161.741 Y91.494 E41.45996
G1 X161.641 Y91.139 E41.47222
G1 X161.523 Y90.825 E41.48338
G1 X161.389 Y90.531 E41.49413
G1 X161.209 Y90.209 E41.50639
G1 X161.034 Y89.946 E41.5169
G1 X160.811 Y89.666 E41.52881
G1 X160.578 Y89.41 E41.54032
G1 X160.338 Y89.193 E41.55108
G1 X160.05 Y88.966 E41.56328
G1 X159.779 Y88.783 E41.57415
G1 X159.477 Y88.615 E41.58565
G1 X159.167 Y88.473 E41.59699
G1 X158.849 Y88.355 E41.60827
G1 X158.513 Y88.259 E41.61989
G1 X158.177 Y88.194 E41.63128
G1 X157.74 Y88.144 E41.64591
G1 X77.255 Y88.144 E44.32285
G1 X76.819 Y88.19 E44.33743
G1 X76.484 Y88.259 E44.34881
G1 X76.151 Y88.355 E44.36033
G1 X75.829 Y88.473 E44.37174
G1 X75.558 Y88.596 E44.38164
G1 X75.216 Y88.783 E44.3946
G1 X74.946 Y88.963 E44.40539
G1 X74.667 Y89.184 E44.41723
G1 X74.41 Y89.422 E44.42888
