;FLAVOR:Marlin
;TIME:6124
;Filament used: 4.41239m
;Layer height: 0.12
;MINX:68.549
;MINY:83.551
;MINZ:0.2
;MAXX:166
;MAXY:151
;MAXZ:5.96
;TARGET_MACHINE.NAME:Creality Ender-3
;POSTPROCESSED
;  [PauseAtHeight]
;Generated with Cura_SteamEngine 5.11.0
M140 S70
M105
M190 S70
M104 S240
M105
M109 S240
; Ender 3 Custom Start G-code
G92 E0 ; Reset Extruder
G28 ; Home all axes
G1 Z2.0 F3000 ; Move Z Axis up little to prevent scratching of Heat Bed
G1 X0.1 Y20 Z0.3 F5000.0 ; Move to start position
G1 X0.1 Y200.0 Z0.3 F1500.0 E15 ; Draw the first line
G1 X0.4 Y200.0 Z0.3 F5000.0 ; Move to side a little
G1 X0.4 Y20 Z0.3 F1500.0 E30 ; Draw the second line
G92 E0 ; Reset Extruder
G1 Z2.0 F3000 ; Move Z Axis up little to prevent scratching of Heat Bed
G1 X5 Y20 Z0.3 F5000.0 ; Move over to prevent blob squish
M82 ;absolute extrusion mode
G92 E0
G92 E0
G1 F2700 E-5
;LAYER_COUNT:49
;LAYER:0
M107
;MESH:Wall Mount 2.stl
G0 F6000 X117.5 Y150.184 Z0.2
;TYPE:WALL-INNER
G1 F2700 E0
G1 F1200 X157.482 Y150.184 E1.32981
G1 X158.053 Y150.165 E1.34881
G1 X158.6 Y150.105 E1.36711
G1 X159.118 Y150.009 E1.38463
G1 X159.658 Y149.871 E1.40317
G1 X160.194 Y149.693 E1.42196
G1 X160.679 Y149.493 E1.4394
G1 X161.192 Y149.236 E1.45849
G1 X161.655 Y148.962 E1.47638
G1 X162.103 Y148.651 E1.49452
G1 X162.537 Y148.299 E1.51311
G1 X162.932 Y147.93 E1.53109
G1 X163.307 Y147.533 E1.54925
G1 X163.65 Y147.104 E1.56752
G1 X163.962 Y146.655 E1.5857
G1 X164.236 Y146.192 E1.6036
G1 X164.493 Y145.679 E1.62268
G1 X164.693 Y145.193 E1.64016
G1 X164.875 Y144.654 E1.65908
G1 X165.009 Y144.12 E1.67739
G1 X165.105 Y143.6 E1.69498
G1 X165.164 Y143.053 E1.71328
G1 X165.184 Y142.482 E1.73228
G1 X165.184 Y92.503 E3.39459
G1 X165.165 Y91.939 E3.41336
G1 X165.105 Y91.396 E3.43153
G1 X165.009 Y90.877 E3.44909
G1 X164.875 Y90.345 E3.46733
G1 X164.693 Y89.802 E3.48638
G1 X164.493 Y89.317 E3.50383
G1 X164.236 Y88.804 E3.52291
G1 X163.962 Y88.341 E3.54081
G1 X163.651 Y87.893 E3.55895
G1 X163.307 Y87.467 E3.57716
G1 X162.931 Y87.065 E3.59547
G1 X162.529 Y86.689 E3.61377
G1 X162.103 Y86.345 E3.63198
G1 X161.655 Y86.034 E3.65012
G1 X161.192 Y85.76 E3.66802
G1 X160.679 Y85.503 E3.6871
G1 X160.194 Y85.303 E3.70455
G1 X159.658 Y85.125 E3.72334
G1 X159.118 Y84.987 E3.74187
G1 X158.602 Y84.891 E3.75933
G1 X158.053 Y84.835 E3.77768
G1 X157.48 Y84.812 E3.79676
G1 X77.516 Y84.812 E6.45637
G1 X76.943 Y84.835 E6.47544
G1 X76.397 Y84.891 E6.4937
G1 X75.877 Y84.987 E6.51129
G1 X75.338 Y85.125 E6.52979
G1 X74.802 Y85.303 E6.54858
G1 X74.317 Y85.503 E6.56603
G1 X73.804 Y85.76 E6.58511
G1 X73.341 Y86.034 E6.603
G1 X72.893 Y86.345 E6.62114
G1 X72.467 Y86.689 E6.63936
G1 X72.065 Y87.065 E6.65766
G1 X71.689 Y87.467 E6.67597
G1 X71.345 Y87.893 E6.69418
G1 X71.034 Y88.341 E6.71232
G1 X70.76 Y88.804 E6.73021
G1 X70.503 Y89.317 E6.7493
G1 X70.303 Y89.802 E6.76675
G1 X70.121 Y90.345 E6.7858
G1 X69.987 Y90.877 E6.80404
G1 X69.891 Y91.394 E6.82153
G1 X69.835 Y91.939 E6.83975
G1 X69.812 Y92.516 E6.85896
G1 X69.812 Y142.491 E8.52114
G1 X69.835 Y143.053 E8.53984
G1 X69.891 Y143.602 E8.5582
G1 X69.987 Y144.12 E8.57572
G1 X70.121 Y144.654 E8.59403
G1 X70.303 Y145.193 E8.61295
G1 X70.503 Y145.679 E8.63043
G1 X70.76 Y146.192 E8.64952
G1 X71.033 Y146.654 E8.66737
G1 X71.349 Y147.103 E8.68563
G1 X71.694 Y147.534 E8.70399
G1 X72.065 Y147.931 E8.72206
G1 X72.459 Y148.299 E8.73999
G1 X72.893 Y148.651 E8.75858
G1 X73.341 Y148.962 E8.77672
G1 X73.804 Y149.236 E8.79461
G1 X74.317 Y149.493 E8.8137
G1 X74.802 Y149.693 E8.83114
G1 X75.338 Y149.871 E8.84993
G1 X75.877 Y150.009 E8.86843
G1 X76.4 Y150.105 E8.88612
G1 X76.943 Y150.164 E8.90429
G1 X77.514 Y150.184 E8.92329
G1 X117.5 Y150.184 E10.25323
G0 F6000 X117.5 Y150.584
;TYPE:WALL-OUTER
G1 F1200 X157.488 Y150.584 E11.58324
G1 X158.081 Y150.564 E11.60297
G1 X158.658 Y150.501 E11.62228
G1 X159.204 Y150.4 E11.64074
G1 X159.771 Y150.255 E11.66021
G1 X160.334 Y150.068 E11.67994
G1 X160.845 Y149.857 E11.69833
G1 X161.384 Y149.588 E11.71836
G1 X161.871 Y149.299 E11.7372
G1 X162.343 Y148.971 E11.75632
G1 X162.8 Y148.601 E11.77587
G1 X163.214 Y148.214 E11.79472
G1 X163.609 Y147.796 E11.81385
G1 X163.971 Y147.344 E11.83311
G1 X164.299 Y146.871 E11.85226
G1 X164.588 Y146.384 E11.87109
G1 X164.857 Y145.845 E11.89113
G1 X165.068 Y145.333 E11.90955
G1 X165.259 Y144.767 E11.92941
G1 X165.4 Y144.205 E11.94868
G1 X165.501 Y143.658 E11.96719
G1 X165.564 Y143.081 E11.98649
G1 X165.584 Y142.488 E12.00623
G1 X165.584 Y92.496 E13.66897
G1 X165.564 Y91.911 E13.68843
G1 X165.501 Y91.338 E13.70761
G1 X165.4 Y90.791 E13.72611
G1 X165.259 Y90.233 E13.74525
G1 X165.068 Y89.662 E13.76528
G1 X164.857 Y89.151 E13.78366
G1 X164.588 Y88.612 E13.8037
G1 X164.299 Y88.125 E13.82254
G1 X163.971 Y87.653 E13.84165
G1 X163.609 Y87.204 E13.86084
G1 X163.214 Y86.782 E13.88006
G1 X162.792 Y86.387 E13.89929
G1 X162.343 Y86.025 E13.91847
G1 X161.871 Y85.697 E13.93759
G1 X161.384 Y85.408 E13.95642
G1 X160.845 Y85.139 E13.97646
G1 X160.334 Y84.928 E13.99484
G1 X159.771 Y84.741 E14.01458
G1 X159.204 Y84.596 E14.03404
G1 X158.659 Y84.495 E14.05248
G1 X158.081 Y84.436 E14.0718
G1 X157.488 Y84.412 E14.09154
G1 X77.508 Y84.412 E16.75169
G1 X76.915 Y84.436 E16.77143
G1 X76.341 Y84.495 E16.79062
G1 X75.791 Y84.596 E16.80922
G1 X75.225 Y84.741 E16.82865
G1 X74.662 Y84.928 E16.84838
G1 X74.151 Y85.139 E16.86677
G1 X73.612 Y85.408 E16.8868
G1 X73.125 Y85.697 E16.90564
G1 X72.653 Y86.025 E16.92476
G1 X72.204 Y86.387 E16.94394
G1 X71.782 Y86.782 E16.96316
G1 X71.387 Y87.204 E16.98239
G1 X71.025 Y87.653 E17.00157
G1 X70.697 Y88.125 E17.02069
G1 X70.408 Y88.612 E17.03952
G1 X70.139 Y89.151 E17.05956
G1 X69.928 Y89.662 E17.07795
G1 X69.737 Y90.233 E17.09797
G1 X69.596 Y90.791 E17.11712
G1 X69.495 Y91.337 E17.13558
G1 X69.436 Y91.911 E17.15478
G1 X69.412 Y92.508 E17.17465
G1 X69.412 Y142.499 E18.83736
G1 X69.436 Y143.081 E18.85673
G1 X69.495 Y143.659 E18.87605
G1 X69.596 Y144.205 E18.89452
G1 X69.737 Y144.767 E18.91379
G1 X69.928 Y145.333 E18.93366
G1 X70.139 Y145.845 E18.95208
G1 X70.408 Y146.384 E18.97212
G1 X70.697 Y146.871 E18.99095
G1 X71.029 Y147.343 E19.01015
G1 X71.392 Y147.796 E19.02945
G1 X71.782 Y148.214 E19.04847
G1 X72.196 Y148.601 E19.06732
G1 X72.653 Y148.971 E19.08687
G1 X73.125 Y149.299 E19.10599
G1 X73.612 Y149.588 E19.12483
G1 X74.151 Y149.857 E19.14486
G1 X74.662 Y150.068 E19.16325
G1 X75.225 Y150.255 E19.18298
G1 X75.791 Y150.4 E19.20241
G1 X76.342 Y150.501 E19.22104
G1 X76.915 Y150.564 E19.24022
G1 X77.508 Y150.584 E19.25995
G1 X117.5 Y150.584 E20.59009
G0 F6000 X117.5 Y149.824
;TYPE:SKIN
G1 F1200 X77.524 Y149.824 E21.9197
G1 X76.963 Y149.804 E21.93837
G1 X76.446 Y149.746 E21.95567
G1 X75.964 Y149.656 E21.97198
G1 X75.445 Y149.523 E21.9898
G1 X74.93 Y149.352 E22.00785
G1 X74.467 Y149.161 E22.02451
G1 X73.964 Y148.912 E22.04318
G1 X73.533 Y148.655 E22.05987
G1 X73.109 Y148.359 E22.07706
G1 X72.704 Y148.032 E22.09438
G1 X72.318 Y147.674 E22.11189
G1 X71.96 Y147.284 E22.1295
G1 X71.628 Y146.879 E22.14691
G1 X71.329 Y146.447 E22.16439
G1 X71.08 Y146.028 E22.1806
G1 X70.827 Y145.517 E22.19956
G1 X70.636 Y145.054 E22.21622
G1 X70.468 Y144.555 E22.23373
G1 X70.336 Y144.033 E22.25164
G1 X70.247 Y143.551 E22.26794
G1 X70.196 Y143.033 E22.28526
G1 X70.172 Y142.487 E22.30343
G1 X70.172 Y92.529 E23.96504
G1 X70.196 Y91.954 E23.98419
G1 X70.247 Y91.437 E24.00146
G1 X70.336 Y90.963 E24.01751
G1 X70.465 Y90.445 E24.03526
G1 X70.636 Y89.939 E24.05303
G1 X70.827 Y89.475 E24.06971
G1 X71.08 Y88.964 E24.08868
G1 X71.341 Y88.525 E24.10567
G1 X71.625 Y88.117 E24.1222
G1 X71.968 Y87.692 E24.14036
G1 X72.31 Y87.326 E24.15703
G1 X72.692 Y86.967 E24.17446
G1 X73.117 Y86.625 E24.1926
G1 X73.525 Y86.341 E24.20914
G1 X73.964 Y86.08 E24.22613
G1 X74.467 Y85.831 E24.24479
G1 X74.93 Y85.64 E24.26145
G1 X75.445 Y85.468 E24.27951
G1 X75.964 Y85.336 E24.29732
G1 X76.445 Y85.247 E24.31359
G1 X76.958 Y85.196 E24.33074
G1 X77.529 Y85.172 E24.34975
G1 X157.463 Y85.172 E27.00836
G1 X158.034 Y85.196 E27.02737
G1 X158.551 Y85.247 E27.04465
G1 X159.028 Y85.336 E27.06079
G1 X159.547 Y85.468 E27.0786
G1 X160.062 Y85.64 E27.09666
G1 X160.529 Y85.831 E27.11344
G1 X161.028 Y86.08 E27.13199
G1 X161.467 Y86.341 E27.14898
G1 X161.875 Y86.625 E27.16551
G1 X162.3 Y86.968 E27.18367
G1 X162.666 Y87.31 E27.20034
G1 X163.025 Y87.692 E27.21777
G1 X163.367 Y88.117 E27.23591
G1 X163.651 Y88.525 E27.25245
G1 X163.912 Y88.965 E27.26946
G1 X164.169 Y89.475 E27.28846
G1 X164.356 Y89.938 E27.30507
G1 X164.528 Y90.445 E27.32287
G1 X164.66 Y90.963 E27.34065
G1 X164.746 Y91.434 E27.35658
G1 X164.804 Y91.951 E27.37388
G1 X164.824 Y92.5 E27.39215
G1 X164.824 Y142.468 E29.0541
G1 X164.804 Y143.026 E29.07267
G1 X164.749 Y143.542 E29.08993
G1 X164.656 Y144.033 E29.10655
G1 X164.527 Y144.555 E29.12443
G1 X164.356 Y145.054 E29.14198
G1 X164.169 Y145.517 E29.15858
G1 X163.912 Y146.028 E29.17761
G1 X163.659 Y146.455 E29.19412
G1 X163.359 Y146.888 E29.21164
G1 X163.033 Y147.296 E29.22901
G1 X162.682 Y147.666 E29.24597
G1 X162.308 Y148.017 E29.26303
G1 X161.887 Y148.359 E29.28107
G1 X161.459 Y148.655 E29.29838
G1 X161.028 Y148.912 E29.31507
G1 X160.529 Y149.161 E29.33362
G1 X160.062 Y149.352 E29.3504
G1 X159.547 Y149.523 E29.36845
G1 X159.024 Y149.656 E29.38639
G1 X158.55 Y149.746 E29.40244
G1 X158.029 Y149.804 E29.41988
G1 X157.468 Y149.824 E29.43855
G1 X117.5 Y149.824 E30.76789
G1 F2700 E25.76789
G0 F6000 X117.5 Y150.084
G0 X76.955 Y150.004
G0 X75.54 Y149.746
G0 X73.836 Y149.138
G0 X74.071 Y148.741
G1 F2700 E30.76789
G1 F1200 X71.25 Y145.921 E30.90056
G0 F6000 X70.854 Y146.154
G0 X70.359 Y145.044
G0 X70.794 Y144.899
G1 F1200 X75.089 Y149.194 E31.10258
G0 F6000 X75.892 Y149.431
G1 F1200 X70.558 Y144.097 E31.35347
G0 F6000 X70.433 Y143.407
G1 F1200 X76.586 Y149.559 E31.64287
G0 F6000 X77.204 Y149.612
G1 F1200 X70.385 Y142.793 E31.96361
G0 F6000 X70.372 Y142.214
G1 F1200 X77.782 Y149.624 E32.31216
G0 F6000 X78.347 Y149.624
G1 F1200 X70.372 Y141.648 E32.6873
G0 F6000 X70.372 Y141.083
G1 F1200 X78.913 Y149.624 E33.08904
G0 F6000 X79.479 Y149.624
G1 F1200 X70.372 Y140.517 E33.51741
G0 F6000 X70.372 Y139.951
G1 F1200 X80.044 Y149.624 E33.97237
G0 F6000 X80.61 Y149.624
G1 F1200 X70.372 Y139.386 E34.45394
G0 F6000 X70.372 Y138.82
G1 F1200 X81.176 Y149.624 E34.96212
G0 F6000 X81.742 Y149.624
G1 F1200 X70.372 Y138.254 E35.49693
G0 F6000 X70.372 Y137.689
G1 F1200 X82.307 Y149.624 E36.05832
G0 F6000 X82.873 Y149.624
G1 F1200 X70.372 Y137.123 E36.64633
G0 F6000 X70.372 Y136.557
G1 F1200 X83.439 Y149.624 E37.26096
G0 F6000 X84.004 Y149.624
G1 F1200 X70.372 Y135.991 E37.90219
G0 F6000 X70.372 Y135.426
G1 F1200 X84.57 Y149.624 E38.57002
G0 F6000 X85.136 Y149.624
G1 F1200 X70.372 Y134.86 E39.26448
G0 F6000 X70.372 Y134.294
G1 F1200 X85.701 Y149.624 E39.98553
G0 F6000 X86.267 Y149.624
G1 F1200 X70.372 Y133.729 E40.73318
G0 F6000 X70.372 Y133.163
G1 F1200 X86.833 Y149.624 E41.50746
G0 F6000 X87.398 Y149.624
G1 F1200 X70.372 Y132.597 E42.30833
G0 F6000 X70.372 Y132.032
G1 F1200 X87.964 Y149.624 E43.1358
G0 F6000 X88.53 Y149.624
G1 F1200 X70.372 Y131.466 E43.9899
G0 F6000 X70.372 Y130.9
G1 F1200 X89.095 Y149.624 E44.8706
G0 F6000 X89.661 Y149.624
G1 F1200 X70.372 Y130.335 E45.77789
G0 F6000 X70.372 Y129.769
G1 F1200 X90.227 Y149.624 E46.71181
G0 F6000 X90.793 Y149.624
G1 F1200 X70.372 Y129.203 E47.67235
G0 F6000 X70.372 Y128.638
G1 F1200 X91.358 Y149.624 E48.65947
G0 F6000 X91.924 Y149.624
G1 F1200 X70.372 Y128.072 E49.67321
G0 F6000 X70.372 Y127.506
G1 F1200 X92.49 Y149.624 E50.71357
G0 F6000 X93.055 Y149.624
G1 F1200 X70.372 Y126.941 E51.78051
G0 F6000 X70.372 Y126.375
G1 F1200 X93.621 Y149.624 E52.87407
G0 F6000 X94.187 Y149.624
G1 F1200 X70.372 Y125.809 E53.99426
G0 F6000 X70.372 Y125.243
G1 F1200 X94.752 Y149.624 E55.14104
G0 F6000 X95.318 Y149.624
G1 F1200 X70.372 Y124.678 E56.31442
G0 F6000 X70.372 Y124.112
G1 F1200 X95.884 Y149.624 E57.51443
G0 F6000 X96.449 Y149.624
G1 F1200 X70.372 Y123.546 E58.74104
G0 F6000 X70.372 Y122.981
G1 F1200 X97.015 Y149.624 E59.99424
G0 F6000 X97.581 Y149.624
G1 F1200 X70.372 Y122.415 E61.27407
G0 F6000 X70.372 Y121.849
G1 F1200 X98.146 Y149.624 E62.5805
G0 F6000 X98.712 Y149.624
G1 F1200 X70.372 Y121.284 E63.91352
G0 F6000 X70.372 Y120.718
G1 F1200 X99.278 Y149.624 E65.27317
G0 F6000 X99.843 Y149.624
G1 F1200 X70.372 Y120.152 E66.65942
G0 F6000 X70.372 Y119.587
G1 F1200 X100.409 Y149.624 E68.07227
G0 F6000 X100.975 Y149.624
G1 F1200 X70.372 Y119.021 E69.51174
G0 F6000 X70.372 Y118.455
G1 F1200 X101.541 Y149.624 E70.97783
G0 F6000 X102.106 Y149.624
G1 F1200 X70.372 Y117.89 E72.4705
G0 F6000 X70.372 Y117.324
G1 F1200 X102.672 Y149.624 E73.9898
G0 F6000 X103.238 Y149.624
G1 F1200 X70.372 Y116.758 E75.53571
G0 F6000 X70.372 Y116.192
G1 F1200 X103.803 Y149.624 E77.10823
G0 F6000 X104.369 Y149.624
G1 F1200 X70.372 Y115.627 E78.70734
G0 F6000 X70.372 Y115.061
G1 F1200 X104.935 Y149.624 E80.33308
G0 F6000 X105.5 Y149.624
G1 F1200 X70.372 Y114.495 E81.98542
G0 F6000 X70.372 Y113.93
G1 F1200 X106.066 Y149.624 E83.66435
G0 F6000 X106.632 Y149.624
G1 F1200 X70.372 Y113.364 E85.36991
G0 F6000 X70.372 Y112.798
G1 F1200 X107.197 Y149.624 E87.10207
G0 F6000 X107.763 Y149.624
G1 F1200 X70.372 Y112.233 E88.86083
G0 F6000 X70.372 Y111.667
G1 F1200 X108.329 Y149.624 E90.64621
G0 F6000 X108.894 Y149.624
G1 F1200 X70.372 Y111.101 E92.45819
G0 F6000 X70.372 Y110.536
G1 F1200 X109.46 Y149.624 E94.29677
G0 F6000 X110.026 Y149.624
G1 F1200 X70.372 Y109.97 E96.16197
G0 F6000 X70.372 Y109.404
G1 F1200 X110.592 Y149.624 E98.0538
G0 F6000 X111.157 Y149.624
G1 F1200 X70.372 Y108.839 E99.9722
G0 F6000 X70.372 Y108.273
G1 F1200 X111.723 Y149.624 E101.91722
G0 F6000 X112.289 Y149.624
G1 F1200 X70.372 Y107.707 E103.88887
G0 F6000 X70.372 Y107.142
G1 F1200 X112.854 Y149.624 E105.88709
G0 F6000 X113.42 Y149.624
G1 F1200 X70.372 Y106.576 E107.91194
G0 F6000 X70.372 Y106.01
G1 F1200 X113.986 Y149.624 E109.96341
G0 F6000 X114.551 Y149.624
G1 F1200 X70.372 Y105.444 E112.04148
G0 F6000 X70.372 Y104.879
G1 F1200 X115.117 Y149.624 E114.14615
G0 F6000 X115.683 Y149.624
G1 F1200 X70.372 Y104.313 E116.27744
G0 F6000 X70.372 Y103.747
G1 F1200 X116.248 Y149.624 E118.43533
G0 F6000 X116.814 Y149.624
G1 F1200 X70.372 Y103.182 E120.61982
G0 F6000 X70.372 Y102.616
G1 F1200 X117.38 Y149.624 E122.83093
G0 F6000 X117.945 Y149.624
G1 F1200 X70.372 Y102.05 E125.06864
G0 F6000 X70.372 Y101.485
G1 F1200 X118.511 Y149.624 E127.33295
G0 F6000 X119.077 Y149.624
G1 F1200 X70.372 Y100.919 E129.62388
G0 F6000 X70.372 Y100.353
G1 F1200 X119.642 Y149.624 E131.94142
G0 F6000 X120.208 Y149.624
G1 F1200 X70.372 Y99.788 E134.28555
G0 F6000 X70.372 Y99.222
G1 F1200 X120.774 Y149.624 E136.65631
G0 F6000 X121.34 Y149.624
G1 F1200 X70.372 Y98.656 E139.05368
G0 F6000 X70.372 Y98.091
G1 F1200 X121.905 Y149.624 E141.47764
G0 F6000 X122.471 Y149.624
G1 F1200 X70.372 Y97.525 E143.92822
G0 F6000 X70.372 Y96.959
G1 F1200 X123.037 Y149.624 E146.40542
G0 F6000 X123.602 Y149.624
G1 F1200 X70.372 Y96.394 E148.90919
G0 F6000 X70.372 Y95.828
G1 F1200 X124.168 Y149.624 E151.43959
G0 F6000 X124.734 Y149.624
G1 F1200 X70.372 Y95.262 E153.99661
G0 F6000 X70.372 Y94.696
G1 F1200 X125.299 Y149.624 E156.58023
G0 F6000 X125.865 Y149.624
G1 F1200 X70.372 Y94.131 E159.19045
G0 F6000 X70.372 Y93.565
G1 F1200 X126.431 Y149.624 E161.8273
G0 F6000 X126.996 Y149.624
G1 F1200 X70.372 Y92.999 E164.49074
G0 F6000 X70.376 Y92.437
G1 F1200 X127.562 Y149.624 E167.18062
G0 F6000 X128.128 Y149.624
G1 F1200 X70.402 Y91.898 E169.89587
G0 F6000 X70.459 Y91.389
G1 F1200 X128.693 Y149.624 E172.63504
G0 F6000 X129.259 Y149.624
G1 F1200 X70.553 Y90.918 E175.39639
G0 F6000 X70.668 Y90.467
G1 F1200 X129.825 Y149.624 E178.17896
G0 F6000 X130.39 Y149.624
G1 F1200 X70.81 Y90.044 E180.98142
G0 F6000 X70.974 Y89.641
G1 F1200 X130.956 Y149.624 E183.80281
G0 F6000 X131.522 Y149.624
G1 F1200 X71.157 Y89.259 E186.6422
G0 F6000 X71.356 Y88.892
G1 F1200 X132.088 Y149.624 E189.49884
G0 F6000 X132.653 Y149.624
G1 F1200 X71.571 Y88.542 E192.37195
G0 F6000 X71.806 Y88.211
G1 F1200 X133.219 Y149.624 E195.26063
G0 F6000 X133.785 Y149.624
G1 F1200 X72.058 Y87.898 E198.16406
