;FLAVOR:Marlin
;TIME:6054
;Filament used: 3.68947m
;Layer height: 0.12
;MINX:88.025
;MINY:57.138
;MINZ:0.2
;MAXX:139.407
;MAXY:172.592
;MAXZ:7.76
;TARGET_MACHINE.NAME:Creality Ender-3
;Generated with Cura_SteamEngine 5.11.0
M140 S70
M105
M190 S70
M104 S240
M105
M109 S240
; Ender 3 Custom Start G-code
G92 E0 ; Reset Extruder
G28 ; Home all axes
G1 Z2.0 F3000 ; Move Z Axis up little to prevent scratching of Heat Bed
G1 X0.1 Y20 Z0.3 F5000.0 ; Move to start position
G1 X0.1 Y200.0 Z0.3 F1500.0 E15 ; Draw the first line
G1 X0.4 Y200.0 Z0.3 F5000.0 ; Move to side a little
G1 X0.4 Y20 Z0.3 F1500.0 E30 ; Draw the second line
G92 E0 ; Reset Extruder
G1 Z2.0 F3000 ; Move Z Axis up little to prevent scratching of Heat Bed
G1 X5 Y20 Z0.3 F5000.0 ; Move over to prevent blob squish
M82 ;absolute extrusion mode
G92 E0
G92 E0
G1 F2700 E-5
;LAYER_COUNT:64
;LAYER:0
M107
;MESH:Switch.stl(3)
G0 F6000 X101.829 Y109.771 Z0.2
;TYPE:WALL-INNER
G1 F2700 E0
G1 F1200 X104.714 Y109.771 E0.09596
G1 X105.076 Y109.713 E0.10815
G1 X105.335 Y109.548 E0.11836
G1 X105.51 Y109.363 E0.12683
G1 X105.639 Y109.148 E0.13517
G1 X105.692 Y108.888 E0.144
G1 X105.736 Y61.694 E1.71368
G1 X105.672 Y61.568 E1.71838
G1 X91.75 Y61.568 E2.18143
G1 X91.693 Y61.768 E2.18834
G1 X91.732 Y108.846 E3.75416
G1 X91.809 Y109.17 E3.76524
G1 X91.919 Y109.365 E3.77269
G1 X92.269 Y109.662 E3.78795
G1 X92.668 Y109.772 E3.80172
G1 X101.829 Y109.771 E4.10642
G0 F6000 X101.879 Y110.171
;TYPE:WALL-OUTER
G1 F1200 X104.747 Y110.171 E4.20181
G1 X105.22 Y110.094 E4.21774
G1 X105.591 Y109.86 E4.23233
G1 X105.831 Y109.606 E4.24396
G1 X106.018 Y109.294 E4.25606
G1 X106.092 Y108.928 E4.26847
G1 X106.136 Y61.747 E5.83772
G1 X106.106 Y61.541 E5.84465
G1 X105.995 Y61.318 E5.85293
G1 X105.838 Y61.205 E5.85936
G1 X105.691 Y61.168 E5.86441
G1 X91.738 Y61.168 E6.32848
G1 X91.594 Y61.205 E6.33343
G1 X91.433 Y61.319 E6.33999
G1 X91.322 Y61.541 E6.34825
G1 X91.293 Y61.739 E6.3549
G1 X91.332 Y108.892 E7.92322
G1 X91.433 Y109.318 E7.93778
G1 X91.595 Y109.604 E7.94871
G1 X91.815 Y109.838 E7.95939
G1 X92.085 Y110.02 E7.97022
G1 X92.398 Y110.137 E7.98134
G1 X92.639 Y110.172 E7.98944
G1 X101.879 Y110.171 E8.29676
G0 F6000 X101.784 Y109.409
;TYPE:SKIN
G1 F1200 X92.704 Y109.412 E8.59876
G1 X92.431 Y109.336 E8.60819
G1 X92.318 Y109.258 E8.61276
G1 X92.146 Y109.026 E8.62236
G1 X92.092 Y108.8 E8.63009
G1 X92.053 Y61.928 E10.18906
G1 X105.371 Y61.928 E10.63202
G1 X105.332 Y108.846 E12.19252
G1 X105.297 Y109.005 E12.19793
G1 X105.098 Y109.265 E12.20882
G1 X104.909 Y109.371 E12.21603
G1 X104.68 Y109.408 E12.22375
G1 X101.784 Y109.409 E12.32007
G0 F6000 X101.784 Y109.672
G0 X92.5 Y109.624
G0 X92.806 Y109.211
G1 F1200 X92.291 Y108.696 E12.34429
G0 F6000 X92.291 Y108.13
G1 F1200 X93.372 Y109.211 E12.39514
G0 F6000 X93.938 Y109.211
G1 F1200 X92.29 Y107.564 E12.47263
G0 F6000 X92.289 Y106.997
G1 F1200 X94.503 Y109.211 E12.57677
G0 F6000 X95.068 Y109.211
G1 F1200 X92.289 Y106.432 E12.70749
G0 F6000 X92.289 Y105.865
G1 F1200 X95.634 Y109.211 E12.86485
G0 F6000 X96.2 Y109.211
G1 F1200 X92.288 Y105.299 E13.04886
G0 F6000 X92.288 Y104.733
G1 F1200 X96.765 Y109.21 E13.25944
G0 F6000 X97.33 Y109.21
G1 F1200 X92.287 Y104.167 E13.49665
G0 F6000 X92.287 Y103.601
G1 F1200 X97.896 Y109.21 E13.76048
G0 F6000 X98.462 Y109.21
G1 F1200 X92.287 Y103.035 E14.05093
G0 F6000 X92.286 Y102.468
G1 F1200 X99.027 Y109.209 E14.36801
G0 F6000 X99.592 Y109.209
G1 F1200 X92.286 Y101.903 E14.71166
G0 F6000 X92.285 Y101.336
G1 F1200 X100.158 Y109.209 E15.08198
G0 F6000 X100.723 Y109.208
G1 F1200 X92.285 Y100.77 E15.47888
G0 F6000 X92.285 Y100.204
G1 F1200 X101.289 Y109.208 E15.9024
G0 F6000 X101.854 Y109.208
G1 F1200 X92.284 Y99.638 E16.35254
G0 F6000 X92.283 Y99.071
G1 F1200 X102.42 Y109.208 E16.82936
G0 F6000 X102.985 Y109.208
G1 F1200 X92.283 Y98.506 E17.33275
G0 F6000 X92.282 Y97.939
G1 F1200 X103.551 Y109.208 E17.8628
G0 F6000 X104.117 Y109.208
G1 F1200 X92.282 Y97.373 E18.41949
G0 F6000 X92.282 Y96.807
G1 F1200 X104.679 Y109.205 E19.00263
G0 F6000 X105.046 Y109.005
G1 F1200 X92.281 Y96.241 E19.60303
G0 F6000 X92.28 Y95.674
G1 F1200 X105.133 Y108.527 E20.2076
G0 F6000 X105.133 Y107.962
G1 F1200 X92.28 Y95.109 E20.81216
G0 F6000 X92.28 Y94.542
G1 F1200 X105.133 Y107.396 E21.41675
G0 F6000 X105.134 Y106.831
G1 F1200 X92.279 Y93.976 E22.02141
G0 F6000 X92.279 Y93.41
G1 F1200 X105.135 Y106.266 E22.62612
G0 F6000 X105.135 Y105.7
G1 F1200 X92.278 Y92.844 E23.23085
G0 F6000 X92.277 Y92.277
G1 F1200 X105.135 Y105.135 E23.83565
G0 F6000 X105.136 Y104.57
G1 F1200 X92.277 Y91.712 E24.44047
G0 F6000 X92.277 Y91.145
G1 F1200 X105.136 Y104.005 E25.04534
G0 F6000 X105.137 Y103.44
G1 F1200 X92.276 Y90.579 E25.65029
G0 F6000 X92.276 Y90.013
G1 F1200 X105.138 Y102.875 E26.25528
G0 F6000 X105.138 Y102.309
G1 F1200 X92.275 Y89.447 E26.86029
G0 F6000 X92.275 Y88.88
G1 F1200 X105.138 Y101.744 E27.46535
G0 F6000 X105.139 Y101.179
G1 F1200 X92.275 Y88.315 E28.07043
G0 F6000 X92.274 Y87.748
G1 F1200 X105.139 Y100.614 E28.67558
G0 F6000 X105.14 Y100.049
G1 F1200 X92.274 Y87.183 E29.28076
G0 F6000 X92.273 Y86.616
G1 F1200 X105.14 Y99.484 E29.88601
G0 F6000 X105.14 Y98.918
G1 F1200 X92.272 Y86.05 E30.49128
G0 F6000 X92.272 Y85.484
G1 F1200 X105.141 Y98.353 E31.0966
G0 F6000 X105.142 Y97.788
G1 F1200 X92.272 Y84.918 E31.70196
G0 F6000 X92.271 Y84.351
G1 F1200 X105.142 Y97.222 E32.30738
G0 F6000 X105.143 Y96.657
G1 F1200 X92.271 Y83.786 E32.91281
G0 F6000 X92.27 Y83.219
G1 F1200 X105.143 Y96.092 E33.51832
G0 F6000 X105.143 Y95.527
G1 F1200 X92.27 Y82.653 E34.12385
G0 F6000 X92.27 Y82.087
G1 F1200 X105.144 Y94.962 E34.72943
G0 F6000 X105.145 Y94.397
G1 F1200 X92.269 Y81.521 E35.33507
G0 F6000 X92.268 Y80.955
G1 F1200 X105.145 Y93.831 E35.94074
G0 F6000 X105.145 Y93.266
G1 F1200 X92.268 Y80.389 E36.54644
G0 F6000 X92.268 Y79.822
G1 F1200 X105.146 Y92.701 E37.1522
G0 F6000 X105.146 Y92.135
G1 F1200 X92.267 Y79.256 E37.75799
G0 F6000 X92.267 Y78.69
G1 F1200 X105.147 Y91.57 E38.36383
G0 F6000 X105.147 Y91.005
G1 F1200 X92.266 Y78.124 E38.96971
G0 F6000 X92.265 Y77.558
G1 F1200 X105.147 Y90.44 E39.57564
G0 F6000 X105.148 Y89.875
G1 F1200 X92.265 Y76.992 E40.18162
G0 F6000 X92.265 Y76.426
G1 F1200 X105.149 Y89.31 E40.78764
G0 F6000 X105.149 Y88.744
G1 F1200 X92.264 Y75.859 E41.39371
G0 F6000 X92.264 Y75.293
G1 F1200 X105.15 Y88.179 E41.99983
G0 F6000 X105.15 Y87.614
G1 F1200 X92.263 Y74.727 E42.606
G0 F6000 X92.263 Y74.161
G1 F1200 X105.15 Y87.048 E43.21216
G0 F6000 X105.151 Y86.483
G1 F1200 X92.263 Y73.595 E43.81837
G0 F6000 X92.262 Y73.029
G1 F1200 X105.152 Y85.918 E44.42466
G0 F6000 X105.152 Y85.353
G1 F1200 X92.261 Y72.462 E45.03101
G0 F6000 X92.261 Y71.896
G1 F1200 X105.152 Y84.788 E45.63739
G0 F6000 X105.153 Y84.223
G1 F1200 X92.26 Y71.33 E46.24383
G0 F6000 X92.26 Y70.764
G1 F1200 X105.153 Y83.657 E46.85028
G0 F6000 X105.154 Y83.092
G1 F1200 X92.26 Y70.198 E47.45677
G0 F6000 X92.259 Y69.632
G1 F1200 X105.155 Y82.527 E48.06334
G0 F6000 X105.155 Y81.961
G1 F1200 X92.259 Y69.066 E48.6699
G0 F6000 X92.258 Y68.5
G1 F1200 X105.155 Y81.396 E49.27652
G0 F6000 X105.156 Y80.831
G1 F1200 X92.258 Y67.933 E49.8832
G0 F6000 X92.258 Y67.367
G1 F1200 X105.156 Y80.266 E50.4899
G0 F6000 X105.157 Y79.701
G1 F1200 X92.257 Y66.801 E51.09668
G0 F6000 X92.256 Y66.235
G1 F1200 X105.157 Y79.135 E51.70348
G0 F6000 X105.157 Y78.57
G1 F1200 X92.256 Y65.669 E52.3103
G0 F6000 X92.256 Y65.103
G1 F1200 X105.158 Y78.005 E52.91717
G0 F6000 X105.158 Y77.44
G1 F1200 X92.255 Y64.536 E53.52411
G0 F6000 X92.255 Y63.971
G1 F1200 X105.159 Y76.875 E54.13108
G0 F6000 X105.16 Y76.31
G1 F1200 X92.254 Y63.404 E54.73814
G0 F6000 X92.253 Y62.838
G1 F1200 X105.16 Y75.744 E55.34522
G0 F6000 X105.16 Y75.179
G1 F1200 X92.253 Y62.272 E55.95233
G0 F6000 X92.675 Y62.128
G1 F1200 X105.161 Y74.614 E56.53963
G0 F6000 X105.161 Y74.048
G1 F1200 X93.241 Y62.128 E57.10031
G0 F6000 X93.806 Y62.128
G1 F1200 X105.162 Y73.483 E57.63444
G0 F6000 X105.162 Y72.918
G1 F1200 X94.372 Y62.128 E58.14197
G0 F6000 X94.938 Y62.128
G1 F1200 X105.162 Y72.353 E58.6229
G0 F6000 X105.163 Y71.788
G1 F1200 X95.503 Y62.128 E59.07727
G0 F6000 X96.069 Y62.128
G1 F1200 X105.164 Y71.223 E59.50507
G0 F6000 X105.164 Y70.657
G1 F1200 X96.635 Y62.128 E59.90625
G0 F6000 X97.2 Y62.128
G1 F1200 X105.164 Y70.092 E60.28085
G0 F6000 X105.165 Y69.527
G1 F1200 X97.766 Y62.128 E60.62888
G0 F6000 X98.332 Y62.128
G1 F1200 X105.165 Y68.961 E60.95028
G0 F6000 X105.166 Y68.396
G1 F1200 X98.897 Y62.128 E61.24513
G0 F6000 X99.463 Y62.128
G1 F1200 X105.167 Y67.831 E61.51341
G0 F6000 X105.167 Y67.266
G1 F1200 X100.029 Y62.128 E61.75508
G0 F6000 X100.594 Y62.128
G1 F1200 X105.167 Y66.701 E61.97018
G0 F6000 X105.168 Y66.136
G1 F1200 X101.16 Y62.128 E62.15871
G0 F6000 X101.726 Y62.128
G1 F1200 X105.168 Y65.57 E62.32061
G0 F6000 X105.169 Y65.005
G1 F1200 X102.291 Y62.128 E62.45596
G0 F6000 X102.857 Y62.128
G1 F1200 X105.169 Y64.44 E62.56471
G0 F6000 X105.169 Y63.874
G1 F1200 X103.423 Y62.128 E62.64683
G0 F6000 X103.989 Y62.128
G1 F1200 X105.17 Y63.309 E62.70238
G0 F6000 X105.171 Y62.744
G1 F1200 X104.554 Y62.128 E62.73138
G1 F2700 E57.73138
;MESH:Switch.stl(2)
G0 F6000 X104.554 Y61.668
G0 X105.561 Y61.74
G0 X105.866 Y108.909
G0 X106.961 Y108.909
G0 X120.468 Y108.864
G0 X126.857 Y109.771
;TYPE:WALL-INNER
G1 F2700 E62.73138
G1 F1200 X134.846 Y109.771 E62.9971
G1 X135.133 Y109.677 E63.00714
G1 X135.335 Y109.549 E63.0151
G1 X135.51 Y109.363 E63.02359
G1 X135.639 Y109.148 E63.03193
G1 X135.692 Y108.888 E63.04076
G1 X135.736 Y61.775 E64.60774
G1 X135.679 Y61.568 E64.61488
G1 X121.75 Y61.568 E65.07816
G1 X121.693 Y61.768 E65.08508
G1 X121.732 Y108.846 E66.6509
G1 X121.809 Y109.17 E66.66198
G1 X121.919 Y109.365 E66.66942
G1 X122.076 Y109.533 E66.67707
G1 X122.394 Y109.717 E66.68929
G1 X122.684 Y109.771 E66.6991
G1 X126.857 Y109.771 E66.8379
G0 F6000 X126.827 Y110.171
;TYPE:WALL-OUTER
G1 F1200 X134.913 Y110.171 E67.10684
G1 X135.305 Y110.041 E67.12057
G1 X135.591 Y109.86 E67.13183
G1 X135.831 Y109.606 E67.14345
G1 X136.018 Y109.294 E67.15555
G1 X136.092 Y108.928 E67.16797
G1 X136.136 Y61.747 E68.73722
G1 X136.106 Y61.54 E68.74418
G1 X135.999 Y61.322 E68.75225
G1 X135.834 Y61.205 E68.75898
G1 X135.69 Y61.168 E68.76393
G1 X121.738 Y61.168 E69.22797
G1 X121.594 Y61.205 E69.23292
G1 X121.433 Y61.319 E69.23948
G1 X121.322 Y61.541 E69.24773
G1 X121.293 Y61.739 E69.25439
G1 X121.332 Y108.892 E70.8227
G1 X121.433 Y109.318 E70.83727
G1 X121.595 Y109.604 E70.8482
G1 X121.815 Y109.839 E70.85891
G1 X122.091 Y110.026 E70.86999
G1 X122.281 Y110.103 E70.87681
G1 X122.647 Y110.171 E70.88919
G1 X126.827 Y110.171 E71.02822
G0 F6000 X126.884 Y109.408
;TYPE:SKIN
G1 F1200 X122.715 Y109.408 E71.16688
G1 X122.507 Y109.369 E71.17392
G1 X122.314 Y109.256 E71.18136
G1 X122.146 Y109.026 E71.19083
G1 X122.092 Y108.804 E71.19843
G1 X122.053 Y61.928 E72.75753
G1 X135.371 Y61.928 E73.20049
G1 X135.332 Y108.846 E74.76099
G1 X135.297 Y109.005 E74.76641
G1 X135.094 Y109.27 E74.77751
G1 X134.784 Y109.408 E74.7888
G1 X126.884 Y109.408 E75.05155
G0 F6000 X126.884 Y109.671
G0 X122.329 Y109.567
G0 X122.784 Y109.208
G1 F1200 X122.291 Y108.715 E75.07474
G0 F6000 X122.291 Y108.149
G1 F1200 X123.35 Y109.208 E75.12455
G0 F6000 X123.916 Y109.208
G1 F1200 X122.291 Y107.583 E75.20099
G0 F6000 X122.29 Y107.016
G1 F1200 X124.481 Y109.208 E75.30407
G0 F6000 X125.047 Y109.208
G1 F1200 X122.29 Y106.451 E75.43375
G0 F6000 X122.289 Y105.884
G1 F1200 X125.613 Y109.208 E75.5901
G0 F6000 X126.178 Y109.208
G1 F1200 X122.288 Y105.318 E75.77308
G0 F6000 X122.288 Y104.752
G1 F1200 X126.744 Y109.208 E75.98267
G0 F6000 X127.31 Y109.208
G1 F1200 X122.288 Y104.186 E76.21889
G0 F6000 X122.287 Y103.619
G1 F1200 X127.875 Y109.208 E76.48176
G0 F6000 X128.441 Y109.208
G1 F1200 X122.287 Y103.054 E76.77122
G0 F6000 X122.286 Y102.487
G1 F1200 X129.007 Y109.208 E77.08736
G0 F6000 X129.572 Y109.208
G1 F1200 X122.286 Y101.921 E77.43009
G0 F6000 X122.286 Y101.355
G1 F1200 X130.138 Y109.208 E77.79945
G0 F6000 X130.704 Y109.208
G1 F1200 X122.285 Y100.789 E78.19545
G0 F6000 X122.284 Y100.222
G1 F1200 X131.269 Y109.208 E78.6181
G0 F6000 X131.835 Y109.208
G1 F1200 X122.284 Y99.657 E79.06735
G0 F6000 X122.284 Y99.09
G1 F1200 X132.401 Y109.208 E79.54325
G0 F6000 X132.966 Y109.208
G1 F1200 X122.283 Y98.524 E80.04577
G0 F6000 X122.283 Y97.958
G1 F1200 X133.532 Y109.208 E80.57491
G0 F6000 X134.098 Y109.208
G1 F1200 X122.282 Y97.392 E81.1307
G0 F6000 X122.281 Y96.826
G1 F1200 X134.664 Y109.208 E81.71313
G0 F6000 X135.038 Y109.016
G1 F1200 X122.281 Y96.26 E82.31316
G0 F6000 X122.281 Y95.693
G1 F1200 X135.132 Y108.545 E82.91766
G0 F6000 X135.133 Y107.98
G1 F1200 X122.28 Y95.127 E83.52222
G0 F6000 X122.28 Y94.561
G1 F1200 X135.133 Y107.414 E84.12679
G0 F6000 X135.134 Y106.849
G1 F1200 X122.279 Y93.995 E84.73142
G0 F6000 X122.279 Y93.429
G1 F1200 X135.134 Y106.285 E85.33611
G0 F6000 X135.134 Y105.719
G1 F1200 X122.279 Y92.863 E85.94079
G0 F6000 X122.278 Y92.297
G1 F1200 X135.135 Y105.154 E86.54554
G0 F6000 X135.136 Y104.589
G1 F1200 X122.277 Y91.73 E87.15039
G0 F6000 X122.277 Y91.164
G1 F1200 X135.136 Y104.023 E87.75524
G0 F6000 X135.137 Y103.458
G1 F1200 X122.276 Y90.598 E88.36016
G0 F6000 X122.276 Y90.032
G1 F1200 X135.137 Y102.893 E88.9651
G0 F6000 X135.137 Y102.328
G1 F1200 X122.276 Y89.466 E89.57007
G0 F6000 X122.275 Y88.9
G1 F1200 X135.138 Y101.763 E90.1751
G0 F6000 X135.139 Y101.198
G1 F1200 X122.274 Y88.333 E90.78023
G0 F6000 X122.274 Y87.768
G1 F1200 X135.139 Y100.632 E91.38534
G0 F6000 X135.139 Y100.067
G1 F1200 X122.274 Y87.201 E91.99049
G0 F6000 X122.273 Y86.635
G1 F1200 X135.14 Y99.502 E92.59572
G0 F6000 X135.14 Y98.936
G1 F1200 X122.273 Y86.069 E93.20094
G0 F6000 X122.272 Y85.503
G1 F1200 X135.141 Y98.371 E93.80624
G0 F6000 X135.142 Y97.806
G1 F1200 X122.271 Y84.936 E94.41162
G0 F6000 X122.271 Y84.371
G1 F1200 X135.142 Y97.241 E95.01701
G0 F6000 X135.142 Y96.676
G1 F1200 X122.271 Y83.804 E95.62245
G0 F6000 X122.27 Y83.238
G1 F1200 X135.143 Y96.111 E96.22796
G0 F6000 X135.143 Y95.545
G1 F1200 X122.27 Y82.672 E96.83346
G0 F6000 X122.269 Y82.106
G1 F1200 X135.144 Y94.98 E97.43904
G0 F6000 X135.144 Y94.415
G1 F1200 X122.269 Y81.539 E98.04466
G0 F6000 X122.269 Y80.974
G1 F1200 X135.144 Y93.849 E98.65026
G0 F6000 X135.145 Y93.284
G1 F1200 X122.268 Y80.407 E99.25596
G0 F6000 X122.267 Y79.841
G1 F1200 X135.146 Y92.719 E99.86172
G0 F6000 X135.146 Y92.154
G1 F1200 X122.267 Y79.275 E100.46751
G0 F6000 X122.267 Y78.709
G1 F1200 X135.146 Y91.589 E101.07332
G0 F6000 X135.147 Y91.024
G1 F1200 X122.266 Y78.142 E101.67923
G0 F6000 X122.266 Y77.577
G1 F1200 X135.147 Y90.458 E102.28511
G0 F6000 X135.148 Y89.893
G1 F1200 X122.265 Y77.01 E102.89109
G0 F6000 X122.264 Y76.444
G1 F1200 X135.149 Y89.328 E103.49714
G0 F6000 X135.149 Y88.762
G1 F1200 X122.264 Y75.878 E104.10319
G0 F6000 X122.264 Y75.312
G1 F1200 X135.149 Y88.197 E104.70926
G0 F6000 X135.15 Y87.632
G1 F1200 X122.263 Y74.745 E105.31542
G0 F6000 X122.263 Y74.18
G1 F1200 X135.15 Y87.067 E105.92159
G0 F6000 X135.151 Y86.502
G1 F1200 X122.262 Y73.613 E106.52785
G0 F6000 X122.262 Y73.047
G1 F1200 X135.151 Y85.936 E107.1341
G0 F6000 X135.151 Y85.371
G1 F1200 X122.262 Y72.481 E107.74039
G0 F6000 X122.261 Y71.915
G1 F1200 X135.152 Y84.806 E108.34674
G0 F6000 X135.152 Y84.24
G1 F1200 X122.26 Y71.348 E108.95314
G0 F6000 X122.26 Y70.783
G1 F1200 X135.153 Y83.675 E109.55956
G0 F6000 X135.154 Y83.111
G1 F1200 X122.259 Y70.216 E110.1661
G0 F6000 X122.259 Y69.65
G1 F1200 X135.154 Y82.545 E110.77265
G0 F6000 X135.154 Y81.98
G1 F1200 X122.259 Y69.084 E111.37921
G0 F6000 X122.258 Y68.518
G1 F1200 X135.155 Y81.415 E111.98585
G0 F6000 X135.155 Y80.849
G1 F1200 X122.257 Y67.952 E112.59251
G0 F6000 X122.257 Y67.386
G1 F1200 X135.156 Y80.284 E113.19921
G0 F6000 X135.156 Y79.719
G1 F1200 X122.257 Y66.819 E113.80596
G0 F6000 X122.256 Y66.253
G1 F1200 X135.156 Y79.154 E114.41276
G0 F6000 X135.157 Y78.589
G1 F1200 X122.256 Y65.687 E115.01961
G0 F6000 X122.255 Y65.121
G1 F1200 X135.158 Y78.024 E115.62653
G0 F6000 X135.158 Y77.458
G1 F1200 X122.255 Y64.555 E116.23345
G0 F6000 X122.255 Y63.989
G1 F1200 X135.159 Y76.893 E116.84041
