;FLAVOR:Marlin
;TIME:353
;Filament used: 0.105216m
;Layer height: 0.12
;MINX:104.7
;MINY:105.2
;MINZ:0.2
;MAXX:130.3
;MAXY:133.299
;MAXZ:2.36
;TARGET_MACHINE.NAME:Creality Ender-3
;Generated with Cura_SteamEngine 5.11.0
M140 S60
M105
M190 S60
M104 S200
M105
M109 S200
; Ender 3 Custom Start G-code
G92 E0 ; Reset Extruder
G28 ; Home all axes
G1 Z2.0 F3000 ; Move Z Axis up little to prevent scratching of Heat Bed
G1 X0.1 Y20 Z0.3 F5000.0 ; Move to start position
G1 X0.1 Y200.0 Z0.3 F1500.0 E15 ; Draw the first line
G1 X0.4 Y200.0 Z0.3 F5000.0 ; Move to side a little
G1 X0.4 Y20 Z0.3 F1500.0 E30 ; Draw the second line
G92 E0 ; Reset Extruder
G1 Z2.0 F3000 ; Move Z Axis up little to prevent scratching of Heat Bed
G1 X5 Y20 Z0.3 F5000.0 ; Move over to prevent blob squish
M82 ;absolute extrusion mode
G92 E0
G92 E0
G1 F2700 E-5
;LAYER_COUNT:19
;LAYER:0
M107
G0 F6000 X106.217 Y108.223 Z0.2
;TYPE:SKIRT
G1 F2700 E0
G1 F1200 X107.78 Y106.764 E0.07111
G1 X109.803 Y105.557 E0.14947
G1 X111.521 Y105.275 E0.20737
G1 X123.343 Y105.2 E0.60058
G1 X125.251 Y105.668 E0.66592
G1 X127.277 Y106.719 E0.74183
G1 X128.75 Y108.295 E0.81358
G1 X129.718 Y109.951 E0.87738
G1 X130.006 Y110.676 E0.90333
G1 X130.264 Y112.473 E0.96371
G1 X130.3 Y115.581 E1.06709
G1 X130.256 Y115.93 E1.07879
G1 X130.282 Y116.18 E1.08715
G1 X130.3 Y119.106 E1.18447
G1 X130.258 Y119.437 E1.19557
G1 X130.28 Y119.639 E1.20233
G1 X130.297 Y122.616 E1.30134
G1 X130.256 Y122.928 E1.31181
G1 X130.281 Y123.168 E1.31983
G1 X130.3 Y126.384 E1.4268
G1 X129.855 Y128.203 E1.48909
G1 X128.783 Y130.276 E1.56671
G1 X127.22 Y131.735 E1.63782
G1 X125.197 Y132.942 E1.71617
G1 X123.479 Y133.224 E1.77408
G1 X111.657 Y133.299 E2.16729
G1 X109.749 Y132.831 E2.23263
G1 X107.723 Y131.78 E2.30854
G1 X106.25 Y130.204 E2.38029
G1 X105.282 Y128.548 E2.44409
G1 X104.994 Y127.823 E2.47004
G1 X104.736 Y126.026 E2.53042
G1 X104.703 Y122.906 E2.63419
G1 X104.743 Y122.593 E2.64469
G1 X104.724 Y122.424 E2.65035
G1 X104.7 Y119.403 E2.75083
G1 X104.744 Y119.062 E2.76226
G1 X104.718 Y118.821 E2.77033
G1 X104.7 Y115.894 E2.86768
G1 X104.742 Y115.563 E2.87878
G1 X104.72 Y115.361 E2.88554
G1 X104.7 Y112.115 E2.9935
G1 X105.145 Y110.296 E3.05578
G1 X106.217 Y108.223 E3.13341
G0 F6000 X106.541 Y108.468
G1 F1200 X108.019 Y107.088 E3.20066
G1 X109.943 Y105.94 E3.27518
G1 X111.586 Y105.67 E3.33056
G1 X123.298 Y105.6 E3.72011
G1 X125.108 Y106.044 E3.78209
G1 X127.032 Y107.042 E3.85418
G1 X128.426 Y108.533 E3.92207
G1 X129.346 Y110.099 E3.98248
G1 X129.617 Y110.78 E4.00686
G1 X129.864 Y112.478 E4.06393
G1 X129.9 Y115.586 E4.16731
G1 X129.853 Y115.924 E4.17866
G1 X129.882 Y116.182 E4.18729
G1 X129.9 Y119.108 E4.28461
G1 X129.855 Y119.433 E4.29553
G1 X129.882 Y119.682 E4.30386
G1 X129.9 Y122.564 E4.39972
G1 X129.853 Y122.921 E4.41169
G1 X129.881 Y123.17 E4.42003
G1 X129.9 Y126.335 E4.5253
G1 X129.477 Y128.064 E4.5845
G1 X128.459 Y130.031 E4.65816
G1 X126.981 Y131.411 E4.72542
G1 X125.057 Y132.559 E4.79994
G1 X123.414 Y132.829 E4.85532
G1 X111.702 Y132.899 E5.24487
G1 X109.892 Y132.455 E5.30685
G1 X107.968 Y131.457 E5.37894
G1 X106.574 Y129.966 E5.44683
G1 X105.654 Y128.4 E5.50724
G1 X105.383 Y127.719 E5.53162
G1 X105.136 Y126.021 E5.58869
G1 X105.1 Y122.957 E5.6906
G1 X105.146 Y122.596 E5.70271
G1 X105.122 Y122.38 E5.70994
G1 X105.1 Y119.4 E5.80905
G1 X105.147 Y119.067 E5.82024
G1 X105.116 Y118.778 E5.82991
G1 X105.1 Y115.892 E5.9259
G1 X105.145 Y115.567 E5.93681
G1 X105.118 Y115.318 E5.94514
G1 X105.1 Y112.164 E6.05004
G1 X105.523 Y110.435 E6.10925
G1 X106.541 Y108.468 E6.18291
G0 F6000 X106.865 Y108.713
G1 F1200 X108.261 Y107.409 E6.24645
G1 X110.081 Y106.323 E6.31694
G1 X111.651 Y106.065 E6.36986
G1 X123.253 Y106 E6.75575
G1 X124.965 Y106.42 E6.81438
G1 X126.787 Y107.365 E6.88264
G1 X128.102 Y108.772 E6.9467
G1 X129.001 Y110.302 E7.00572
G1 X129.228 Y110.884 E7.0265
G1 X129.464 Y112.483 E7.08026
G1 X129.5 Y115.591 E7.18364
G1 X129.45 Y115.919 E7.19467
G1 X129.484 Y116.226 E7.20494
G1 X129.5 Y119.11 E7.30087
G1 X129.451 Y119.427 E7.31154
G1 X129.484 Y119.726 E7.32154
G1 X129.5 Y122.566 E7.416
G1 X129.45 Y122.916 E7.42776
G1 X129.483 Y123.214 E7.43773
G1 X129.5 Y126.286 E7.53991
G1 X129.099 Y127.925 E7.59603
G1 X128.135 Y129.786 E7.66574
G1 X126.739 Y131.09 E7.72928
G1 X124.919 Y132.176 E7.79977
G1 X123.349 Y132.434 E7.85269
G1 X111.747 Y132.499 E8.23858
G1 X110.035 Y132.079 E8.29721
G1 X108.213 Y131.134 E8.36547
G1 X106.898 Y129.727 E8.42953
G1 X105.999 Y128.197 E8.48855
G1 X105.772 Y127.615 E8.50933
G1 X105.536 Y126.016 E8.56309
G1 X105.5 Y122.952 E8.665
G1 X105.549 Y122.599 E8.67686
G1 X105.52 Y122.336 E8.68566
G1 X105.5 Y119.397 E8.78341
G1 X105.55 Y119.077 E8.79418
G1 X105.516 Y118.776 E8.80426
G1 X105.5 Y115.89 E8.90025
G1 X105.549 Y115.573 E8.91092
G1 X105.516 Y115.274 E8.92092
G1 X105.5 Y112.213 E9.02273
G1 X105.901 Y110.574 E9.07885
G1 X106.865 Y108.713 E9.14856
G0 F6000 X107.188 Y108.958
G1 F1200 X108.503 Y107.73 E9.2084
G1 X110.219 Y106.706 E9.27487
G1 X111.716 Y106.46 E9.32533
G1 X123.208 Y106.4 E9.70756
G1 X124.822 Y106.796 E9.76283
G1 X126.542 Y107.688 E9.82727
G1 X127.781 Y109.014 E9.88763
G1 X128.628 Y110.448 E9.94303
G1 X128.839 Y110.988 E9.96231
G1 X129.064 Y112.488 E10.01276
G1 X129.1 Y115.596 E10.11614
G1 X129.046 Y115.909 E10.1267
G1 X129.086 Y116.27 E10.13878
G1 X129.1 Y119.112 E10.23331
G1 X129.047 Y119.416 E10.24357
G1 X129.086 Y119.77 E10.25542
G1 X129.1 Y122.568 E10.34848
G1 X129.046 Y122.908 E10.35993
G1 X129.085 Y123.258 E10.37164
G1 X129.1 Y126.237 E10.47073
G1 X128.721 Y127.786 E10.52377
G1 X127.812 Y129.541 E10.5895
G1 X126.497 Y130.769 E10.64935
G1 X124.781 Y131.793 E10.71581
G1 X123.284 Y132.039 E10.76627
G1 X111.792 Y132.099 E11.1485
G1 X110.178 Y131.703 E11.20377
G1 X108.458 Y130.811 E11.26822
G1 X107.219 Y129.485 E11.32857
G1 X106.372 Y128.051 E11.38397
G1 X106.161 Y127.511 E11.40325
G1 X105.936 Y126.011 E11.4537
G1 X105.9 Y122.947 E11.55562
G1 X105.953 Y122.605 E11.56713
G1 X105.918 Y122.292 E11.5776
G1 X105.9 Y119.395 E11.67396
G1 X105.954 Y119.088 E11.68433
G1 X105.914 Y118.731 E11.69627
G1 X105.9 Y115.888 E11.79083
G1 X105.953 Y115.584 E11.8011
G1 X105.914 Y115.23 E11.81294
G1 X105.9 Y112.262 E11.91166
G1 X106.279 Y110.713 E11.9647
G1 X107.188 Y108.958 E12.03044
G0 F6000 X107.511 Y109.203
G1 F1200 X108.745 Y108.051 E12.08658
G1 X110.357 Y107.089 E12.14902
G1 X111.781 Y106.855 E12.19702
G1 X123.163 Y106.8 E12.57559
G1 X124.679 Y107.172 E12.62751
G1 X126.297 Y108.011 E12.68813
G1 X127.458 Y109.254 E12.7447
G1 X128.255 Y110.594 E12.79656
G1 X128.45 Y111.093 E12.81437
G1 X128.668 Y112.547 E12.86327
G1 X128.7 Y115.6 E12.96482
G1 X128.641 Y115.893 E12.97476
G1 X128.688 Y116.314 E12.98885
G1 X128.7 Y119.114 E13.08198
G1 X128.642 Y119.399 E13.09166
G1 X128.688 Y119.814 E13.10554
G1 X128.7 Y122.57 E13.19721
G1 X128.642 Y122.895 E13.20819
G1 X128.687 Y123.302 E13.22181
G1 X128.7 Y126.188 E13.3178
G1 X128.343 Y127.647 E13.36776
G1 X127.489 Y129.296 E13.42952
G1 X126.255 Y130.448 E13.48567
G1 X124.643 Y131.41 E13.54811
G1 X123.219 Y131.644 E13.5961
G1 X111.837 Y131.699 E13.97468
G1 X110.321 Y131.327 E14.02659
G1 X108.703 Y130.488 E14.08721
G1 X107.542 Y129.245 E14.14379
G1 X106.745 Y127.905 E14.19564
G1 X106.55 Y127.406 E14.21346
G1 X106.332 Y125.952 E14.26236
G1 X106.3 Y122.943 E14.36245
G1 X106.357 Y122.615 E14.37352
G1 X106.316 Y122.248 E14.3858
G1 X106.3 Y119.393 E14.48076
G1 X106.359 Y119.105 E14.49054
G1 X106.312 Y118.686 E14.50456
G1 X106.3 Y115.886 E14.59769
G1 X106.358 Y115.601 E14.60736
G1 X106.312 Y115.186 E14.62125
G1 X106.3 Y112.311 E14.71688
G1 X106.657 Y110.852 E14.76683
G1 X107.511 Y109.203 E14.8286
G0 F6000 X107.834 Y109.448
G1 F1200 X108.987 Y108.372 E14.88105
G1 X110.495 Y107.472 E14.93946
G1 X111.846 Y107.25 E14.985
G1 X123.118 Y107.2 E15.35991
G1 X124.536 Y107.548 E15.40847
G1 X126.052 Y108.334 E15.46527
G1 X127.134 Y109.493 E15.51801
G1 X127.911 Y110.799 E15.56855
G1 X128.06 Y111.194 E15.58259
G1 X128.272 Y112.606 E15.63008
G1 X128.3 Y115.563 E15.72844
G1 X128.237 Y115.875 E15.73902
G1 X128.288 Y116.316 E15.75379
G1 X128.3 Y119.073 E15.84549
G1 X128.237 Y119.379 E15.85588
G1 X128.288 Y119.816 E15.87051
G1 X128.3 Y122.572 E15.96218
G1 X128.238 Y122.876 E15.9725
G1 X128.287 Y123.304 E15.98683
G1 X128.3 Y126.139 E16.08112
G1 X127.965 Y127.508 E16.128
G1 X127.166 Y129.051 E16.18579
G1 X126.013 Y130.127 E16.23824
G1 X124.505 Y131.027 E16.29665
G1 X123.154 Y131.249 E16.34219
G1 X111.882 Y131.299 E16.7171
G1 X110.464 Y130.951 E16.76566
G1 X108.948 Y130.165 E16.82246
G1 X107.866 Y129.006 E16.8752
G1 X107.089 Y127.7 E16.92574
G1 X106.94 Y127.305 E16.93978
G1 X106.728 Y125.893 E16.98727
G1 X106.7 Y122.939 E17.08553
G1 X106.762 Y122.632 E17.09594
G1 X106.716 Y122.246 E17.10887
G1 X106.7 Y119.433 E17.20243
G1 X106.763 Y119.124 E17.21292
G1 X106.712 Y118.684 E17.22766
G1 X106.7 Y115.927 E17.31935
G1 X106.763 Y115.621 E17.32975
G1 X106.712 Y115.184 E17.34438
G1 X106.7 Y112.36 E17.43831
G1 X107.035 Y110.991 E17.48518
G1 X107.834 Y109.448 E17.54298
G0 F6000 X108.157 Y109.693
G1 F1200 X109.229 Y108.693 E17.59174
G1 X110.633 Y107.855 E17.64612
G1 X111.911 Y107.645 E17.68919
G1 X123.073 Y107.6 E18.06045
G1 X124.393 Y107.924 E18.10565
G1 X125.807 Y108.657 E18.15863
G1 X126.81 Y109.732 E18.20753
G1 X127.567 Y111.004 E18.25676
G1 X127.67 Y111.294 E18.267
G1 X127.876 Y112.665 E18.31311
G1 X127.9 Y115.524 E18.4082
G1 X127.832 Y115.858 E18.41954
G1 X127.888 Y116.318 E18.43495
G1 X127.9 Y119.032 E18.52522
G1 X127.832 Y119.362 E18.53643
G1 X127.888 Y119.818 E18.55171
G1 X127.9 Y122.532 E18.64198
G1 X127.833 Y122.859 E18.65308
G1 X127.887 Y123.306 E18.66805
G1 X127.9 Y126.09 E18.76065
G1 X127.587 Y127.369 E18.80445
G1 X126.843 Y128.806 E18.85827
G1 X125.771 Y129.806 E18.90703
G1 X124.367 Y130.644 E18.96141
G1 X123.089 Y130.854 E19.00448
G1 X111.927 Y130.899 E19.37574
G1 X110.607 Y130.575 E19.42094
G1 X109.193 Y129.842 E19.47392
G1 X108.19 Y128.767 E19.52282
G1 X107.433 Y127.495 E19.57205
G1 X107.33 Y127.205 E19.58229
G1 X107.124 Y125.834 E19.6284
G1 X107.1 Y122.977 E19.72343
G1 X107.167 Y122.646 E19.73466
G1 X107.116 Y122.244 E19.74814
G1 X107.1 Y119.473 E19.8403
G1 X107.168 Y119.141 E19.85157
G1 X107.112 Y118.682 E19.86695
G1 X107.1 Y115.968 E19.95722
G1 X107.168 Y115.638 E19.96843
G1 X107.112 Y115.182 E19.98371
G1 X107.1 Y112.409 E20.07594
G1 X107.413 Y111.13 E20.11973
G1 X108.157 Y109.693 E20.17355
G0 F6000 X108.479 Y109.94
G1 F1200 X109.474 Y109.012 E20.21881
G1 X110.771 Y108.238 E20.26904
G1 X111.976 Y108.04 E20.30966
G1 X123.028 Y108 E20.67725
G1 X124.25 Y108.3 E20.7191
G1 X125.56 Y108.979 E20.76818
G1 X126.488 Y109.974 E20.81343
G1 X127.223 Y111.209 E20.86123
G1 X127.274 Y111.353 E20.86631
G1 X127.48 Y112.724 E20.91243
G1 X127.5 Y115.527 E21.00566
G1 X127.426 Y115.837 E21.01626
G1 X127.488 Y116.32 E21.03245
G1 X127.5 Y119.034 E21.12272
G1 X127.426 Y119.34 E21.13319
G1 X127.488 Y119.82 E21.14929
G1 X127.5 Y122.534 E21.23956
G1 X127.427 Y122.838 E21.24996
G1 X127.487 Y123.308 E21.26572
G1 X127.5 Y126.041 E21.35662
G1 X127.209 Y127.23 E21.39733
G1 X126.521 Y128.559 E21.44711
G1 X125.526 Y129.487 E21.49236
G1 X124.229 Y130.261 E21.5426
G1 X123.024 Y130.459 E21.58321
G1 X111.972 Y130.499 E21.95081
G1 X110.75 Y130.199 E21.99266
G1 X109.44 Y129.52 E22.04173
G1 X108.512 Y128.525 E22.08699
G1 X107.777 Y127.29 E22.13479
G1 X107.726 Y127.146 E22.13987
G1 X107.52 Y125.775 E22.18598
G1 X107.5 Y122.974 E22.27914
G1 X107.573 Y122.668 E22.28961
G1 X107.516 Y122.242 E22.3039
G1 X107.5 Y119.471 E22.39607
G1 X107.574 Y119.162 E22.40663
G1 X107.512 Y118.68 E22.4228
G1 X107.5 Y115.966 E22.51307
G1 X107.574 Y115.66 E22.52354
G1 X107.512 Y115.18 E22.53963
G1 X107.5 Y112.458 E22.63017
G1 X107.791 Y111.269 E22.67088
G1 X108.479 Y109.94 E22.72066
G0 F6000 X108.801 Y110.187
G1 F1200 X109.716 Y109.334 E22.76226
G1 X110.911 Y108.621 E22.80855
G1 X112.041 Y108.435 E22.84664
G1 X122.983 Y108.4 E23.21057
G1 X124.107 Y108.676 E23.24907
G1 X125.313 Y109.301 E23.29424
G1 X126.166 Y110.216 E23.33585
G1 X126.879 Y111.414 E23.38222
G1 X127.08 Y112.727 E23.4264
G1 X127.1 Y115.481 E23.518
G1 X127.02 Y115.816 E23.52945
G1 X127.091 Y116.371 E23.54806
G1 X127.1 Y118.986 E23.63504
G1 X127.02 Y119.318 E23.6464
G1 X127.091 Y119.871 E23.66494
G1 X127.1 Y122.487 E23.75195
G1 X127.021 Y122.815 E23.76317
G1 X127.087 Y123.31 E23.77978
G1 X127.1 Y125.992 E23.86899
G1 X126.831 Y127.091 E23.90662
G1 X126.199 Y128.312 E23.95235
G1 X125.284 Y129.165 E23.99395
G1 X124.089 Y129.878 E24.04024
G1 X122.959 Y130.064 E24.07833
G1 X112.017 Y130.099 E24.44226
G1 X110.893 Y129.823 E24.48075
G1 X109.687 Y129.198 E24.52593
G1 X108.834 Y128.283 E24.56754
G1 X108.121 Y127.085 E24.61391
G1 X107.92 Y125.772 E24.65809
G1 X107.9 Y123.019 E24.74965
G1 X107.979 Y122.686 E24.76104
G1 X107.913 Y122.189 E24.77771
G1 X107.9 Y119.517 E24.86659
G1 X107.98 Y119.183 E24.87801
G1 X107.909 Y118.629 E24.89659
G1 X107.9 Y116.014 E24.98356
G1 X107.98 Y115.682 E24.99492
G1 X107.909 Y115.129 E25.01346
G1 X107.9 Y112.507 E25.10067
G1 X108.169 Y111.408 E25.1383
G1 X108.801 Y110.187 E25.18403
G0 F6000 X109.123 Y110.434
G1 F1200 X109.958 Y109.656 E25.22199
G1 X111.051 Y109.004 E25.26432
G1 X112.106 Y108.83 E25.29988
G1 X122.936 Y108.8 E25.66009
G1 X123.965 Y109.053 E25.69534
G1 X125.066 Y109.623 E25.73657
G1 X125.844 Y110.458 E25.77453
G1 X126.496 Y111.553 E25.81692
G1 X126.68 Y112.73 E25.85654
G1 X126.7 Y115.435 E25.94651
G1 X126.614 Y115.794 E25.95879
G1 X126.691 Y116.372 E25.97819
G1 X126.7 Y118.938 E26.06353
G1 X126.614 Y119.295 E26.07575
G1 X126.691 Y119.872 E26.09511
G1 X126.7 Y122.439 E26.18049
G1 X126.614 Y122.794 E26.19263
G1 X126.687 Y123.312 E26.21003
G1 X126.7 Y125.943 E26.29754
G1 X126.453 Y126.952 E26.33209
G1 X125.877 Y128.065 E26.37377
G1 X125.042 Y128.843 E26.41173
G1 X123.949 Y129.495 E26.45406
G1 X122.894 Y129.669 E26.48963
G1 X112.064 Y129.699 E26.84984
G1 X111.035 Y129.446 E26.88508
G1 X109.934 Y128.876 E26.92632
G1 X109.156 Y128.041 E26.96427
G1 X108.504 Y126.946 E27.00666
G1 X108.32 Y125.769 E27.04628
G1 X108.3 Y123.064 E27.13626
G1 X108.386 Y122.706 E27.1485
G1 X108.313 Y122.187 E27.16593
G1 X108.3 Y119.563 E27.25321
G1 X108.386 Y119.205 E27.26545
G1 X108.309 Y118.628 E27.28482
G1 X108.3 Y116.062 E27.37016
G1 X108.386 Y115.705 E27.38238
G1 X108.309 Y115.128 E27.40174
G1 X108.3 Y112.556 E27.48728
G1 X108.547 Y111.547 E27.52183
G1 X109.123 Y110.434 E27.56351
G0 F6000 X109.445 Y110.681
G1 F1200 X110.2 Y109.978 E27.59783
G1 X111.191 Y109.387 E27.6362
G1 X112.171 Y109.225 E27.66924
G1 X122.89 Y109.2 E28.02576
G1 X123.822 Y109.429 E28.05768
G1 X124.819 Y109.945 E28.09502
G1 X125.522 Y110.7 E28.12933
G1 X126.113 Y111.692 E28.16773
G1 X126.28 Y112.733 E28.2028
G1 X126.3 Y115.388 E28.29111
G1 X126.207 Y115.774 E28.30431
G1 X126.291 Y116.373 E28.32443
G1 X126.3 Y118.89 E28.40815
G1 X126.207 Y119.274 E28.42129
G1 X126.291 Y119.873 E28.44141
G1 X126.3 Y122.391 E28.52516
G1 X126.207 Y122.776 E28.53833
G1 X126.287 Y123.314 E28.55642
G1 X126.3 Y125.894 E28.64223
G1 X126.075 Y126.813 E28.6737
G1 X125.555 Y127.818 E28.71134
G1 X124.8 Y128.521 E28.74565
G1 X123.809 Y129.112 E28.78403
G1 X122.829 Y129.274 E28.81706
G1 X112.11 Y129.299 E29.17358
G1 X111.178 Y129.07 E29.2055
G1 X110.181 Y128.554 E29.24284
G1 X109.478 Y127.799 E29.27715
G1 X108.887 Y126.807 E29.31556
G1 X108.72 Y125.766 E29.35062
G1 X108.7 Y123.111 E29.43893
G1 X108.794 Y122.724 E29.45218
G1 X108.713 Y122.185 E29.47031
G1 X108.7 Y119.61 E29.55595
G1 X108.793 Y119.226 E29.56909
G1 X108.709 Y118.627 E29.58921
G1 X108.7 Y116.11 E29.67293
G1 X108.793 Y115.726 E29.68607
G1 X108.709 Y115.127 E29.70619
G1 X108.7 Y112.605 E29.79007
G1 X108.925 Y111.686 E29.82154
G1 X109.445 Y110.681 E29.85917
G0 F6000 X109.768 Y110.926
G1 F1200 X110.439 Y110.302 E29.88965
G1 X111.331 Y109.77 E29.92419
G1 X112.236 Y109.62 E29.9547
G1 X122.844 Y109.6 E30.30753
G1 X123.679 Y109.805 E30.33612
G1 X124.574 Y110.268 E30.36964
G1 X125.198 Y110.939 E30.40012
G1 X125.73 Y111.831 E30.43466
G1 X125.88 Y112.736 E30.46517
G1 X125.9 Y115.341 E30.55182
G1 X125.8 Y115.756 E30.56601
G1 X125.891 Y116.374 E30.58679
