;FLAVOR:Marlin
;TIME:320
;Filament used: 0.0573896m
;Layer height: 0.12
;MINX:109.576
;MINY:105.199
;MINZ:0.2
;MAXX:125.048
;MAXY:120.656
;MAXZ:3.32
;TARGET_MACHINE.NAME:Creality Ender-3
;Generated with Cura_SteamEngine 5.11.0
M140 S60
M105
M190 S60
M104 S200
M105
M109 S200
; Ender 3 Custom Start G-code
G92 E0 ; Reset Extruder
G28 ; Home all axes
G1 Z2.0 F3000 ; Move Z Axis up little to prevent scratching of Heat Bed
G1 X0.1 Y20 Z0.3 F5000.0 ; Move to start position
G1 X0.1 Y200.0 Z0.3 F1500.0 E15 ; Draw the first line
G1 X0.4 Y200.0 Z0.3 F5000.0 ; Move to side a little
G1 X0.4 Y20 Z0.3 F1500.0 E30 ; Draw the second line
G92 E0 ; Reset Extruder
G1 Z2.0 F3000 ; Move Z Axis up little to prevent scratching of Heat Bed
G1 X5 Y20 Z0.3 F5000.0 ; Move over to prevent blob squish
M82 ;absolute extrusion mode
G92 E0
G92 E0
G1 F2700 E-5
;LAYER_COUNT:27
;LAYER:0
M107
;MESH:LedGuide.stl(1)
G0 F6000 X112.781 Y108.584 Z0.2
;TYPE:WALL-INNER
G1 F2700 E0
G1 F1200 X112.984 Y108.444 E0.0082
G1 X113.348 Y108.114 E0.02454
G1 X113.593 Y107.848 E0.03657
G1 X113.899 Y107.438 E0.05359
G1 X114.087 Y107.145 E0.06517
G1 X114.25 Y106.808 E0.07762
G1 X114.353 Y106.554 E0.08673
G1 X114.513 Y106.086 E0.10318
G1 X114.597 Y105.601 E0.11955
G1 X110.84 Y105.6 E0.24451
G1 X110.84 Y109.356 E0.36944
G1 X111.22 Y109.288 E0.38228
G1 X111.468 Y109.222 E0.39081
G1 X111.883 Y109.08 E0.4054
G1 X112.298 Y108.891 E0.42057
G1 X112.561 Y108.737 E0.43071
G1 X112.781 Y108.584 E0.43962
G0 F6000 X112.799 Y109.059
;TYPE:WALL-OUTER
G1 F1200 X113.128 Y108.831 E0.45293
G1 X113.338 Y108.663 E0.46188
G1 X113.63 Y108.398 E0.47499
G1 X113.899 Y108.106 E0.4882
G1 X114.23 Y107.663 E0.50659
G1 X114.437 Y107.341 E0.51932
G1 X114.598 Y107.01 E0.53156
G1 X114.728 Y106.694 E0.54293
G1 X114.91 Y106.161 E0.56166
G1 X114.903 Y106.152 E0.56204
G1 X114.974 Y105.79 E0.57431
G1 X115.009 Y105.54 E0.58271
G1 X115.028 Y105.201 E0.594
G1 X110.44 Y105.2 E0.7466
G1 X110.44 Y109.794 E0.89939
G1 X110.779 Y109.768 E0.9107
G1 X111.031 Y109.734 E0.91916
G1 X111.302 Y109.681 E0.92834
G1 X111.588 Y109.603 E0.9382
G1 X112.063 Y109.439 E0.95492
G1 X112.483 Y109.246 E0.97029
G1 X112.776 Y109.075 E0.98157
G1 X112.799 Y109.059 E0.98251
G0 F6000 X112.765 Y108.149
;TYPE:SKIN
G1 F1200 X112.75 Y108.163 E0.98319
G1 X112.356 Y108.439 E0.99919
G1 X112.139 Y108.566 E1.00755
G1 X111.77 Y108.734 E1.02104
G1 X111.2 Y108.928 E1.04106
G1 X111.2 Y105.96 E1.13978
G1 X114.164 Y105.961 E1.23836
G1 X114.019 Y106.408 E1.25399
G1 X113.911 Y106.676 E1.2636
G1 X113.773 Y106.962 E1.27416
G1 X113.599 Y107.234 E1.2849
G1 X113.314 Y107.615 E1.30073
G1 X113.091 Y107.853 E1.31158
G1 X112.765 Y108.149 E1.32622
G0 F6000 X112.942 Y108.346
G0 X111.607 Y109.068
G0 X111.457 Y108.629
G1 F1200 X111.4 Y108.571 E1.32893
G0 F6000 X111.865 Y108.471
G1 F1200 X111.4 Y108.006 E1.3508
G0 F6000 X111.4 Y107.44
G1 F1200 X112.238 Y108.278 E1.39022
G0 F6000 X112.57 Y108.045
G1 F1200 X111.4 Y106.874 E1.44527
G0 F6000 X111.4 Y106.309
G1 F1200 X112.871 Y107.78 E1.51446
G0 F6000 X113.153 Y107.496
G1 F1200 X111.818 Y106.161 E1.57726
G0 F6000 X112.383 Y106.161
G1 F1200 X113.395 Y107.173 E1.62486
G0 F6000 X113.616 Y106.828
G1 F1200 X112.949 Y106.161 E1.65623
G0 F6000 X113.515 Y106.161
G1 F1200 X113.792 Y106.438 E1.66926
G1 F2700 E-3.33074
;MESH:LedGuide.stl
G0 F6000 X114.22 Y106.612
G0 X113.184 Y108.497
G0 X113.637 Y109.534
G0 X113.184 Y114.335
G0 X112.785 Y118.582
;TYPE:WALL-INNER
G1 F2700 E1.66926
G1 F1203 X112.984 Y118.444 E1.6773
G1 F1200 X113.348 Y118.114 E1.69364
G1 X113.593 Y117.848 E1.70567
G1 X113.899 Y117.438 E1.72268
G1 X114.087 Y117.145 E1.73426
G1 X114.25 Y116.808 E1.74671
G1 X114.353 Y116.554 E1.75583
G1 X114.513 Y116.086 E1.77228
G1 X114.597 Y115.601 E1.78865
G1 X110.84 Y115.6 E1.91361
G1 X110.84 Y119.356 E2.03853
G1 X111.22 Y119.288 E2.05137
G1 X111.468 Y119.222 E2.05991
G1 X111.883 Y119.08 E2.0745
G1 X112.298 Y118.891 E2.08966
G1 X112.561 Y118.737 E2.0998
G1 F1203 X112.785 Y118.582 E2.10884
G0 F6000 X112.804 Y119.056
;TYPE:WALL-OUTER
G1 F1200 X113.128 Y118.831 E2.12196
G1 X113.338 Y118.663 E2.1309
G1 X113.63 Y118.398 E2.14402
G1 X113.899 Y118.106 E2.15722
G1 X114.23 Y117.663 E2.17562
G1 X114.437 Y117.341 E2.18835
G1 X114.598 Y117.01 E2.20059
G1 X114.728 Y116.694 E2.21195
G1 X114.91 Y116.161 E2.23069
G1 X114.903 Y116.152 E2.23107
G1 X114.974 Y115.79 E2.24334
G1 X115.009 Y115.54 E2.25173
G1 X115.028 Y115.201 E2.26302
G1 X110.44 Y115.2 E2.41562
G1 X110.44 Y119.794 E2.56842
G1 X110.779 Y119.768 E2.57973
G1 X111.031 Y119.734 E2.58819
G1 X111.302 Y119.681 E2.59737
G1 X111.588 Y119.603 E2.60723
G1 X112.063 Y119.439 E2.62394
G1 X112.483 Y119.246 E2.63932
G1 X112.776 Y119.075 E2.6506
G1 X112.804 Y119.056 E2.65173
G0 F6000 X112.767 Y118.147
;TYPE:SKIN
G1 F1200 X112.75 Y118.163 E2.6525
G1 X112.356 Y118.439 E2.6685
G1 X112.139 Y118.566 E2.67686
G1 X111.77 Y118.734 E2.69035
G1 X111.2 Y118.928 E2.71038
G1 X111.2 Y115.96 E2.80909
G1 X114.164 Y115.961 E2.90767
G1 X114.019 Y116.408 E2.9233
G1 X113.911 Y116.676 E2.93292
G1 X113.773 Y116.962 E2.94348
G1 X113.599 Y117.234 E2.95422
G1 X113.314 Y117.615 E2.97004
G1 X113.091 Y117.853 E2.98089
G1 X112.767 Y118.147 E2.99544
G0 F6000 X112.944 Y118.344
G0 X111.932 Y118.948
G0 X111.74 Y118.528
G1 F1200 X111.4 Y118.188 E3.01143
G0 F6000 X111.4 Y117.622
G1 F1200 X112.129 Y118.351 E3.04572
G0 F6000 X112.463 Y118.12
G1 F1200 X111.4 Y117.057 E3.09572
G0 F6000 X111.4 Y116.491
G1 F1200 X112.776 Y117.867 E3.16045
G0 F6000 X113.064 Y117.59
G1 F1200 X111.635 Y116.161 E3.22766
G0 F6000 X112.201 Y116.161
G1 F1200 X113.317 Y117.277 E3.28016
G0 F6000 X113.548 Y116.942
G1 F1200 X112.767 Y116.161 E3.31689
G0 F6000 X113.333 Y116.161
G1 F1200 X113.74 Y116.568 E3.33604
G1 F2700 E-1.66396
;MESH:LedGuide.stl(2)
G0 F6000 X114.167 Y116.742
G0 X114.631 Y116.273
G0 X115.689 Y116.551
G0 X119.576 Y116.273
G0 X122.69 Y118.648
;TYPE:WALL-INNER
G1 F2700 E3.33604
G1 F1200 X122.984 Y118.444 E3.34794
G1 X123.348 Y118.114 E3.36428
G1 X123.593 Y117.848 E3.37631
G1 X123.899 Y117.438 E3.39332
G1 X124.087 Y117.145 E3.4049
G1 X124.25 Y116.808 E3.41735
G1 X124.353 Y116.554 E3.42647
G1 X124.513 Y116.086 E3.44292
G1 X124.597 Y115.601 E3.45929
G1 X120.84 Y115.6 E3.58425
G1 X120.84 Y119.356 E3.70917
G1 X121.22 Y119.288 E3.72201
G1 X121.468 Y119.222 E3.73055
G1 X121.883 Y119.08 E3.74514
G1 X122.298 Y118.891 E3.7603
G1 X122.561 Y118.737 E3.77044
G1 X122.69 Y118.648 E3.77565
G0 F6000 X122.668 Y119.138
;TYPE:WALL-OUTER
G1 F1200 X122.776 Y119.075 E3.77981
G1 X123.128 Y118.831 E3.79406
G1 X123.338 Y118.663 E3.803
G1 X123.63 Y118.398 E3.81612
G1 X123.899 Y118.106 E3.82932
G1 X124.23 Y117.663 E3.84772
G1 X124.437 Y117.341 E3.86045
G1 X124.598 Y117.01 E3.87269
G1 X124.728 Y116.694 E3.88405
G1 X124.91 Y116.161 E3.90279
G1 X124.903 Y116.152 E3.90317
G1 X124.974 Y115.79 E3.91544
G1 X125.009 Y115.54 E3.92383
G1 X125.028 Y115.201 E3.93512
G1 X120.44 Y115.2 E4.08772
G1 X120.44 Y119.794 E4.24052
G1 X120.779 Y119.768 E4.25183
G1 X121.031 Y119.734 E4.26029
G1 X121.302 Y119.681 E4.26947
G1 X121.588 Y119.603 E4.27933
G1 X122.063 Y119.439 E4.29604
G1 X122.483 Y119.246 E4.31142
G1 X122.668 Y119.138 E4.31854
G0 F6000 X122.71 Y118.191
;TYPE:SKIN
G1 F1200 X122.356 Y118.439 E4.33292
G1 X122.139 Y118.566 E4.34128
G1 X121.77 Y118.734 E4.35477
G1 X121.2 Y118.928 E4.37479
G1 X121.2 Y115.96 E4.47351
G1 X124.164 Y115.961 E4.57209
G1 X124.019 Y116.408 E4.58772
G1 X123.911 Y116.676 E4.59733
G1 X123.773 Y116.962 E4.60789
G1 X123.599 Y117.234 E4.61863
G1 X123.314 Y117.615 E4.63446
G1 X123.091 Y117.853 E4.64531
G1 X122.75 Y118.163 E4.66063
G1 X122.71 Y118.191 E4.66226
G0 F6000 X122.859 Y118.409
G0 X121.607 Y119.067
G0 X121.457 Y118.628
G1 F1200 X121.4 Y118.571 E4.66494
G0 F6000 X121.865 Y118.471
G1 F1200 X121.4 Y118.006 E4.68681
G0 F6000 X121.4 Y117.44
G1 F1200 X122.238 Y118.278 E4.72623
G0 F6000 X122.571 Y118.045
G1 F1200 X121.4 Y116.874 E4.78131
G0 F6000 X121.4 Y116.308
G1 F1200 X122.871 Y117.78 E4.85052
G0 F6000 X123.153 Y117.496
G1 F1200 X121.818 Y116.161 E4.91332
G0 F6000 X122.383 Y116.161
G1 F1200 X123.395 Y117.173 E4.96092
G0 F6000 X123.616 Y116.827
G1 F1200 X122.95 Y116.161 E4.99224
G0 F6000 X123.515 Y116.161
G1 F1200 X123.792 Y116.439 E5.0053
G1 F2700 E0.0053
;MESH:LedGuide.stl(3)
G0 F6000 X124.22 Y116.613
G0 X124.39 Y115.776
G0 X122.694 Y115.43
G0 X122.694 Y114.335
G0 X122.668 Y110.117
G0 X122.694 Y108.645
;TYPE:WALL-INNER
G1 F2700 E5.0053
G1 F1200 X122.984 Y108.444 E5.01703
G1 X123.348 Y108.114 E5.03337
G1 X123.593 Y107.848 E5.0454
G1 X123.899 Y107.438 E5.06242
G1 X124.087 Y107.145 E5.074
G1 X124.25 Y106.808 E5.08645
G1 X124.353 Y106.554 E5.09556
G1 X124.513 Y106.086 E5.11201
G1 X124.597 Y105.601 E5.12839
G1 X120.84 Y105.6 E5.25334
G1 X120.84 Y109.356 E5.37827
G1 X121.22 Y109.288 E5.39111
G1 X121.468 Y109.222 E5.39964
G1 X121.883 Y109.08 E5.41423
G1 X122.298 Y108.891 E5.4294
G1 X122.561 Y108.737 E5.43954
G1 X122.694 Y108.645 E5.44492
G0 F6000 X122.674 Y109.135
;TYPE:WALL-OUTER
G1 F1200 X122.776 Y109.075 E5.44885
G1 X123.128 Y108.831 E5.4631
G1 X123.338 Y108.663 E5.47204
G1 X123.63 Y108.398 E5.48516
G1 X123.899 Y108.106 E5.49836
G1 X124.23 Y107.663 E5.51675
G1 X124.437 Y107.341 E5.52949
G1 X124.598 Y107.01 E5.54173
G1 X124.728 Y106.694 E5.55309
G1 X124.91 Y106.161 E5.57183
G1 X124.903 Y106.152 E5.57221
G1 X124.974 Y105.79 E5.58448
G1 X125.009 Y105.54 E5.59287
G1 X125.028 Y105.201 E5.60416
G1 X120.44 Y105.2 E5.75676
G1 X120.44 Y109.794 E5.90956
G1 X120.779 Y109.768 E5.92087
G1 X121.031 Y109.734 E5.92932
G1 X121.302 Y109.681 E5.93851
G1 X121.588 Y109.603 E5.94837
G1 X122.063 Y109.439 E5.96508
G1 X122.483 Y109.246 E5.98046
G1 X122.674 Y109.135 E5.9878
G0 F6000 X122.713 Y108.189
;TYPE:SKIN
G1 F1200 X122.356 Y108.439 E6.0023
G1 X122.139 Y108.566 E6.01066
G1 X121.77 Y108.734 E6.02415
G1 X121.2 Y108.928 E6.04417
G1 X121.2 Y105.96 E6.14289
G1 X124.164 Y105.961 E6.24147
G1 X124.019 Y106.408 E6.2571
G1 X123.911 Y106.676 E6.26671
G1 X123.773 Y106.962 E6.27727
G1 X123.599 Y107.234 E6.28801
G1 X123.314 Y107.615 E6.30384
G1 X123.091 Y107.853 E6.31469
G1 X122.75 Y108.163 E6.33001
G1 X122.713 Y108.189 E6.33152
G0 F6000 X122.862 Y108.407
G0 X121.743 Y109.021
G0 X121.593 Y108.583
G1 F1200 X121.4 Y108.389 E6.34062
G0 F6000 X121.4 Y107.823
G1 F1200 X121.99 Y108.414 E6.3684
G0 F6000 X122.345 Y108.203
G1 F1200 X121.4 Y107.257 E6.41287
G0 F6000 X121.4 Y106.692
G1 F1200 X122.671 Y107.963 E6.47265
G0 F6000 X122.966 Y107.692
G1 F1200 X121.434 Y106.161 E6.54469
G0 F6000 X122 Y106.161
G1 F1200 X123.232 Y107.393 E6.60264
G0 F6000 X123.469 Y107.064
G1 F1200 X122.566 Y106.161 E6.64511
G0 F6000 X123.132 Y106.161
G1 F1200 X123.676 Y106.705 E6.6707
G0 F6000 X123.845 Y106.309
G1 F1200 X123.698 Y106.161 E6.67764
G1 F2700 E1.67764
;MESH:NONMESH
G0 F300 X123.698 Y106.161 Z0.32
G0 F6000 X123.699 Y105.701
G0 X121.012 Y105.772
G0 X120.671 Y108.582
G0 X119.576 Y108.582
G0 X114.584 Y108.636
G0 X112.781 Y108.582
;TIME_ELAPSED:21.599065
;LAYER:1
;note -- min layer time used
M106 S85
;TYPE:WALL-INNER
;MESH:LedGuide.stl(1)
G1 F2700 E6.67764
G1 F1305.8 X113.051 Y108.39 E6.68425
G1 X113.365 Y108.097 E6.69282
G1 X113.584 Y107.856 E6.69932
G1 X113.761 Y107.638 E6.70492
G1 X113.958 Y107.348 E6.71192
G1 X114.153 Y107.023 E6.71948
G1 X114.34 Y106.598 E6.72875
G1 X114.471 Y106.211 E6.7369
G1 X114.534 Y105.953 E6.7422
G1 X114.592 Y105.601 E6.74932
G1 X110.84 Y105.6 E6.8242
G1 X110.84 Y109.356 E6.89915
G1 X111.199 Y109.294 E6.90642
G1 X111.683 Y109.157 E6.91646
G1 X112.164 Y108.955 E6.92687
G1 X112.57 Y108.732 E6.93612
G1 X112.781 Y108.582 E6.94128
G0 F10500 X112.799 Y109.059
;TYPE:WALL-OUTER
G1 F1305.8 X113.216 Y108.762 E6.9515
G1 X113.423 Y108.589 E6.95688
G1 X113.649 Y108.379 E6.96304
G1 X113.888 Y108.117 E6.97012
G1 X114.083 Y107.876 E6.9763
G1 X114.295 Y107.564 E6.98383
G1 X114.456 Y107.295 E6.99009
G1 X114.574 Y107.059 E6.99535
G1 X114.713 Y106.743 E7.00224
G1 X114.855 Y106.323 E7.01109
G1 X114.954 Y105.926 E7.01926
G1 X115.048 Y105.201 E7.03384
G1 X110.44 Y105.2 E7.1258
G1 X110.44 Y109.794 E7.21748
G1 X110.779 Y109.769 E7.22426
G1 X111.262 Y109.69 E7.23403
G1 X111.814 Y109.535 E7.24547
G1 X112.051 Y109.443 E7.25055
G1 X112.314 Y109.327 E7.25628
G1 X112.556 Y109.204 E7.2617
G1 X112.784 Y109.07 E7.26698
G1 X112.799 Y109.059 E7.26735
G0 F10500 X112.765 Y108.147
;TYPE:SKIN
G1 F1309.1 X112.381 Y108.422 E7.27675
G1 F1305.8 X111.977 Y108.643 E7.28594
G1 X111.481 Y108.849 E7.29666
G1 X111.201 Y108.917 E7.30241
G1 X111.2 Y105.96 E7.36142
G1 X114.176 Y105.96 E7.42081
G1 X114.001 Y106.463 E7.43144
G1 X113.833 Y106.848 E7.43982
G1 X113.647 Y107.16 E7.44707
G1 X113.474 Y107.413 E7.45318
G1 X113.316 Y107.613 E7.45827
G1 X113.113 Y107.831 E7.46421
G1 X112.824 Y108.105 E7.47216
G1 F1309.1 X112.765 Y108.147 E7.4736
G0 F10500 X112.593 Y108.024
G1 F1305.8 X113.291 Y107.327 E7.49329
G0 F10500 X113.648 Y107.616
G0 X114.19 Y106.54
G0 X114.39 Y105.776
G0 X113.326 Y105.701
G0 X113.325 Y106.161
G1 F1305.8 X111.401 Y108.085 E7.54759
G0 F10500 X111.401 Y108.65
G1 F1305.8 X113.891 Y106.161 E7.61785
G0 F10500 X113.892 Y105.701
G0 X112.76 Y105.701
G0 X112.759 Y106.161
G1 F1305.8 X111.401 Y107.519 E7.65617
G0 F10500 X111.4 Y106.954
G1 F1305.8 X112.195 Y106.16 E7.6786
G0 F10500 X111.629 Y106.16
G1 F1305.8 X111.4 Y106.388 E7.68504
G1 F2700 E2.68504
;MESH:LedGuide.stl
G0 F10500 X110.94 Y106.388
G0 X111.047 Y109.516
G0 X111.176 Y110.587
G0 X111.047 Y114.335
G0 X112.785 Y118.579
;TYPE:WALL-INNER
G1 F2700 E7.68504
G1 F1305.8 X113.051 Y118.39 E7.69156
G1 X113.365 Y118.097 E7.70013
G1 X113.584 Y117.856 E7.70662
G1 X113.761 Y117.638 E7.71223
G1 X113.958 Y117.348 E7.71922
G1 X114.153 Y117.023 E7.72679
G1 X114.34 Y116.598 E7.73605
G1 X114.471 Y116.211 E7.74421
G1 X114.534 Y115.953 E7.74951
G1 X114.592 Y115.601 E7.75663
G1 X110.84 Y115.6 E7.8315
G1 X110.84 Y119.356 E7.90646
G1 X111.199 Y119.294 E7.91373
G1 X111.683 Y119.157 E7.92377
G1 X112.164 Y118.955 E7.93418
G1 X112.57 Y118.732 E7.94342
G1 X112.785 Y118.579 E7.94869
G0 F10500 X112.804 Y119.056
;TYPE:WALL-OUTER
G1 F1305.8 X113.216 Y118.762 E7.95879
G1 X113.423 Y118.589 E7.96417
G1 X113.649 Y118.379 E7.97033
G1 X113.888 Y118.117 E7.9774
G1 X114.083 Y117.876 E7.98359
G1 X114.295 Y117.564 E7.99112
G1 X114.456 Y117.295 E7.99738
G1 X114.574 Y117.059 E8.00264
G1 X114.713 Y116.743 E8.00953
G1 X114.855 Y116.323 E8.01838
G1 X114.954 Y115.926 E8.02654
G1 X115.048 Y115.201 E8.04113
G1 X110.44 Y115.2 E8.13309
G1 X110.44 Y119.794 E8.22477
G1 X110.779 Y119.769 E8.23155
G1 X111.262 Y119.69 E8.24132
G1 X111.814 Y119.535 E8.25276
G1 X112.051 Y119.443 E8.25783
G1 X112.314 Y119.327 E8.26357
G1 X112.556 Y119.204 E8.26899
G1 X112.784 Y119.07 E8.27426
G1 X112.804 Y119.056 E8.27475
G0 F10500 X112.767 Y118.146
;TYPE:SKIN
G1 F1305.8 X112.381 Y118.422 E8.28422
G1 X111.977 Y118.643 E8.29341
G1 X111.481 Y118.849 E8.30413
G1 X111.201 Y118.917 E8.30988
G1 X111.2 Y115.96 E8.36889
G1 X114.176 Y115.96 E8.42828
G1 X114.001 Y116.463 E8.43891
G1 X113.833 Y116.848 E8.44729
G1 X113.647 Y117.16 E8.45454
G1 X113.474 Y117.413 E8.46065
G1 X113.316 Y117.613 E8.46574
G1 X113.113 Y117.831 E8.47169
G1 X112.824 Y118.105 E8.47963
G1 X112.767 Y118.146 E8.48103
G0 F10500 X112.919 Y118.358
G0 X113.651 Y117.471
G0 X114.215 Y116.631
G0 X113.79 Y116.444
G1 F1305.8 X111.689 Y118.545 E8.54033
G0 F10500 X111.401 Y118.267
G1 F1305.8 X113.508 Y116.161 E8.59978
G0 F10500 X112.942 Y116.161
G1 F1305.8 X111.401 Y117.701 E8.64326
G0 F10500 X111.4 Y117.136
G1 F1305.8 X112.377 Y116.16 E8.67081
G0 F10500 X111.811 Y116.16
G1 F1305.8 X111.4 Y116.571 E8.68241
G1 F2700 E3.68241
;MESH:LedGuide.stl(2)
G0 F10500 X110.94 Y116.571
G0 X111.012 Y115.772
G0 X114.39 Y115.776
G0 X114.367 Y116.967
G0 X115.371 Y117.399
G0 X119.576 Y116.967
G0 X122.69 Y118.647
;TYPE:WALL-INNER
G1 F2700 E8.68241
G1 F1305.8 X123.051 Y118.39 E8.69126
G1 X123.365 Y118.097 E8.69983
G1 X123.584 Y117.856 E8.70633
G1 X123.761 Y117.638 E8.71193
G1 X123.958 Y117.348 E8.71893
G1 X124.153 Y117.023 E8.72649
G1 X124.34 Y116.598 E8.73576
G1 X124.471 Y116.211 E8.74391
G1 X124.534 Y115.953 E8.74921
G1 X124.592 Y115.601 E8.75633
G1 X120.84 Y115.6 E8.8312
G1 X120.84 Y119.356 E8.90616
G1 X121.199 Y119.294 E8.91343
