;FLAVOR:Marlin
;TIME:2197
;Filament used: 1.52007m
;Layer height: 0.12
;MINX:73.601
;MINY:97.7
;MINZ:0.2
;MAXX:161.4
;MAXY:138.164
;MAXZ:1.52
;TARGET_MACHINE.NAME:Creality Ender-3
;Generated with Cura_SteamEngine 5.11.0
M140 S60
M105
M190 S60
M104 S200
M105
M109 S200
; Ender 3 Custom Start G-code
G92 E0 ; Reset Extruder
G28 ; Home all axes
G1 Z2.0 F3000 ; Move Z Axis up little to prevent scratching of Heat Bed
G1 X0.1 Y20 Z0.3 F5000.0 ; Move to start position
G1 X0.1 Y200.0 Z0.3 F1500.0 E15 ; Draw the first line
G1 X0.4 Y200.0 Z0.3 F5000.0 ; Move to side a little
G1 X0.4 Y20 Z0.3 F1500.0 E30 ; Draw the second line
G92 E0 ; Reset Extruder
G1 Z2.0 F3000 ; Move Z Axis up little to prevent scratching of Heat Bed
G1 X5 Y20 Z0.3 F5000.0 ; Move over to prevent blob squish
M82 ;absolute extrusion mode
G92 E0
G92 E0
G1 F2700 E-5
;LAYER_COUNT:12
;LAYER:0
M107
;MESH:SocketMount.stl
G0 F6000 X117.5 Y133.274 Z0.2
;TYPE:WALL-INNER
G1 F2700 E0
G1 F1200 X117.693 Y133.276 E0.00642
G1 X117.926 Y133.357 E0.01462
G1 X118.151 Y133.598 E0.02559
G1 X118.304 Y134.021 E0.04055
G1 X118.453 Y134.366 E0.05305
G1 X118.635 Y134.705 E0.06585
G1 X118.862 Y135.042 E0.07936
G1 X119.096 Y135.34 E0.09196
G1 X119.356 Y135.617 E0.1046
G1 X119.645 Y135.875 E0.11749
G1 X119.965 Y136.116 E0.13081
G1 X120.28 Y136.313 E0.14317
G1 X120.626 Y136.489 E0.15608
G1 X120.981 Y136.633 E0.16882
G1 X121.365 Y136.751 E0.18218
G1 X121.716 Y136.828 E0.19413
G1 X122.122 Y136.881 E0.20775
G1 X122.518 Y136.9 E0.22094
G1 X134.478 Y136.9 E0.61873
G1 X134.878 Y136.881 E0.63205
G1 X135.279 Y136.828 E0.6455
G1 X135.632 Y136.75 E0.65752
G1 X136.018 Y136.634 E0.67093
G1 X136.369 Y136.49 E0.68355
G1 X136.716 Y136.313 E0.6965
G1 X137.031 Y136.116 E0.70886
G1 X137.351 Y135.875 E0.72219
G1 X137.642 Y135.616 E0.73514
G1 X137.905 Y135.339 E0.74785
G1 X138.137 Y135.044 E0.76033
G1 X138.36 Y134.707 E0.77377
G1 X138.543 Y134.366 E0.78664
G1 X138.692 Y134.021 E0.79914
G1 X138.845 Y133.598 E0.8141
G1 X139.035 Y133.38 E0.82372
G1 X139.354 Y133.272 E0.83492
G1 X139.707 Y133.273 E0.84666
G1 X140.033 Y133.439 E0.85883
G1 X140.153 Y133.602 E0.86556
G1 X140.304 Y134.021 E0.88038
G1 X140.453 Y134.366 E0.89287
G1 X140.635 Y134.705 E0.90567
G1 X140.862 Y135.042 E0.91919
G1 X141.096 Y135.34 E0.93179
G1 X141.356 Y135.617 E0.94442
G1 X141.645 Y135.875 E0.95731
G1 X141.965 Y136.116 E0.97063
G1 X142.28 Y136.313 E0.98299
G1 X142.626 Y136.489 E0.9959
G1 X142.981 Y136.633 E1.00864
G1 X143.365 Y136.751 E1.02201
G1 X143.716 Y136.828 E1.03396
G1 X144.122 Y136.881 E1.04758
G1 X144.518 Y136.9 E1.06076
G1 X156.478 Y136.899 E1.45855
G1 X156.883 Y136.881 E1.47204
G1 X157.287 Y136.828 E1.48559
G1 X157.667 Y136.743 E1.49854
G1 X158.035 Y136.627 E1.51137
G1 X158.406 Y136.475 E1.52471
G1 X158.738 Y136.3 E1.53719
G1 X159.078 Y136.084 E1.55059
G1 X159.389 Y135.844 E1.56365
G1 X159.68 Y135.578 E1.57677
G1 X159.948 Y135.289 E1.58988
G1 X160.187 Y134.976 E1.60297
G1 X160.403 Y134.635 E1.6164
G1 X160.575 Y134.307 E1.62872
G1 X160.727 Y133.935 E1.64208
G1 X160.844 Y133.567 E1.65493
G1 X160.928 Y133.188 E1.66784
G1 X160.981 Y132.775 E1.68169
G1 X160.999 Y132.378 E1.69491
G1 X161 Y98.1 E2.835
G1 X74.001 Y98.101 E5.7286
G1 X74.001 Y132.392 E6.86912
G1 X74.015 Y132.778 E6.88197
G1 X74.068 Y133.188 E6.89572
G1 X74.152 Y133.567 E6.90863
G1 X74.268 Y133.932 E6.92137
G1 X74.425 Y134.307 E6.93489
G1 X74.593 Y134.636 E6.94717
G1 X74.812 Y134.974 E6.96057
G1 X75.053 Y135.29 E6.97379
G1 X75.317 Y135.579 E6.98681
G1 X75.607 Y135.844 E6.99987
G1 X75.918 Y136.084 E7.01294
G1 X76.258 Y136.3 E7.02634
G1 X76.59 Y136.475 E7.03882
G1 X76.964 Y136.627 E7.05224
G1 X77.333 Y136.744 E7.06512
G1 X77.71 Y136.828 E7.07797
G1 X78.113 Y136.881 E7.09149
G1 X78.518 Y136.9 E7.10497
G1 X90.478 Y136.9 E7.50276
G1 X90.878 Y136.881 E7.51608
G1 X91.279 Y136.828 E7.52953
G1 X91.632 Y136.75 E7.54156
G1 X92.018 Y136.634 E7.55496
G1 X92.369 Y136.49 E7.56758
G1 X92.716 Y136.313 E7.58054
G1 X93.031 Y136.116 E7.5929
G1 X93.351 Y135.875 E7.60622
G1 X93.642 Y135.616 E7.61918
G1 X93.905 Y135.339 E7.63188
G1 X94.137 Y135.044 E7.64436
G1 X94.36 Y134.707 E7.6578
G1 X94.543 Y134.366 E7.67068
G1 X94.692 Y134.021 E7.68318
G1 X94.843 Y133.602 E7.69799
G1 X94.936 Y133.467 E7.70344
G1 X95.101 Y133.34 E7.71037
G1 X95.332 Y133.273 E7.71837
G1 X95.693 Y133.276 E7.73037
G1 X95.926 Y133.357 E7.73858
G1 X96.151 Y133.598 E7.74954
G1 X96.304 Y134.021 E7.7645
G1 X96.453 Y134.366 E7.777
G1 X96.635 Y134.705 E7.7898
G1 X96.862 Y135.042 E7.80332
G1 X97.096 Y135.34 E7.81592
G1 X97.356 Y135.617 E7.82855
G1 X97.645 Y135.875 E7.84144
G1 X97.965 Y136.116 E7.85476
G1 X98.28 Y136.313 E7.86712
G1 X98.626 Y136.489 E7.88003
G1 X98.981 Y136.633 E7.89277
G1 X99.365 Y136.751 E7.90613
G1 X99.716 Y136.828 E7.91809
G1 X100.122 Y136.881 E7.9317
G1 X100.518 Y136.9 E7.94489
G1 X112.478 Y136.9 E8.34268
G1 X112.878 Y136.881 E8.356
G1 X113.279 Y136.828 E8.36945
G1 X113.632 Y136.75 E8.38148
G1 X114.018 Y136.634 E8.39488
G1 X114.369 Y136.49 E8.4075
G1 X114.716 Y136.313 E8.42046
G1 X115.031 Y136.116 E8.43282
G1 X115.351 Y135.875 E8.44614
G1 X115.642 Y135.616 E8.4591
G1 X115.905 Y135.339 E8.4718
G1 X116.137 Y135.044 E8.48428
G1 X116.36 Y134.707 E8.49772
G1 X116.543 Y134.366 E8.5106
G1 X116.692 Y134.021 E8.52309
G1 X116.845 Y133.598 E8.53806
G1 X117.035 Y133.38 E8.54767
G1 X117.354 Y133.272 E8.55888
G1 X117.5 Y133.274 E8.56373
G0 F6000 X117.5 Y133.674
;TYPE:WALL-OUTER
G1 F1200 X117.659 Y133.676 E8.56902
G1 X117.783 Y133.746 E8.57376
G1 X117.931 Y134.167 E8.5886
G1 X118.093 Y134.54 E8.60212
G1 X118.292 Y134.912 E8.61616
G1 X118.538 Y135.278 E8.63082
G1 X118.792 Y135.601 E8.64449
G1 X119.076 Y135.904 E8.6583
G1 X119.391 Y136.185 E8.67234
G1 X119.738 Y136.446 E8.68678
G1 X120.083 Y136.661 E8.70031
G1 X120.46 Y136.853 E8.71438
G1 X120.847 Y137.011 E8.72828
G1 X121.263 Y137.138 E8.74275
G1 X121.647 Y137.222 E8.75582
G1 X122.086 Y137.28 E8.77055
G1 X122.509 Y137.3 E8.78463
G1 X134.487 Y137.3 E9.18302
G1 X134.914 Y137.28 E9.19724
G1 X135.349 Y137.222 E9.21184
G1 X135.733 Y137.138 E9.22491
G1 X136.152 Y137.011 E9.23947
G1 X136.536 Y136.854 E9.25327
G1 X136.913 Y136.661 E9.26736
G1 X137.258 Y136.446 E9.28088
G1 X137.605 Y136.185 E9.29532
G1 X137.92 Y135.904 E9.30936
G1 X138.208 Y135.601 E9.32326
G1 X138.461 Y135.278 E9.33691
G1 X138.704 Y134.913 E9.35149
G1 X138.903 Y134.54 E9.36556
G1 X139.065 Y134.167 E9.37908
G1 X139.201 Y133.78 E9.39272
G1 X139.311 Y133.671 E9.39788
G1 X139.656 Y133.675 E9.40935
G1 X139.785 Y133.763 E9.41454
G1 X139.931 Y134.167 E9.42883
G1 X140.093 Y134.54 E9.44236
G1 X140.292 Y134.912 E9.45639
G1 X140.538 Y135.278 E9.47106
G1 X140.792 Y135.601 E9.48472
G1 X141.076 Y135.904 E9.49854
G1 X141.391 Y136.185 E9.51258
G1 X141.738 Y136.446 E9.52702
G1 X142.083 Y136.661 E9.54054
G1 X142.46 Y136.853 E9.55461
G1 X142.847 Y137.011 E9.56851
G1 X143.263 Y137.138 E9.58298
G1 X143.647 Y137.222 E9.59605
G1 X144.086 Y137.28 E9.61078
G1 X144.509 Y137.3 E9.62487
G1 X156.487 Y137.299 E10.02326
G1 X156.918 Y137.28 E10.03761
G1 X157.357 Y137.222 E10.05233
G1 X157.771 Y137.13 E10.06644
G1 X158.171 Y137.003 E10.0804
G1 X158.575 Y136.838 E10.09491
G1 X158.939 Y136.646 E10.1086
G1 X159.308 Y136.412 E10.12313
G1 X159.647 Y136.15 E10.13738
G1 X159.962 Y135.862 E10.15158
G1 X160.254 Y135.547 E10.16586
G1 X160.515 Y135.205 E10.18017
G1 X160.75 Y134.835 E10.19475
G1 X160.938 Y134.475 E10.20826
G1 X161.103 Y134.071 E10.22277
G1 X161.23 Y133.671 E10.23673
G1 X161.322 Y133.257 E10.25084
G1 X161.38 Y132.81 E10.26583
G1 X161.399 Y132.387 E10.27991
G1 X161.4 Y97.7 E11.43361
G1 X73.601 Y97.701 E14.35381
G1 X73.601 Y132.4 E15.50791
G1 X73.616 Y132.811 E15.52159
G1 X73.674 Y133.257 E15.53655
G1 X73.766 Y133.671 E15.55065
G1 X73.892 Y134.07 E15.56457
G1 X74.062 Y134.475 E15.57918
G1 X74.246 Y134.836 E15.59265
G1 X74.484 Y135.204 E15.60723
G1 X74.746 Y135.547 E15.62159
G1 X75.034 Y135.862 E15.63578
G1 X75.349 Y136.15 E15.64998
G1 X75.688 Y136.412 E15.66423
G1 X76.057 Y136.646 E15.67876
G1 X76.421 Y136.838 E15.69245
G1 X76.828 Y137.003 E15.70706
G1 X77.229 Y137.13 E15.72105
G1 X77.64 Y137.222 E15.73505
G1 X78.078 Y137.28 E15.74975
G1 X78.509 Y137.3 E15.7641
G1 X90.487 Y137.3 E16.16249
G1 X90.914 Y137.28 E16.17671
G1 X91.349 Y137.222 E16.1913
G1 X91.733 Y137.138 E16.20438
G1 X92.152 Y137.011 E16.21894
G1 X92.536 Y136.854 E16.23274
G1 X92.913 Y136.661 E16.24682
G1 X93.258 Y136.446 E16.26034
G1 X93.605 Y136.185 E16.27479
G1 X93.92 Y135.904 E16.28883
G1 X94.208 Y135.601 E16.30273
G1 X94.461 Y135.278 E16.31638
G1 X94.704 Y134.913 E16.33096
G1 X94.903 Y134.54 E16.34502
G1 X95.065 Y134.167 E16.35855
G1 X95.211 Y133.763 E16.37283
G1 X95.34 Y133.675 E16.37803
G1 X95.659 Y133.676 E16.38864
G1 X95.783 Y133.746 E16.39337
G1 X95.931 Y134.167 E16.40822
G1 X96.093 Y134.54 E16.42174
G1 X96.292 Y134.912 E16.43577
G1 X96.538 Y135.278 E16.45044
G1 X96.792 Y135.601 E16.46411
G1 X97.076 Y135.904 E16.47792
G1 X97.391 Y136.185 E16.49196
G1 X97.738 Y136.446 E16.5064
G1 X98.083 Y136.661 E16.51992
G1 X98.46 Y136.853 E16.53399
G1 X98.847 Y137.011 E16.5479
G1 X99.263 Y137.138 E16.56236
G1 X99.647 Y137.222 E16.57544
G1 X100.086 Y137.28 E16.59017
G1 X100.509 Y137.3 E16.60425
G1 X112.487 Y137.3 E17.00264
G1 X112.914 Y137.28 E17.01686
G1 X113.349 Y137.222 E17.03145
G1 X113.733 Y137.138 E17.04453
G1 X114.152 Y137.011 E17.05909
G1 X114.536 Y136.854 E17.07289
G1 X114.913 Y136.661 E17.08698
G1 X115.258 Y136.446 E17.1005
G1 X115.605 Y136.185 E17.11494
G1 X115.92 Y135.904 E17.12898
G1 X116.208 Y135.601 E17.14288
G1 X116.461 Y135.278 E17.15653
G1 X116.704 Y134.913 E17.17111
G1 X116.903 Y134.54 E17.18517
G1 X117.065 Y134.167 E17.1987
G1 X117.201 Y133.78 E17.21234
G1 X117.311 Y133.671 E17.21749
G1 X117.5 Y133.674 E17.22378
G0 F6000 X117.5 Y132.913
;TYPE:SKIN
G1 F1200 X117.198 Y132.908 E17.23383
G1 X116.822 Y133.087 E17.24768
G1 X116.528 Y133.418 E17.2624
G1 X116.354 Y133.889 E17.2791
G1 X116.211 Y134.216 E17.29097
G1 X116.052 Y134.513 E17.30218
G1 X115.845 Y134.827 E17.31469
G1 X115.624 Y135.109 E17.3266
G1 X115.393 Y135.351 E17.33773
G1 X115.125 Y135.589 E17.34965
G1 X114.822 Y135.819 E17.3623
G1 X114.537 Y135.997 E17.37348
G1 X114.228 Y136.154 E17.38501
G1 X113.888 Y136.295 E17.39725
G1 X113.53 Y136.402 E17.40968
G1 X113.229 Y136.466 E17.41991
G1 X112.837 Y136.52 E17.43307
G1 X112.458 Y136.54 E17.4457
G1 X100.534 Y136.54 E17.84229
G1 X100.159 Y136.52 E17.85478
G1 X99.763 Y136.466 E17.86807
G1 X99.463 Y136.402 E17.87828
G1 X99.104 Y136.291 E17.89077
G1 X98.767 Y136.153 E17.90289
G1 X98.455 Y135.997 E17.91449
G1 X98.17 Y135.819 E17.92566
G1 X97.871 Y135.593 E17.93813
G1 X97.604 Y135.356 E17.95
G1 X97.372 Y135.109 E17.96128
G1 X97.147 Y134.822 E17.9734
G1 X96.94 Y134.512 E17.9858
G1 X96.773 Y134.204 E17.99746
G1 X96.642 Y133.897 E18.00856
G1 X96.464 Y133.423 E18.0254
G1 X96.321 Y133.222 E18.0336
G1 X96.01 Y132.993 E18.04645
G1 X95.692 Y132.912 E18.05736
G1 X95.24 Y132.921 E18.0724
G1 X94.914 Y133.029 E18.08382
G1 X94.702 Y133.19 E18.09267
G1 X94.525 Y133.429 E18.10257
G1 X94.358 Y133.882 E18.11862
G1 X94.211 Y134.221 E18.13091
G1 X94.056 Y134.513 E18.14191
G1 X93.849 Y134.822 E18.15428
G1 X93.624 Y135.108 E18.16638
G1 X93.393 Y135.351 E18.17753
G1 X93.125 Y135.589 E18.18946
G1 X92.822 Y135.819 E18.20211
G1 X92.537 Y135.997 E18.21328
G1 X92.228 Y136.154 E18.22481
G1 X91.888 Y136.295 E18.23705
G1 X91.53 Y136.402 E18.24948
G1 X91.229 Y136.466 E18.25972
G1 X90.837 Y136.52 E18.27288
G1 X90.458 Y136.54 E18.2855
G1 X78.534 Y136.54 E18.6821
G1 X78.151 Y136.52 E18.69485
G1 X77.759 Y136.466 E18.70801
G1 X77.424 Y136.394 E18.71941
G1 X77.093 Y136.287 E18.73098
G1 X76.741 Y136.146 E18.74359
G1 X76.437 Y135.986 E18.75502
G1 X76.131 Y135.791 E18.76709
G1 X75.826 Y135.559 E18.77983
G1 X75.57 Y135.319 E18.7915
G1 X75.326 Y135.055 E18.80346
G1 X75.108 Y134.768 E18.81545
G1 X74.898 Y134.448 E18.82818
G1 X74.747 Y134.144 E18.83947
G1 X74.604 Y133.803 E18.85176
G1 X74.498 Y133.468 E18.86345
G1 X74.426 Y133.129 E18.87498
G1 X74.372 Y132.735 E18.88821
G1 X74.36 Y132.388 E18.89975
G1 X74.36 Y98.46 E20.0282
G1 X160.639 Y98.461 E22.89785
G1 X160.636 Y132.359 E24.02531
G1 X160.62 Y132.735 E24.03782
G1 X160.57 Y133.129 E24.05103
G1 X160.494 Y133.468 E24.06259
G1 X160.391 Y133.795 E24.07399
G1 X160.238 Y134.168 E24.0874
G1 X160.09 Y134.456 E24.09817
G1 X159.899 Y134.757 E24.11003
G1 X159.679 Y135.046 E24.12211
G1 X159.423 Y135.317 E24.13451
G1 X159.154 Y135.567 E24.14672
G1 X158.865 Y135.791 E24.15888
G1 X158.559 Y135.982 E24.17088
G1 X158.258 Y136.142 E24.18222
G1 X157.895 Y136.292 E24.19528
G1 X157.576 Y136.394 E24.20642
G1 X157.237 Y136.466 E24.21795
G1 X156.842 Y136.52 E24.23121
G1 X156.459 Y136.536 E24.24396
G1 X144.534 Y136.54 E24.64058
G1 X144.159 Y136.52 E24.65307
G1 X143.763 Y136.466 E24.66637
G1 X143.463 Y136.402 E24.67657
G1 X143.104 Y136.291 E24.68907
G1 X142.767 Y136.153 E24.70118
G1 X142.455 Y135.997 E24.71278
G1 X142.17 Y135.819 E24.72396
G1 X141.871 Y135.593 E24.73642
G1 X141.604 Y135.356 E24.7483
G1 X141.372 Y135.109 E24.75957
G1 X141.147 Y134.822 E24.7717
G1 X140.94 Y134.512 E24.7841
G1 X140.773 Y134.204 E24.79575
G1 X140.639 Y133.891 E24.80707
G1 X140.465 Y133.405 E24.82424
G1 X140.248 Y133.148 E24.83543
G1 X139.972 Y132.978 E24.84621
G1 X139.769 Y132.917 E24.85326
G1 X139.2 Y132.912 E24.87219
G1 X138.833 Y133.075 E24.88554
G1 X138.528 Y133.418 E24.90081
G1 X138.354 Y133.889 E24.91751
G1 X138.211 Y134.216 E24.92938
G1 X138.052 Y134.513 E24.94059
G1 X137.845 Y134.827 E24.95309
G1 X137.624 Y135.109 E24.96501
G1 X137.393 Y135.351 E24.97614
G1 X137.125 Y135.589 E24.98806
G1 X136.822 Y135.819 E25.00071
G1 X136.537 Y135.997 E25.01189
G1 X136.228 Y136.154 E25.02342
G1 X135.888 Y136.295 E25.03566
G1 X135.53 Y136.402 E25.04809
G1 X135.229 Y136.466 E25.05832
G1 X134.837 Y136.52 E25.07148
G1 X134.458 Y136.54 E25.0841
G1 X122.534 Y136.54 E25.4807
G1 X122.159 Y136.52 E25.49319
G1 X121.763 Y136.466 E25.50648
G1 X121.463 Y136.402 E25.51668
G1 X121.104 Y136.291 E25.52918
G1 X120.767 Y136.153 E25.54129
G1 X120.455 Y135.997 E25.5529
G1 X120.17 Y135.819 E25.56407
G1 X119.871 Y135.593 E25.57654
G1 X119.604 Y135.356 E25.58841
G1 X119.372 Y135.109 E25.59968
G1 X119.147 Y134.822 E25.61181
G1 X118.94 Y134.512 E25.62421
G1 X118.773 Y134.204 E25.63586
G1 X118.642 Y133.897 E25.64697
G1 X118.464 Y133.423 E25.66381
G1 X118.321 Y133.222 E25.67201
G1 X118.007 Y132.993 E25.68494
G1 X117.722 Y132.916 E25.69476
G1 X117.5 Y132.913 E25.70214
G1 F2700 E20.70214
G0 F6000 X117.087 Y133.185
G0 X116.006 Y134.95
G0 X115.249 Y135.751
G0 X114.301 Y136.344
G0 X113.251 Y136.67
G0 X112.473 Y136.739
G0 X100.136 Y136.721
G0 X99.035 Y136.482
G0 X98.056 Y135.983
G0 X97.218 Y135.236
G0 X96.659 Y134.39
G0 X96.337 Y133.589
G0 X94.682 Y133.521
G0 X75.321 Y134.718
G1 F2700 E25.70214
G1 F1200 X76.18 Y135.577 E25.74254
G0 F6000 X75.898 Y135.942
G0 X77.178 Y136.589
G0 X77.319 Y136.15
G1 F1200 X74.74 Y133.572 E25.86383
G0 F6000 X74.591 Y132.856
G1 F1200 X78.036 Y136.302 E26.0259
G0 F6000 X78.639 Y136.339
G1 F1200 X74.56 Y132.26 E26.21776
G0 F6000 X74.56 Y131.694
G1 F1200 X79.205 Y136.339 E26.43625
G0 F6000 X79.771 Y136.339
G1 F1200 X74.56 Y131.129 E26.68133
G0 F6000 X74.56 Y130.563
G1 F1200 X80.337 Y136.339 E26.95304
G0 F6000 X80.902 Y136.339
G1 F1200 X74.56 Y129.997 E27.25135
G0 F6000 X74.56 Y129.432
G1 F1200 X81.468 Y136.339 E27.57626
G0 F6000 X82.034 Y136.339
G1 F1200 X74.56 Y128.866 E27.92779
G0 F6000 X74.56 Y128.3
G1 F1200 X82.599 Y136.339 E28.30592
G0 F6000 X83.165 Y136.339
G1 F1200 X74.56 Y127.735 E28.71065
G0 F6000 X74.56 Y127.169
G1 F1200 X83.731 Y136.339 E29.142
G0 F6000 X84.296 Y136.339
G1 F1200 X74.56 Y126.603 E29.59995
G0 F6000 X74.56 Y126.038
G1 F1200 X84.862 Y136.339 E30.0845
G0 F6000 X85.428 Y136.339
G1 F1200 X74.56 Y125.472 E30.59567
G0 F6000 X74.56 Y124.906
G1 F1200 X85.993 Y136.339 E31.13345
G0 F6000 X86.559 Y136.339
G1 F1200 X74.56 Y124.34 E31.69784
G0 F6000 X74.56 Y123.775
G1 F1200 X87.125 Y136.339 E32.28884
G0 F6000 X87.69 Y136.339
G1 F1200 X74.56 Y123.209 E32.90643
G0 F6000 X74.56 Y122.643
G1 F1200 X88.256 Y136.339 E33.55065
G0 F6000 X88.822 Y136.339
G1 F1200 X74.56 Y122.078 E34.22147
G0 F6000 X74.56 Y121.512
