;FLAVOR:Marlin
;TIME:5928
;Filament used: 4.35645m
;Layer height: 0.12
;MINX:70.9
;MINY:85.9
;MINZ:0.2
;MAXX:164.1
;MAXY:149.1
;MAXZ:8
;TARGET_MACHINE.NAME:Creality Ender-3
;Generated with Cura_SteamEngine 5.11.0
M140 S60
M105
M190 S60
M104 S200
M105
M109 S200
; Ender 3 Custom Start G-code
G92 E0 ; Reset Extruder
G28 ; Home all axes
G1 Z2.0 F3000 ; Move Z Axis up little to prevent scratching of Heat Bed
G1 X0.1 Y20 Z0.3 F5000.0 ; Move to start position
G1 X0.1 Y200.0 Z0.3 F1500.0 E15 ; Draw the first line
G1 X0.4 Y200.0 Z0.3 F5000.0 ; Move to side a little
G1 X0.4 Y20 Z0.3 F1500.0 E30 ; Draw the second line
G92 E0 ; Reset Extruder
G1 Z2.0 F3000 ; Move Z Axis up little to prevent scratching of Heat Bed
G1 X5 Y20 Z0.3 F5000.0 ; Move over to prevent blob squish
M82 ;absolute extrusion mode
G92 E0
G92 E0
G1 F2700 E-5
;LAYER_COUNT:66
;LAYER:0
M107
;MESH:Bottom.stl
G0 F6000 X96.877 Y126.723 Z0.2
;TYPE:WALL-INNER
G1 F2700 E0
G1 F1200 X97.951 Y125.477 E0.05471
G1 X98.258 Y125.367 E0.06556
G1 X98.388 Y125.367 E0.06988
G1 X98.708 Y125.502 E0.08143
G1 X98.913 Y125.7 E0.09091
G1 X99.238 Y125.846 E0.10276
G1 X99.599 Y125.851 E0.11477
G1 X99.904 Y125.703 E0.12605
G1 X100.147 Y125.413 E0.13863
G1 X100.221 Y125.264 E0.14417
G1 X100.29 Y124.844 E0.15832
G1 X100.273 Y124.633 E0.16536
G1 X100.138 Y124.239 E0.17921
G1 X100.043 Y124.104 E0.1847
G1 X99.777 Y123.907 E0.19571
G1 X99.601 Y123.852 E0.20185
G1 X99.201 Y123.853 E0.21515
G1 X98.851 Y123.988 E0.22763
G1 X98.677 Y124.147 E0.23547
G1 X98.363 Y124.297 E0.24704
G1 X98.234 Y124.303 E0.25134
G1 X97.969 Y124.223 E0.26054
G1 X97.807 Y124.084 E0.26764
G1 X96.877 Y122.947 E0.3165
G1 X96.877 Y126.723 E0.44209
G1 F2700 E-4.55791
G0 F6000 X96.694 Y127.215
G0 X96.688 Y127.536
G0 X96.328 Y131.89
G1 F2700 E0.44209
G1 F1200 X94.127 Y131.89 E0.5153
G1 X93.927 Y131.837 E0.52218
G1 X93.695 Y131.647 E0.53215
G1 X93.58 Y131.411 E0.54088
G1 X93.58 Y127.127 E0.68337
G1 X92.592 Y128.384 E0.73655
G1 X92.347 Y128.568 E0.74674
G1 X92.12 Y128.612 E0.75443
G1 X89.791 Y128.611 E0.83189
G1 X89.539 Y128.532 E0.84067
G1 X89.345 Y128.367 E0.84914
G1 X89.165 Y127.977 E0.86343
G1 X89.152 Y127.786 E0.8698
G1 X89.222 Y127.516 E0.87908
G1 X91.263 Y125.123 E0.98368
G1 X89.135 Y122.215 E1.10354
G1 X89.027 Y121.957 E1.11284
G1 X89.063 Y121.634 E1.12365
G1 X89.2 Y121.365 E1.13369
G1 X89.315 Y121.229 E1.13961
G1 X89.511 Y121.114 E1.14717
G1 X89.687 Y121.08 E1.15313
G1 X92.159 Y121.086 E1.23535
G1 X92.414 Y121.189 E1.2445
G1 X92.564 Y121.341 E1.2516
G1 X93.58 Y122.833 E1.31164
G1 X93.58 Y121.68 E1.34999
G1 X93.684 Y121.341 E1.36178
G1 X93.834 Y121.189 E1.36888
G1 X94.062 Y121.081 E1.37728
G1 X96.307 Y121.08 E1.45194
G1 X96.622 Y121.189 E1.46303
G1 X96.776 Y121.347 E1.47037
G1 X96.863 Y121.556 E1.4779
G1 X96.875 Y121.696 E1.48257
G1 X97.323 Y121.399 E1.50045
G1 X97.639 Y121.243 E1.51217
G1 X97.907 Y121.135 E1.52178
G1 X98.319 Y121.016 E1.53604
G1 X98.693 Y120.938 E1.54875
G1 X99.058 Y120.894 E1.56098
G1 X99.477 Y120.88 E1.57492
G1 X99.86 Y120.893 E1.58767
G1 X100.236 Y120.935 E1.60025
G1 X100.672 Y121.03 E1.61509
G1 X101.041 Y121.135 E1.62785
G1 X101.433 Y121.299 E1.64199
G1 X101.752 Y121.46 E1.65387
G1 X102.049 Y121.658 E1.66574
G1 X102.353 Y121.894 E1.67854
G1 X102.651 Y122.205 E1.69287
G1 X102.926 Y122.553 E1.70762
G1 X103.098 Y122.837 E1.71867
G1 X103.265 Y123.154 E1.73058
G1 X103.429 Y123.619 E1.74698
G1 F958.1 X103.635 Y124.042 E1.76658
G1 X103.736 Y123.581 E1.78624
G1 F1200 X103.736 Y121.611 E1.85177
G1 X103.824 Y121.366 E1.86042
G1 X104.051 Y121.151 E1.87082
G1 X104.271 Y121.079 E1.87852
G1 X106.479 Y121.082 E1.95196
G1 X106.729 Y121.165 E1.96072
G1 X106.881 Y121.295 E1.96737
G1 F1142.9 X107.04 Y121.68 E1.98192
G1 F1083.5 X107.035 Y128.12 E2.21914
G1 F924.9 X106.903 Y128.514 E2.23707
G1 F810.8 X106.648 Y128.666 E2.25169
G1 F826.2 X106.908 Y128.968 E2.27094
G1 F991.7 X107.099 Y129.494 E2.29346
G1 F1259.8 X107.154 Y130.028 E2.31047
G1 F1276.6 X107.131 Y130.401 E2.32215
G1 F1224.5 X106.889 Y131 E2.34321
G1 F1209.1 X106.38 Y131.486 E2.36644
G1 F1200 X105.752 Y131.745 E2.38903
G1 X105.034 Y131.755 E2.41292
G1 X104.401 Y131.509 E2.4355
G1 X103.903 Y131.04 E2.45826
G1 X103.665 Y130.564 E2.47596
G1 X103.575 Y130.032 E2.4939
G1 X103.624 Y129.632 E2.50731
G1 X103.891 Y129.03 E2.52921
G1 X104.325 Y128.624 E2.54898
G1 X103.962 Y128.482 E2.56194
G1 X103.81 Y128.303 E2.56975
G1 X103.736 Y128.089 E2.57728
G1 X103.736 Y126.101 E2.6434
G1 F954.3 X103.633 Y125.673 E2.66182
G1 X103.429 Y126.063 E2.68022
G1 F1200 X103.304 Y126.439 E2.6934
G1 X103.126 Y126.799 E2.70676
G1 X102.917 Y127.137 E2.71998
G1 X102.644 Y127.478 E2.73451
G1 X102.364 Y127.764 E2.74782
G1 X102.066 Y128.002 E2.7605
G1 X101.724 Y128.232 E2.77421
G1 X101.387 Y128.401 E2.78675
G1 X101.035 Y128.547 E2.79943
G1 X100.679 Y128.655 E2.8118
G1 X100.244 Y128.753 E2.82663
G1 X99.873 Y128.795 E2.83905
G1 X99.439 Y128.812 E2.85349
G1 X99.05 Y128.792 E2.86645
G1 X98.656 Y128.737 E2.87968
G1 X98.274 Y128.646 E2.89274
G1 X97.739 Y128.463 E2.91155
G1 X97.389 Y128.293 E2.92449
G1 X96.877 Y127.971 E2.94461
G1 X96.875 Y131.341 E3.05669
G1 X96.803 Y131.581 E3.06503
G1 X96.69 Y131.728 E3.07119
G1 X96.478 Y131.858 E3.07947
G1 X96.328 Y131.89 E3.08457
G0 F6000 X96.716 Y131.73
G0 X97.057 Y128.298
G0 X100.157 Y128.942
G0 X101.994 Y127.87
G0 X103.437 Y126.417
G0 X103.633 Y125.673
G1 F826.2 X103.658 Y125.252 E3.10494
G1 F879.1 X103.668 Y124.814 E3.12483
G1 F882.4 X103.66 Y124.454 E3.14112
G1 F831.9 X103.635 Y124.042 E3.16092
G1 F2700 E-1.83908
G0 F6000 X103.899 Y128.451
G0 X106.86 Y128.451
G0 X106.857 Y128.043
G0 X107.69 Y129.078
G0 X108.765 Y129.078
G0 X109.545 Y129.078
G0 X110.809 Y129.078
G1 F2700 E3.16092
G1 F1200 X112.187 Y127.699 E3.22576
G1 X112.467 Y127.541 E3.23646
G1 X112.81 Y127.557 E3.24788
G1 X113.023 Y127.685 E3.25614
G1 X113.292 Y127.992 E3.26972
G1 X113.65 Y128.197 E3.28344
G1 X113.955 Y128.301 E3.29416
G1 X114.364 Y128.357 E3.30789
G1 X114.904 Y128.306 E3.32593
G1 X115.311 Y128.16 E3.34031
G1 X115.637 Y127.96 E3.35303
G1 X115.855 Y127.754 E3.36301
G1 X116.061 Y127.503 E3.37381
G1 X116.243 Y127.156 E3.38684
G1 X116.38 Y126.716 E3.40217
G1 X116.419 Y126.191 E3.41968
G1 X116.376 Y125.642 E3.43799
G1 X116.249 Y125.225 E3.45249
G1 X116.06 Y124.849 E3.46649
G1 X115.875 Y124.616 E3.47638
G1 X115.586 Y124.373 E3.48894
G1 X115.255 Y124.191 E3.5015
G1 X114.877 Y124.075 E3.51466
G1 X114.465 Y124.037 E3.52842
G1 X114.025 Y124.079 E3.54312
G1 X113.604 Y124.23 E3.55799
G1 X113.245 Y124.471 E3.57237
G1 X112.983 Y124.779 E3.58582
G1 X112.774 Y124.913 E3.59408
G1 X112.431 Y124.939 E3.60552
G1 X112.148 Y124.789 E3.61618
G1 X110.807 Y123.525 E3.67747
G1 X110.809 Y129.078 E3.86216
G1 F2700 E-1.13784
G0 F6000 X112.632 Y127.508
G0 X112.617 Y129.049
G0 X113.154 Y129.363
G0 X113.924 Y129.554
G0 X116.194 Y129.97
G0 X117.5 Y130.74
G1 F2700 E3.86216
G1 F1200 X117.096 Y130.955 E3.87738
G1 X116.664 Y131.143 E3.89305
G1 X116.093 Y131.317 E3.91291
G1 X115.58 Y131.436 E3.93042
G1 X115.029 Y131.5 E3.94887
G1 X114.457 Y131.523 E3.96791
G1 X113.8 Y131.481 E3.98981
G1 X113.184 Y131.369 E4.01063
G1 X112.461 Y131.156 E4.0357
G1 X111.936 Y130.93 E4.05471
G1 X111.496 Y130.693 E4.07133
G1 X111.06 Y130.353 E4.08972
G1 X110.809 Y130.117 E4.10118
G1 X110.808 Y131.424 E4.14465
G1 X110.708 Y131.625 E4.15212
G1 X110.553 Y131.784 E4.15951
G1 X110.273 Y131.889 E4.16945
G1 X108.04 Y131.89 E4.24372
G1 X107.806 Y131.816 E4.25188
G1 X107.575 Y131.584 E4.26277
G1 X107.504 Y131.363 E4.27049
G1 F1218.3 X107.506 Y130.562 E4.29674
G1 F1276.6 X107.518 Y130.028 E4.31344
G1 F1263.2 X107.503 Y129.573 E4.32782
G1 F1059.6 X107.445 Y128.993 E4.34978
G1 F869.6 X107.404 Y128.727 E4.36213
G1 F924.9 X107.477 Y128.158 E4.38689
G1 F1083.5 X107.48 Y121.68 E4.62551
G1 F1142.9 X107.639 Y121.295 E4.64005
G1 F1200 X107.791 Y121.165 E4.64671
G1 X108.04 Y121.082 E4.65544
G1 X110.288 Y121.08 E4.7302
G1 X110.561 Y121.194 E4.74004
G1 X110.738 Y121.398 E4.74903
G1 X110.806 Y121.62 E4.75675
G1 X110.808 Y122.317 E4.77993
G1 X110.993 Y122.134 E4.78859
G1 X111.386 Y121.81 E4.80553
G1 X111.658 Y121.622 E4.81653
G1 X112.281 Y121.28 E4.84016
G1 X112.953 Y121.045 E4.86384
G1 X113.416 Y120.936 E4.87966
G1 X113.862 Y120.872 E4.89465
G1 X114.573 Y120.84 E4.91832
G1 X115.109 Y120.867 E4.93617
G1 X115.603 Y120.924 E4.95271
G1 X116.183 Y121.06 E4.97252
G1 X116.726 Y121.238 E4.99153
G1 X117.176 Y121.445 E5.008
G1 X117.611 Y121.684 E5.02451
G1 X118.027 Y121.983 E5.04155
G1 X118.424 Y122.322 E5.05891
G1 X118.767 Y122.705 E5.07601
G1 X119.075 Y123.106 E5.09283
G1 X119.346 Y123.562 E5.11048
G1 X119.573 Y124.034 E5.12789
G1 X119.81 Y124.746 E5.15285
G1 X119.882 Y125.062 E5.16363
G1 X119.952 Y125.522 E5.17911
G1 X119.984 Y126.221 E5.20238
G1 X119.958 Y126.761 E5.22036
G1 X119.915 Y127.193 E5.2348
G1 X119.81 Y127.663 E5.25082
G1 X119.569 Y128.39 E5.27629
G1 X119.329 Y128.863 E5.29394
G1 X119.057 Y129.307 E5.31125
G1 X118.762 Y129.68 E5.32707
G1 X118.383 Y130.083 E5.34547
G1 X117.973 Y130.417 E5.36306
G1 X117.575 Y130.7 E5.3793
G1 X117.5 Y130.74 E5.38213
G1 F2700 E0.38213
G0 F6000 X118.901 Y129.795
G0 X123.031 Y129.547
G0 X130.973 Y129.923
G1 F2700 E5.38213
G1 F819.1 X130.973 Y129.685 E5.39373
G1 F973.6 X131.22 Y129.392 E5.40944
G1 F1200 X132.603 Y127.927 E5.47644
G1 X132.809 Y127.785 E5.48477
G1 X133.024 Y127.74 E5.49207
G1 F1188.1 X133.257 Y127.776 E5.49999
G1 F1132.1 X133.476 Y127.898 E5.50883
G1 F1000 X133.772 Y128.135 E5.52396
G1 F902.3 X134.064 Y128.289 E5.53857
G1 F875.9 X134.361 Y128.397 E5.55297
G1 F874.3 X134.665 Y128.438 E5.56697
G1 X134.997 Y128.41 E5.58218
G1 X135.194 Y128.287 E5.59278
G1 X135.212 Y128.172 E5.5981
G1 X135.12 Y128.101 E5.6034
G1 X134.795 Y127.964 E5.6195
G1 F875.9 X134.268 Y127.784 E5.64488
G1 F902.3 X134.013 Y127.683 E5.65701
G1 F1034.5 X133.53 Y127.45 E5.6777
G1 F1182.3 X133.058 Y127.261 E5.69486
G1 F1200 X132.775 Y127.121 E5.70537
G1 X132.364 Y126.87 E5.72138
G1 X132.043 Y126.593 E5.73549
G1 X131.812 Y126.355 E5.74652
G1 X131.502 Y125.96 E5.76322
G1 F1197 X131.291 Y125.49 E5.7804
G1 F864.9 X131.033 Y125.162 E5.79965
G1 X130.882 Y125.554 E5.81904
G1 F1197 X130.88 Y129.257 E5.94251
G1 F973.6 X130.973 Y129.685 E5.96046
G0 F6000 X131.033 Y125.162
G1 F701.8 X131.01 Y124.854 E5.97803
G1 F740.7 X130.998 Y124.452 E5.9997
G1 F739.6 X131.011 Y124 E6.0241
G1 F700.7 X131.033 Y123.665 E6.04322
G0 F6000 X131.445 Y125.468
G0 X131.762 Y126.049
G0 X132.386 Y126.693
G0 X135.009 Y128.636
G0 X133.028 Y127.72
G0 X131.012 Y129.849
G0 X132.089 Y130.681
G0 X133.316 Y131.181
G0 X134.167 Y131.334
G0 X135.297 Y131.315
G0 X136.301 Y131.083
G0 X137.239 Y130.619
G0 X137.763 Y130.16
G0 X138.1 Y129.697
G0 X138.964 Y128.008
G0 X138.791 Y128.507
G1 F776.7 X139.139 Y128.197 E6.06717
G1 F912.5 X139.676 Y128.214 E6.09067
G1 F1081.1 X142.79 Y128.214 E6.20564
G1 X142.79 Y127.77 E6.22203
G1 F1071.4 X139.574 Y127.77 E6.34183
G1 F923.1 X139.249 Y127.696 E6.35624
G1 F928.4 X139.087 Y127.35 E6.37266
G1 F1066.7 X139.049 Y127.148 E6.38036
G1 F1124.1 X139.076 Y126.746 E6.39466
G1 F1200 X139.076 Y125.319 E6.44212
G1 F1103.4 X139.187 Y125.028 E6.45339
G1 F948.6 X139.56 Y124.743 E6.47314
G1 F892.2 X142.745 Y124.737 E6.61562
G1 F898.9 X142.745 Y124.203 E6.63933
G1 F892.2 X139.514 Y124.206 E6.78387
G1 F948.6 X139.099 Y124.133 E6.8016
G1 F1103.4 X138.915 Y124.048 E6.80893
G1 F1200 X138.618 Y123.518 E6.82914
G1 X137.536 Y124.617 E6.88043
G1 X137.356 Y124.743 E6.88774
G1 F1159.4 X137.014 Y124.829 E6.89988
G1 F1076.2 X136.705 Y124.686 E6.91251
G1 F1066.7 X136.4 Y124.321 E6.9303
G1 F1153.8 X135.973 Y124.049 E6.94782
G1 F1200 X135.574 Y123.9 E6.96198
G1 X135.178 Y123.848 E6.97527
G1 X134.772 Y123.89 E6.98884
G1 X134.566 Y124.032 E6.99716
G1 X134.521 Y124.201 E7.00298
G1 X134.54 Y124.306 E7.00653
G1 X134.643 Y124.415 E7.01152
G1 X134.981 Y124.601 E7.02435
G1 F1191.1 X136.143 Y124.998 E7.0655
G1 F1100.9 X136.469 Y125.079 E7.07767
G1 F1052.6 X136.877 Y125.26 E7.0946
G1 F1132.1 X137.384 Y125.575 E7.11564
G1 F1200 X137.782 Y125.872 E7.13216
G1 X138.16 Y126.312 E7.15145
G1 X138.411 Y126.741 E7.16798
G1 F1124.1 X138.602 Y127.202 E7.1857
G1 F919.5 X138.774 Y127.936 E7.21842
G1 F789.5 X138.791 Y128.507 E7.2473
G0 F6000 X138.964 Y128.008
G0 X137.98 Y129.887
G0 X137.511 Y130.401
G0 X136.936 Y130.802
G0 X136.158 Y131.109
G0 X134.596 Y131.508
G1 F1200 X134.145 Y131.48 E7.26233
G1 X133.668 Y131.419 E7.27833
G1 X133.28 Y131.324 E7.29161
G1 X132.851 Y131.195 E7.30651
G1 X132.409 Y131.012 E7.32242
G1 X131.984 Y130.794 E7.33831
G1 X131.74 Y130.638 E7.34794
G1 X131.28 Y130.272 E7.36749
G1 F973.6 X130.973 Y129.923 E7.38655
G1 X130.88 Y130.463 E7.40901
G1 F1200 X130.854 Y130.857 E7.42214
G1 X130.769 Y131.029 E7.42852
G1 X130.53 Y131.226 E7.43883
G1 X130.326 Y131.279 E7.44584
G1 X126.966 Y131.28 E7.55759
G1 X126.573 Y131.27 E7.57067
G1 X126.205 Y131.238 E7.58295
G1 X125.821 Y131.181 E7.59586
G1 X125.457 Y131.109 E7.60821
G1 X125.102 Y131.015 E7.62042
G1 X124.755 Y130.889 E7.6327
G1 X124.428 Y130.724 E7.64488
G1 X124.158 Y130.562 E7.65535
G1 X123.883 Y130.351 E7.66688
G1 X123.609 Y130.09 E7.67947
G1 X123.389 Y129.798 E7.69163
G1 X123.194 Y129.468 E7.70438
G1 X123.04 Y129.088 E7.71801
G1 X122.935 Y128.739 E7.73014
G1 X122.868 Y128.27 E7.74589
G1 X122.856 Y127.88 E7.75887
G1 X122.872 Y127.532 E7.77046
G1 X122.951 Y126.933 E7.79055
G1 X123.219 Y126.284 E7.81391
G1 X123.421 Y125.97 E7.82632
G1 X123.637 Y125.696 E7.83793
G1 X123.926 Y125.426 E7.85108
G1 X124.192 Y125.215 E7.86238
G1 X124.541 Y125.012 E7.8758
G1 X124.885 Y124.849 E7.88847
G1 X125.216 Y124.734 E7.90012
G1 X125.559 Y124.639 E7.91196
G1 X125.931 Y124.566 E7.92457
G1 X126.301 Y124.513 E7.937
G1 X126.659 Y124.488 E7.94893
G1 X127.032 Y124.476 E7.96135
G1 X127.508 Y124.476 E7.97718
G1 X127.512 Y121.603 E8.07274
G1 X127.564 Y121.424 E8.07894
G1 X127.671 Y121.267 E8.08525
G1 X127.829 Y121.148 E8.09183
G1 X128.068 Y121.081 E8.10009
G1 X130.354 Y121.08 E8.17612
G1 X130.53 Y121.134 E8.18224
G1 X130.719 Y121.269 E8.18997
G1 X130.819 Y121.414 E8.19583
G1 X130.881 Y121.68 E8.20491
G1 X130.881 Y123.183 E8.2549
G1 F1006.3 X131.025 Y123.677 E8.27531
G1 X131.309 Y123.246 E8.29578
G1 F1200 X131.461 Y122.845 E8.31005
G1 X131.673 Y122.494 E8.32369
G1 X131.9 Y122.183 E8.33649
G1 X132.107 Y121.963 E8.34654
G1 X132.376 Y121.724 E8.35851
G1 X132.726 Y121.488 E8.37255
G1 X133.04 Y121.308 E8.38458
G1 X133.366 Y121.171 E8.39635
G1 X133.715 Y121.05 E8.40863
G1 X134.08 Y120.965 E8.4211
G1 X134.432 Y120.901 E8.433
G1 X134.813 Y120.864 E8.44573
G1 X135.145 Y120.852 E8.45678
G1 X135.711 Y120.884 E8.47563
G1 X136.252 Y120.951 E8.49376
G1 X136.718 Y121.059 E8.50967
G1 X137.275 Y121.234 E8.52909
G1 X137.73 Y121.438 E8.54568
G1 X138.191 Y121.698 E8.56328
G1 X138.628 Y122.031 E8.58155
G1 X138.628 Y121.68 E8.59323
G1 X138.67 Y121.457 E8.60078
G1 X138.789 Y121.27 E8.60815
G1 X138.935 Y121.156 E8.61431
G1 X139.133 Y121.082 E8.62134
G1 X145.554 Y121.081 E8.8349
G1 X145.811 Y121.161 E8.84386
G1 X146.053 Y121.427 E8.85582
G1 X146.109 Y121.605 E8.86202
G1 X146.106 Y130.735 E9.16569
G1 X146.05 Y130.939 E9.17272
G1 X145.938 Y131.1 E9.17925
G1 X145.725 Y131.24 E9.18772
G1 X145.564 Y131.278 E9.19323
G1 X139.405 Y131.278 E9.39808
G1 X139.142 Y131.19 E9.4073
G1 X138.95 Y130.997 E9.41635
G1 X138.86 Y130.792 E9.4238
G1 X138.86 Y129.304 E9.47329
G1 F912.5 X138.734 Y128.862 E9.49339
G1 X138.489 Y129.248 E9.51339
G1 F1200 X138.329 Y129.618 E9.5268
G1 X138.092 Y129.988 E9.54141
G1 X137.844 Y130.289 E9.55438
G1 X137.585 Y130.535 E9.56626
G1 X137.295 Y130.759 E9.57845
G1 X136.992 Y130.944 E9.59026
G1 X136.651 Y131.112 E9.6029
G1 X136.341 Y131.225 E9.61388
G1 X135.996 Y131.332 E9.62589
G1 X135.66 Y131.403 E9.63731
G1 X135.296 Y131.466 E9.6496
G1 X134.943 Y131.496 E9.66138
G1 X134.596 Y131.508 E9.67293
G0 F6000 X136.301 Y131.083
G0 X137.239 Y130.619
G0 X137.763 Y130.16
G0 X138.1 Y129.697
G0 X138.964 Y128.008
G0 X138.734 Y128.862
G1 F728.4 X138.792 Y128.535 E9.69113
G1 F2700 E4.69113
G0 F6000 X138.964 Y128.008
G0 X137.98 Y129.887
G0 X137.511 Y130.401
G0 X136.936 Y130.802
G0 X136.158 Y131.109
G0 X134.122 Y131.66
G0 X134.12 Y147.946
G0 X117.5 Y148.126
G1 F2700 E9.69113
G1 F1200 X157.479 Y148.128 E11.02084
