;FLAVOR:Marlin
;TIME:4945
;Filament used: 3.19628m
;Layer height: 0.12
;MINX:70.749
;MINY:85.656
;MINZ:0.2
;MAXX:164.544
;MAXY:149.545
;MAXZ:1.64
;TARGET_MACHINE.NAME:Creality Ender-3
;POSTPROCESSED
;  [PauseAtHeight]
;Generated with Cura_SteamEngine 5.11.0
M140 S60
M105
M190 S60
M104 S200
M105
M109 S200
; Ender 3 Custom Start G-code
G92 E0 ; Reset Extruder
G28 ; Home all axes
G1 Z2.0 F3000 ; Move Z Axis up little to prevent scratching of Heat Bed
G1 X0.1 Y20 Z0.3 F5000.0 ; Move to start position
G1 X0.1 Y200.0 Z0.3 F1500.0 E15 ; Draw the first line
G1 X0.4 Y200.0 Z0.3 F5000.0 ; Move to side a little
G1 X0.4 Y20 Z0.3 F1500.0 E30 ; Draw the second line
G92 E0 ; Reset Extruder
G1 Z2.0 F3000 ; Move Z Axis up little to prevent scratching of Heat Bed
G1 X5 Y20 Z0.3 F5000.0 ; Move over to prevent blob squish
M82 ;absolute extrusion mode
G92 E0
G92 E0
G1 F2700 E-5
;LAYER_COUNT:13
;LAYER:0
M107
;MESH:Wall Mount.stl
G0 F6000 X115.362 Y143.117 Z0.2
;TYPE:WALL-INNER
G1 F2700 E0
G1 F1200 X115.589 Y143.071 E0.0077
G1 X115.744 Y142.961 E0.01403
G1 X115.876 Y142.748 E0.02236
G1 X115.921 Y142.58 E0.02814
G1 X115.873 Y142.243 E0.03947
G1 X115.751 Y142.04 E0.04734
G1 X115.443 Y141.874 E0.05898
G1 X115.26 Y141.893 E0.0651
G1 X115.074 Y141.982 E0.07196
G1 X114.954 Y142.111 E0.07782
G1 X114.736 Y142.247 E0.08636
G1 F1103.4 X114.375 Y142.3 E0.09956
G1 F1021.3 X114.082 Y142.133 E0.11274
G1 X114.084 Y142.927 E0.14377
G1 X114.382 Y142.753 E0.15726
G1 F1103.4 X114.744 Y142.794 E0.17043
G1 F1200 X114.966 Y142.924 E0.17899
G1 X115.12 Y143.069 E0.18603
G1 X115.362 Y143.117 E0.19423
G1 F2700 E-4.80577
G0 F6000 X115.546 Y142.948
G0 X115.876 Y143.082
G0 X116.973 Y144.528
G0 X117.5 Y144.302
G1 F2700 E0.19423
G1 F1200 X117.368 Y144.454 E0.20093
G1 X116.934 Y144.79 E0.21918
G1 X116.468 Y145.02 E0.23647
G1 X115.932 Y145.16 E0.25489
G1 X115.396 Y145.211 E0.2728
G1 X114.858 Y145.161 E0.29077
G1 X114.359 Y145.017 E0.30805
G1 X113.951 Y144.821 E0.3231
G1 X113.757 Y145.015 E0.33223
G1 X113.448 Y145.1 E0.34289
G1 X112.5 Y145.1 E0.37442
G1 X112.293 Y145.064 E0.3814
G1 X112.049 Y144.896 E0.39126
G1 X111.883 Y144.464 E0.40665
G1 X111.411 Y145.001 E0.43043
G1 X111.131 Y145.1 E0.44031
G1 X110.116 Y145.1 E0.47407
G1 X109.866 Y145.046 E0.48257
G1 X109.677 Y144.91 E0.49032
G1 X109.566 Y144.742 E0.49701
G1 X109.439 Y144.418 E0.50859
G1 X109.45 Y144.135 E0.51801
G1 X109.543 Y143.945 E0.52504
G1 X110.761 Y142.635 E0.58454
G1 X109.366 Y140.981 E0.6565
G1 X109.307 Y140.754 E0.66431
G1 X109.314 Y140.535 E0.67159
G1 X109.486 Y140.165 E0.68516
G1 X109.72 Y139.964 E0.69542
G1 X109.938 Y139.902 E0.70296
G1 X111.089 Y139.905 E0.74125
G1 X111.29 Y139.972 E0.74829
G1 X111.471 Y140.121 E0.75609
G1 X111.9 Y140.652 E0.77879
G1 X111.9 Y140.5 E0.78385
G1 X112.033 Y140.121 E0.79721
G1 X112.214 Y139.972 E0.80501
G1 X112.411 Y139.9 E0.81198
G1 X113.508 Y139.902 E0.84847
G1 X113.815 Y140.025 E0.85947
G1 X113.942 Y140.206 E0.86682
G1 X114.284 Y140.012 E0.8799
G1 X114.849 Y139.84 E0.89954
G1 X115.393 Y139.792 E0.91771
G1 X115.953 Y139.836 E0.93639
G1 X116.475 Y139.979 E0.95439
G1 X116.901 Y140.187 E0.97016
G1 X117.164 Y140.377 E0.98095
G1 X117.19 Y140.21 E0.98657
G1 X117.415 Y139.98 E0.99727
G1 X117.716 Y139.9 E1.00763
G1 X118.884 Y139.907 E1.04648
G1 X119.188 Y140.052 E1.05768
G1 X119.347 Y140.28 E1.06693
G1 X119.505 Y140.684 E1.08136
G1 X120.229 Y140.684 E1.10544
G1 X120.381 Y140.28 E1.11979
G1 X120.54 Y140.052 E1.12904
G1 X120.811 Y139.9 E1.13937
G1 X122.072 Y139.905 E1.18132
G1 X122.22 Y139.944 E1.18641
G1 X122.414 Y140.071 E1.19412
G1 X122.465 Y140.153 E1.19733
G1 X122.677 Y140.056 E1.20508
G1 X122.981 Y139.968 E1.21561
G1 X123.443 Y139.9 E1.23114
G1 X125.309 Y139.902 E1.29321
G1 X125.461 Y139.935 E1.29838
G1 X125.652 Y140.048 E1.30576
G1 X125.754 Y140.163 E1.31087
G1 X125.854 Y140.444 E1.32079
G1 X125.856 Y144.594 E1.45882
G1 X125.786 Y144.783 E1.46553
G1 X125.67 Y144.935 E1.47189
G1 X125.487 Y145.054 E1.47915
G1 X125.329 Y145.1 E1.48462
G1 X123.454 Y145.1 E1.54698
G1 X122.857 Y145.003 E1.5671
G1 X122.433 Y144.799 E1.58275
G1 X122.159 Y144.592 E1.59417
G1 X121.9 Y144.281 E1.60763
G1 X121.741 Y143.876 E1.6221
G1 F977.6 X121.65 Y143.095 E1.6542
G1 F895.5 X121.416 Y143.423 E1.67216
G1 F1025.6 X120.829 Y144.821 E1.73116
G1 F1137.4 X120.678 Y144.976 E1.73876
G1 F1200 X120.511 Y145.067 E1.74508
G1 X120.312 Y145.1 E1.75179
G1 X119.376 Y145.1 E1.78292
G1 X119.158 Y145.06 E1.7903
G1 X118.981 Y144.953 E1.79717
G1 X118.848 Y144.795 E1.80404
G1 X118.126 Y143.051 E1.86682
G1 X117.962 Y143.607 E1.8861
G1 X117.7 Y144.072 E1.90386
G1 X117.5 Y144.302 E1.91399
G0 F6000 X118.163 Y143.622
G0 X119.08 Y144.943
G0 X120.609 Y144.943
G0 X121.65 Y143.095
G1 F821.9 X121.822 Y142.693 E1.93523
G1 F2700 E-3.06477
G0 F6000 X120.609 Y144.943
G0 X119.093 Y145.228
G0 X119.093 Y147.784
G0 X117.5 Y147.984
G1 F2700 E1.93523
G1 F1200 X157.48 Y147.983 E3.26497
G1 X157.951 Y147.965 E3.28064
G1 X158.416 Y147.907 E3.29623
G1 X158.835 Y147.818 E3.31048
G1 X159.274 Y147.687 E3.32571
G1 X159.716 Y147.517 E3.34146
G1 X160.096 Y147.332 E3.35552
G1 X160.51 Y147.082 E3.37161
G1 X160.859 Y146.833 E3.38587
G1 X161.209 Y146.538 E3.40109
G1 X161.538 Y146.209 E3.41657
G1 X161.837 Y145.855 E3.43198
G1 X162.081 Y145.51 E3.44603
G1 X162.331 Y145.098 E3.46206
G1 X162.513 Y144.715 E3.47617
G1 X162.691 Y144.269 E3.49214
G1 X162.817 Y143.833 E3.50723
G1 X162.907 Y143.416 E3.52142
G1 X162.965 Y142.939 E3.5374
G1 X162.983 Y142.48 E3.55268
G1 X162.984 Y92.505 E5.21486
G1 X162.965 Y92.057 E5.22977
G1 X162.907 Y91.584 E5.24562
G1 X162.817 Y91.163 E5.25994
G1 X162.691 Y90.731 E5.27491
G1 X162.514 Y90.281 E5.29099
G1 X162.331 Y89.903 E5.30496
G1 X162.081 Y89.488 E5.32107
G1 X161.836 Y89.139 E5.33525
G1 X161.538 Y88.787 E5.35059
G1 X161.21 Y88.46 E5.366
G1 X160.855 Y88.163 E5.38139
G1 X160.51 Y87.915 E5.39552
G1 X160.098 Y87.669 E5.41148
G1 X159.715 Y87.483 E5.42565
G1 X159.268 Y87.308 E5.44161
G1 X158.834 Y87.178 E5.45668
G1 X158.418 Y87.089 E5.47083
G1 X157.951 Y87.035 E5.48647
G1 X157.477 Y87.012 E5.50225
G1 X77.519 Y87.012 E8.16166
G1 X77.045 Y87.035 E8.17745
G1 X76.578 Y87.089 E8.19308
G1 X76.162 Y87.178 E8.20723
G1 X75.728 Y87.308 E8.2223
G1 X75.282 Y87.482 E8.23822
G1 X74.903 Y87.668 E8.25227
G1 X74.489 Y87.915 E8.2683
G1 X74.139 Y88.164 E8.28259
G1 X73.786 Y88.46 E8.29791
G1 X73.46 Y88.786 E8.31324
G1 X73.164 Y89.139 E8.32856
G1 X72.915 Y89.489 E8.34285
G1 X72.668 Y89.903 E8.35889
G1 X72.483 Y90.281 E8.37288
G1 X72.308 Y90.731 E8.38894
G1 X72.178 Y91.166 E8.40404
G1 X72.089 Y91.584 E8.41826
G1 X72.031 Y92.057 E8.43411
G1 X72.012 Y92.517 E8.44942
G1 X72.013 Y142.491 E10.11156
G1 X72.031 Y142.939 E10.12647
G1 X72.089 Y143.416 E10.14246
G1 X72.178 Y143.831 E10.15657
G1 X72.309 Y144.269 E10.17178
G1 X72.483 Y144.715 E10.1877
G1 X72.669 Y145.098 E10.20186
G1 X72.915 Y145.51 E10.21782
G1 X73.163 Y145.855 E10.23195
G1 X73.46 Y146.21 E10.24735
G1 X73.787 Y146.537 E10.26273
G1 X74.136 Y146.832 E10.27793
G1 X74.489 Y147.081 E10.2923
G1 X74.905 Y147.332 E10.30846
G1 X75.28 Y147.517 E10.32236
G1 X75.726 Y147.687 E10.33824
G1 X76.162 Y147.818 E10.35338
G1 X76.58 Y147.907 E10.3676
G1 X77.045 Y147.965 E10.38318
G1 X77.516 Y147.984 E10.39886
G1 X117.5 Y147.984 E11.72873
G0 F6000 X117.5 Y148.383
;TYPE:WALL-OUTER
G1 F1200 X157.488 Y148.383 E13.05874
G1 X157.983 Y148.364 E13.07521
G1 X158.482 Y148.302 E13.09194
G1 X158.934 Y148.206 E13.10731
G1 X159.403 Y148.066 E13.12359
G1 X159.876 Y147.884 E13.14044
G1 X160.288 Y147.684 E13.15568
G1 X160.73 Y147.416 E13.17287
G1 X161.105 Y147.149 E13.18818
G1 X161.48 Y146.832 E13.20451
G1 X161.832 Y146.48 E13.22107
G1 X162.153 Y146.101 E13.23759
G1 X162.416 Y145.73 E13.25271
G1 X162.683 Y145.288 E13.26989
G1 X162.88 Y144.875 E13.28511
G1 X163.07 Y144.399 E13.30215
G1 X163.205 Y143.931 E13.31835
G1 X163.302 Y143.482 E13.33363
G1 X163.364 Y142.971 E13.35075
G1 X163.383 Y142.488 E13.36683
G1 X163.384 Y92.497 E15.02954
G1 X163.364 Y92.025 E15.04525
G1 X163.302 Y91.518 E15.06224
G1 X163.205 Y91.065 E15.07765
G1 X163.07 Y90.601 E15.09372
G1 X162.88 Y90.121 E15.11089
G1 X162.683 Y89.712 E15.12599
G1 X162.416 Y89.27 E15.14316
G1 X162.153 Y88.895 E15.1584
G1 X161.832 Y88.516 E15.17492
G1 X161.48 Y88.164 E15.19147
G1 X161.101 Y87.847 E15.20791
G1 X160.73 Y87.58 E15.22311
G1 X160.288 Y87.317 E15.24022
G1 X159.875 Y87.116 E15.25549
G1 X159.398 Y86.93 E15.27252
G1 X158.934 Y86.79 E15.28864
G1 X158.483 Y86.694 E15.30398
G1 X157.983 Y86.636 E15.32072
G1 X157.487 Y86.612 E15.33724
G1 X77.509 Y86.612 E17.99732
G1 X77.013 Y86.636 E18.01383
G1 X76.513 Y86.694 E18.03057
G1 X76.062 Y86.79 E18.04591
G1 X75.598 Y86.93 E18.06203
G1 X75.121 Y87.116 E18.07906
G1 X74.712 Y87.316 E18.0942
G1 X74.27 Y87.58 E18.11133
G1 X73.895 Y87.847 E18.12664
G1 X73.516 Y88.164 E18.14307
G1 X73.164 Y88.516 E18.15963
G1 X72.847 Y88.895 E18.17606
G1 X72.58 Y89.27 E18.19137
G1 X72.316 Y89.712 E18.2085
G1 X72.116 Y90.121 E18.22364
G1 X71.93 Y90.601 E18.24076
G1 X71.79 Y91.066 E18.25691
G1 X71.694 Y91.518 E18.27228
G1 X71.632 Y92.025 E18.28927
G1 X71.612 Y92.509 E18.30538
G1 X71.613 Y142.499 E19.96805
G1 X71.632 Y142.971 E19.98377
G1 X71.694 Y143.482 E20.00089
G1 X71.79 Y143.93 E20.01613
G1 X71.93 Y144.399 E20.0324
G1 X72.116 Y144.875 E20.0494
G1 X72.317 Y145.288 E20.06468
G1 X72.58 Y145.73 E20.08179
G1 X72.847 Y146.101 E20.09699
G1 X73.164 Y146.48 E20.11342
G1 X73.516 Y146.832 E20.12998
G1 X73.891 Y147.149 E20.14631
G1 X74.27 Y147.416 E20.16173
G1 X74.713 Y147.684 E20.17895
G1 X75.12 Y147.884 E20.19403
G1 X75.597 Y148.066 E20.21102
G1 X76.062 Y148.206 E20.22717
G1 X76.514 Y148.302 E20.24254
G1 X77.013 Y148.364 E20.25926
G1 X77.508 Y148.384 E20.27574
G1 X117.5 Y148.383 E21.60588
G1 F2700 E16.60588
G0 F6000 X117.501 Y148.076
G0 X119.319 Y147.784
G0 X119.377 Y145.281
G0 X119.319 Y144.7
G1 F2700 E21.60588
G1 F1200 X119.204 Y144.604 E21.61086
G1 X118.272 Y142.363 E21.69158
G1 F1256.5 X117.906 Y141.434 E21.7233
G1 X117.519 Y140.539 E21.75427
G1 F1200 X117.54 Y140.403 E21.75885
G1 X117.641 Y140.3 E21.76365
G1 X118.837 Y140.305 E21.80343
G1 X118.951 Y140.366 E21.80773
G1 X119.233 Y141.084 E21.83338
G1 X120.505 Y141.084 E21.87569
G1 X120.776 Y140.366 E21.90122
G1 X120.891 Y140.305 E21.90555
G1 X122.024 Y140.302 E21.94323
G1 X122.133 Y140.357 E21.94729
G1 F1132.1 X122.2 Y140.494 E21.95267
G1 F1021.3 X122.069 Y140.956 E21.97143
G1 F1036.7 X122.25 Y140.775 E21.98129
G1 F1153.8 X122.521 Y140.573 E21.99298
G1 F1200 X122.757 Y140.453 E22.00179
G1 X123.072 Y140.358 E22.01273
G1 X123.46 Y140.3 E22.02578
G1 X125.308 Y140.306 E22.08724
G1 X125.456 Y140.429 E22.09364
G1 X125.452 Y144.544 E22.23051
G1 X125.394 Y144.645 E22.23438
G1 X125.291 Y144.697 E22.23822
G1 X123.475 Y144.698 E22.29862
G1 X122.979 Y144.617 E22.31534
G1 X122.655 Y144.462 E22.32728
G1 X122.429 Y144.296 E22.33661
G1 X122.248 Y144.073 E22.34616
G1 X122.132 Y143.778 E22.3567
G1 X122.101 Y143.45 E22.36766
G1 X122.128 Y143.203 E22.37593
G1 X122.32 Y142.792 E22.39101
G1 X122.505 Y142.632 E22.39915
G1 X122.359 Y142.547 E22.40477
G1 X122.103 Y142.273 E22.41724
G1 F1126.8 X121.926 Y141.816 E22.4346
G1 F1008.4 X121.919 Y141.32 E22.45423
G1 F1064.3 X121.708 Y141.696 E22.4704
G1 F1200 X120.466 Y144.648 E22.57692
G1 X120.312 Y144.7 E22.58233
G1 X119.319 Y144.7 E22.61536
G1 F2700 E17.61536
G0 F6000 X119.319 Y145.01
G0 X118.163 Y143.622
G0 X117.772 Y143.763
G0 X117.5 Y143.612
G1 F2700 E22.61536
G1 F1200 X117.379 Y143.827 E22.62356
G1 X117.08 Y144.176 E22.63885
G1 X116.704 Y144.461 E22.65454
G1 X116.304 Y144.65 E22.66925
G1 X115.863 Y144.766 E22.68442
G1 X115.377 Y144.808 E22.70064
G1 X114.953 Y144.768 E22.71481
G1 X114.495 Y144.641 E22.73062
G1 X114.116 Y144.456 E22.74464
G1 F1153.8 X113.761 Y144.185 E22.76009
G1 F1081.1 X113.675 Y144.059 E22.76573
G1 F1121.5 X113.64 Y144.559 E22.78356
G1 F1200 X113.529 Y144.7 E22.78953
G1 X112.5 Y144.7 E22.82376
G1 X112.349 Y144.632 E22.82926
G1 X112.3 Y144.503 E22.83385
G1 X112.287 Y143.399 E22.87058
G1 X111.173 Y144.667 E22.92671
G1 X111.087 Y144.697 E22.92974
G1 X110.057 Y144.7 E22.964
G1 X109.95 Y144.623 E22.96839
G1 X109.831 Y144.34 E22.9786
G1 X109.856 Y144.19 E22.98365
G1 X111.296 Y142.649 E23.0538
G1 X109.707 Y140.762 E23.13585
G1 X109.713 Y140.625 E23.14041
G1 X109.885 Y140.33 E23.15177
G1 X109.974 Y140.3 E23.1549
G1 X111.044 Y140.303 E23.19048
G1 X111.16 Y140.373 E23.19499
G1 X112.3 Y141.78 E23.25522
G1 X112.3 Y140.5 E23.29779
G1 X112.344 Y140.373 E23.30226
G1 X112.5 Y140.3 E23.30799
G1 X113.49 Y140.304 E23.34092
G1 X113.571 Y140.341 E23.34388
G1 F1191.1 X113.648 Y140.452 E23.34841
G1 F1173.6 X113.654 Y141.052 E23.36881
G1 X113.723 Y140.902 E23.37443
G1 F1191.1 X114.062 Y140.599 E23.38967
G1 F1200 X114.436 Y140.382 E23.40405
G1 X114.934 Y140.232 E23.42135
G1 X115.429 Y140.192 E23.43786
G1 X115.898 Y140.233 E23.45352
G1 X116.34 Y140.355 E23.46877
G1 X116.755 Y140.565 E23.48424
G1 X117.107 Y140.844 E23.49918
G1 F1218.3 X117.362 Y141.165 E23.51261
G1 F1276.6 X117.569 Y141.573 E23.52692
G1 X117.719 Y142.021 E23.54169
G1 F1218.3 X117.768 Y142.522 E23.55818
G1 F1200 X117.721 Y143.009 E23.57445
G1 X117.579 Y143.471 E23.59053
G1 X117.5 Y143.612 E23.5959
G1 F2700 E18.5959
G0 F6000 X117.772 Y143.763
G0 X117.25 Y144.367
G0 X116.853 Y144.668
G0 X116.407 Y144.883
G0 X115.908 Y145.017
G0 X115.396 Y145.058
G0 X114.895 Y145.013
G0 X114.619 Y144.936
G0 X113.901 Y144.613
G0 X113.674 Y144.02
G1 F2700 E23.5959
G1 F1057.3 X113.675 Y144.059 E23.59737
G0 F6000 X113.665 Y144.038
G1 F1126.8 X113.749 Y143.869 E23.60406
G1 F1142.9 X114.467 Y143.17 E23.63906
G1 F1182.3 X114.619 Y143.174 E23.64419
G1 F1200 X114.914 Y143.436 E23.65731
G1 X115.363 Y143.524 E23.67253
G1 X115.751 Y143.447 E23.68569
G1 X116.042 Y143.24 E23.69756
G1 X116.246 Y142.908 E23.71052
G1 X116.325 Y142.617 E23.72055
G1 X116.288 Y142.158 E23.73587
G1 X116.05 Y141.76 E23.75129
G1 X115.747 Y141.55 E23.76355
G1 X115.483 Y141.468 E23.77275
G1 X115.17 Y141.501 E23.78322
G1 X114.814 Y141.674 E23.79638
G1 X114.6 Y141.872 E23.80608
G1 F1194 X114.448 Y141.88 E23.81117
G1 F1176.5 X113.719 Y141.201 E23.84496
G1 F1162.2 X113.655 Y141.087 E23.84945
G1 F1176.5 X113.648 Y142.905 E23.91113
G1 F1162.2 X113.665 Y144.038 E23.95004
G1 F2700 E18.95004
G0 F6000 X113.901 Y144.613
G0 X113.866 Y143.463
G0 X113.655 Y141.087
G1 F2700 E23.95004
G1 F1159.4 X113.654 Y141.052 E23.95125
G1 F2700 E18.95125
G0 F6000 X113.898 Y140.408
G0 X114.334 Y140.154
G0 X114.871 Y139.988
G0 X115.414 Y139.942
G0 X117.068 Y140.068
G0 X119.089 Y140.057
G0 X119.389 Y140.805
G0 X120.363 Y140.875
G0 X121.919 Y141.32
G1 F2700 E23.95125
G1 F963.9 X122.069 Y140.956 E23.96755
G1 F2700 E18.96755
G0 F6000 X116.072 Y142.322
G0 X115.546 Y142.948
G0 X115.346 Y142.744
;TYPE:SKIN
G1 F2700 E23.96755
G1 F1200 X114.974 Y142.515 E23.98208
G1 X115.287 Y142.28 E23.9951
G1 X115.401 Y142.25 E23.99902
G1 X115.487 Y142.298 E24.00229
G1 X115.553 Y142.535 E24.01048
G1 X115.477 Y142.693 E24.01631
G1 X115.346 Y142.744 E24.02098
G1 F2700 E19.02098
G0 F6000 X115.546 Y142.948
G0 X115.661 Y143.233
G0 X115.661 Y147.784
G0 X117.5 Y147.621
G1 F2700 E24.02098
G1 F1200 X77.529 Y147.624 E25.35042
G1 X77.078 Y147.604 E25.36544
G1 X76.625 Y147.546 E25.38063
G1 X76.253 Y147.469 E25.39326
G1 X75.842 Y147.346 E25.40753
G1 X75.425 Y147.184 E25.42241
G1 X75.064 Y147.008 E25.43577
G1 X74.694 Y146.784 E25.45016
G1 X74.359 Y146.549 E25.46377
G1 X74.02 Y146.26 E25.47858
G1 X73.732 Y145.972 E25.49213
G1 X73.439 Y145.625 E25.50724
G1 X73.224 Y145.322 E25.51959
G1 X72.98 Y144.912 E25.53546
G1 X72.816 Y144.579 E25.54781
G1 X72.646 Y144.139 E25.5635
G1 X72.522 Y143.726 E25.57784
G1 X72.446 Y143.366 E25.59008
G1 X72.388 Y142.895 E25.60586
G1 X72.375 Y142.588 E25.61608
G1 X72.372 Y92.528 E27.28108
G1 X72.388 Y92.093 E27.29556
G1 X72.446 Y91.63 E27.31108
G1 X72.522 Y91.266 E27.32345
G1 X72.65 Y90.849 E27.33796
G1 X72.812 Y90.42 E27.35321
G1 X72.984 Y90.072 E27.36612
G1 X73.216 Y89.682 E27.38121
G1 X73.439 Y89.371 E27.39394
G1 X73.724 Y89.027 E27.4088
G1 X74.027 Y88.724 E27.42305
G1 X74.371 Y88.439 E27.43791
G1 X74.678 Y88.22 E27.45045
G1 X75.08 Y87.98 E27.46602
G1 X75.421 Y87.812 E27.47867
G1 X75.858 Y87.642 E27.49426
