;FLAVOR:Marlin
;TIME:112
;Filament used: 0.0199146m
;Layer height: 0.12
;MINX:115.2
;MINY:115.2
;MINZ:0.2
;MAXX:119.805
;MAXY:119.794
;MAXZ:4.04
;TARGET_MACHINE.NAME:Creality Ender-3
;Generated with Cura_SteamEngine 5.11.0
M140 S60
M105
M190 S60
M104 S200
M105
M109 S200
; Ender 3 Custom Start G-code
G92 E0 ; Reset Extruder
G28 ; Home all axes
G1 Z2.0 F3000 ; Move Z Axis up little to prevent scratching of Heat Bed
G1 X0.1 Y20 Z0.3 F5000.0 ; Move to start position
G1 X0.1 Y200.0 Z0.3 F1500.0 E15 ; Draw the first line
G1 X0.4 Y200.0 Z0.3 F5000.0 ; Move to side a little
G1 X0.4 Y20 Z0.3 F1500.0 E30 ; Draw the second line
G92 E0 ; Reset Extruder
G1 Z2.0 F3000 ; Move Z Axis up little to prevent scratching of Heat Bed
G1 X5 Y20 Z0.3 F5000.0 ; Move over to prevent blob squish
M82 ;absolute extrusion mode
G92 E0
G92 E0
G1 F2700 E-5
;LAYER_COUNT:33
;LAYER:0
;note -- min layer time used
M107
;MESH:LedGuide.stl
G0 F6000 X115.6 Y119.356 Z0.2
;TYPE:WALL-INNER
G1 F2700 E0
G1 F600 X115.974 Y119.289 E0.01264
G1 X116.319 Y119.199 E0.0245
G1 X116.789 Y119.018 E0.04125
G1 X117.242 Y118.791 E0.0581
G1 X117.636 Y118.519 E0.07402
G1 X117.998 Y118.227 E0.08949
G1 X118.281 Y117.927 E0.10321
G1 X118.504 Y117.654 E0.11493
G1 X118.785 Y117.25 E0.1313
G1 X119.074 Y116.675 E0.15271
G1 X119.228 Y116.21 E0.169
G1 X119.292 Y115.962 E0.17752
G1 X119.355 Y115.601 E0.18971
G1 X115.601 Y115.601 E0.31456
G1 X115.6 Y119.356 E0.43946
G0 F6000 X115.2 Y119.794
;TYPE:WALL-OUTER
G1 F600 X115.535 Y119.768 E0.45063
G1 X115.802 Y119.731 E0.4596
G1 X116.188 Y119.654 E0.47269
G1 X116.561 Y119.535 E0.48571
G1 X116.951 Y119.384 E0.49962
G1 X117.32 Y119.2 E0.51333
G1 X117.552 Y119.063 E0.5223
G1 X117.876 Y118.839 E0.5354
G1 X118.195 Y118.581 E0.54904
G1 X118.382 Y118.403 E0.55763
G1 X118.581 Y118.191 E0.5673
G1 X118.824 Y117.895 E0.58004
G1 X119.13 Y117.455 E0.59786
G1 X119.385 Y116.948 E0.61674
G1 X119.484 Y116.71 E0.62531
G1 X119.608 Y116.339 E0.63832
G1 X119.68 Y116.059 E0.64794
G1 X119.73 Y115.802 E0.65665
G1 X119.769 Y115.526 E0.66592
G1 X119.794 Y115.2 E0.67679
G1 X115.201 Y115.201 E0.82956
G1 X115.2 Y119.794 E0.98232
G0 F6000 X115.477 Y119.496
G0 X116.248 Y119.116
G0 X116.188 Y118.86
;TYPE:SKIN
G1 F600 X115.961 Y118.916 E0.9901
G1 X115.96 Y115.96 E1.08841
G1 X118.929 Y115.96 E1.18716
G1 X118.734 Y116.547 E1.20774
G1 X118.483 Y117.049 E1.2264
G1 X118.208 Y117.443 E1.24238
G1 X118.007 Y117.69 E1.25298
G1 X117.693 Y118.007 E1.26782
G1 X117.424 Y118.227 E1.27937
G1 X117.046 Y118.483 E1.29456
G1 X116.647 Y118.685 E1.30943
G1 X116.188 Y118.86 E1.32577
G0 F6000 X116.329 Y118.592
G1 F600 X116.161 Y118.423 E1.3337
G0 F6000 X116.724 Y118.421
G1 F600 X116.161 Y117.858 E1.36018
G0 F6000 X116.16 Y117.291
G1 F600 X117.083 Y118.215 E1.40362
G0 F6000 X117.412 Y117.978
G1 F600 X116.16 Y116.726 E1.46251
G0 F6000 X116.16 Y116.16
G1 F600 X117.709 Y117.709 E1.53537
G0 F6000 X117.977 Y117.411
G1 F600 X116.726 Y116.16 E1.59421
G0 F6000 X117.291 Y116.16
G1 F600 X118.216 Y117.084 E1.6377
G0 F6000 X118.422 Y116.725
G1 F600 X117.857 Y116.16 E1.66427
G0 F6000 X118.423 Y116.16
G1 F600 X118.596 Y116.333 E1.67241
;MESH:NONMESH
G0 F300 X118.596 Y116.333 Z0.32
G0 F6000 X119.032 Y116.478
G0 X118.376 Y117.557
G0 X117.54 Y118.39
G0 X116.879 Y118.78
G0 X115.6 Y119.352
;TIME_ELAPSED:10.414637
;LAYER:1
;note -- min layer time used
M106 S85
;TYPE:WALL-INNER
;MESH:LedGuide.stl
G1 F600 X115.895 Y119.309 E1.67836
G1 X116.42 Y119.167 E1.68921
G1 X116.942 Y118.948 E1.70051
G1 X117.345 Y118.718 E1.70977
G1 X117.624 Y118.528 E1.71651
G1 X117.838 Y118.359 E1.72195
G1 X118.108 Y118.109 E1.72929
G1 X118.425 Y117.771 E1.73854
G1 X118.729 Y117.33 E1.74923
G1 X118.983 Y116.874 E1.75964
G1 X119.105 Y116.58 E1.766
G1 X119.224 Y116.224 E1.77349
G1 X119.288 Y115.98 E1.77852
G1 X119.353 Y115.601 E1.78619
G1 X115.6 Y115.6 E1.86109
G1 X115.6 Y119.352 E1.93596
G0 F10500 X115.2 Y119.793
;TYPE:WALL-OUTER
G1 F600 X115.531 Y119.769 E1.94259
G1 X115.929 Y119.704 E1.95063
G1 X115.94 Y119.711 E1.9509
G1 X116.436 Y119.577 E1.96115
G1 X116.688 Y119.489 E1.96647
G1 X117.119 Y119.308 E1.9758
G1 X117.557 Y119.058 E1.98587
G1 X117.861 Y118.85 E1.99322
G1 X118.098 Y118.663 E1.99924
G1 X118.39 Y118.393 E2.00718
G1 X118.663 Y118.101 E2.01516
G1 X118.826 Y117.893 E2.02043
G1 X119.069 Y117.542 E2.02895
G1 X119.343 Y117.048 E2.04022
G1 X119.48 Y116.721 E2.0473
G1 X119.608 Y116.338 E2.05536
G1 X119.68 Y116.065 E2.06099
G1 X119.769 Y115.543 E2.07156
G1 X119.791 Y115.2 E2.07842
G1 X115.2 Y115.2 E2.17004
G1 X115.2 Y119.793 E2.26169
G0 F10500 X115.477 Y119.496
G0 X115.7 Y118.917
G0 X115.96 Y118.917
;TYPE:SKIN
G1 F600 X115.96 Y115.96 E2.3207
G1 X118.928 Y115.96 E2.37993
G1 X118.764 Y116.453 E2.3903
G1 X118.655 Y116.716 E2.39598
G1 X118.429 Y117.122 E2.40526
G1 X118.135 Y117.55 E2.41562
G1 X117.862 Y117.842 E2.4236
G1 X117.514 Y118.163 E2.43304
G1 X117.153 Y118.41 E2.44177
G1 X116.779 Y118.624 E2.45037
G1 X116.302 Y118.822 E2.46068
G1 X115.96 Y118.917 E2.46776
G0 F10500 X115.7 Y118.917
G0 X115.776 Y119.159
G0 X116.369 Y119.013
G0 X117.26 Y118.582
G0 X117.677 Y118.25
G0 X118.53 Y117.441
G0 X118.148 Y117.177
G1 F600 X117.168 Y118.158 E2.49543
G0 F10500 X117.428 Y118.54
G0 X116.369 Y119.013
G0 X115.776 Y119.159
G0 X115.7 Y118.034
G0 X116.16 Y118.034
G1 F600 X118.034 Y116.16 E2.54832
G0 F10500 X118.599 Y116.16
G1 F600 X116.16 Y118.599 E2.61716
G0 F10500 X115.7 Y118.599
G0 X115.7 Y117.468
G0 X116.16 Y117.468
G1 F600 X117.468 Y116.16 E2.65407
G0 F10500 X116.902 Y116.16
G1 F600 X116.16 Y116.902 E2.67501
G0 F10500 X116.16 Y116.337
G1 F600 X116.337 Y116.16 E2.68001
;MESH:NONMESH
G0 F300 X116.337 Y116.16 Z0.44
G0 F10500 X116.338 Y115.701
G0 X115.772 Y115.772
G0 X115.599 Y119.355
;TIME_ELAPSED:16.794600
;LAYER:2
;note -- min layer time used
M106 S170
;TYPE:WALL-INNER
;MESH:LedGuide.stl
G1 F600 X116.058 Y119.27 E2.68932
G1 X116.405 Y119.167 E2.69655
G1 X116.65 Y119.075 E2.70177
G1 X117.01 Y118.917 E2.70961
G1 X117.332 Y118.727 E2.71708
G1 X117.625 Y118.53 E2.72412
G1 X117.935 Y118.276 E2.73212
G1 X118.182 Y118.044 E2.73888
G1 X118.601 Y117.535 E2.75204
G1 X118.869 Y117.087 E2.76246
G1 X119.008 Y116.808 E2.76868
G1 X119.16 Y116.433 E2.77675
G1 X119.259 Y116.103 E2.78363
G1 X119.315 Y115.855 E2.7887
G1 X119.356 Y115.601 E2.79384
G1 X115.6 Y115.602 E2.86879
G1 X115.599 Y119.355 E2.94369
G0 F15000 X115.2 Y119.793
;TYPE:WALL-OUTER
G1 F600 X115.547 Y119.768 E2.95063
G1 X116.061 Y119.687 E2.96101
G1 X116.532 Y119.546 E2.97082
G1 X116.8 Y119.446 E2.97653
G1 X117.192 Y119.273 E2.98508
G1 X117.545 Y119.066 E2.99325
G1 X117.864 Y118.851 E3.00093
G1 X118.199 Y118.577 E3.00956
G1 X118.474 Y118.319 E3.01709
G1 X118.833 Y117.882 E3.02837
G1 X118.988 Y117.666 E3.03368
G1 X119.22 Y117.279 E3.04268
G1 X119.373 Y116.973 E3.04951
G1 X119.538 Y116.565 E3.05829
G1 X119.646 Y116.205 E3.06579
G1 X119.707 Y115.933 E3.07136
G1 X119.75 Y115.677 E3.07654
G1 X119.805 Y115.201 E3.0861
G1 X115.2 Y115.201 E3.178
G1 X115.2 Y119.793 E3.26964
G0 F15000 X115.477 Y119.496
G0 X115.701 Y118.922
G0 X115.96 Y118.922
;TYPE:SKIN
G1 F600 X115.96 Y115.96 E3.32875
G1 X118.922 Y115.96 E3.38786
G1 X118.821 Y116.299 E3.39491
G1 X118.681 Y116.653 E3.40251
G1 X118.548 Y116.915 E3.40838
G1 X118.307 Y117.32 E3.41778
G1 X117.987 Y117.709 E3.42783
G1 X117.697 Y118.003 E3.43607
G1 X117.409 Y118.238 E3.44349
G1 X117.152 Y118.41 E3.44966
G1 X116.848 Y118.589 E3.4567
G1 X116.39 Y118.792 E3.4667
G1 X115.96 Y118.922 E3.47566
G0 F15000 X116.335 Y118.597
G1 F600 X116.16 Y118.423 E3.48059
G0 F15000 X116.16 Y117.857
G1 F600 X116.727 Y118.424 E3.49659
G0 F15000 X117.083 Y118.215
G1 F600 X116.16 Y117.291 E3.52265
G0 F15000 X116.16 Y116.726
G1 F600 X117.412 Y117.977 E3.55797
G0 F15000 X117.708 Y117.708
G1 F600 X116.16 Y116.16 E3.60166
G0 F15000 X116.726 Y116.16
G1 F600 X117.975 Y117.409 E3.63691
G0 F15000 X118.216 Y117.084
G1 F600 X117.291 Y116.16 E3.663
G0 F15000 X117.857 Y116.16
G1 F600 X118.421 Y116.724 E3.67892
G0 F15000 X118.591 Y116.328
G1 F600 X118.423 Y116.16 E3.68366
;MESH:NONMESH
G0 F300 X118.423 Y116.16 Z0.56
G0 F15000 X118.423 Y115.701
G0 X119.152 Y115.776
G0 X118.862 Y116.742
G0 X118.471 Y117.439
G0 X117.829 Y118.155
G0 X117.105 Y118.655
G0 X115.6 Y119.351
;TIME_ELAPSED:22.865147
;LAYER:3
;note -- min layer time used
M106 S255
;TYPE:WALL-INNER
;MESH:LedGuide.stl
G1 F600 X115.951 Y119.293 E3.69076
G1 X116.349 Y119.187 E3.69898
G1 X116.716 Y119.055 E3.70676
G1 X117.067 Y118.879 E3.7146
G1 X117.435 Y118.667 E3.72308
G1 X117.749 Y118.43 E3.73093
G1 X118.201 Y118.032 E3.74294
G1 X118.65 Y117.464 E3.75739
G1 X118.881 Y117.069 E3.76653
G1 X119.049 Y116.72 E3.77425
G1 X119.205 Y116.283 E3.78351
G1 X119.302 Y115.91 E3.79121
G1 X119.355 Y115.601 E3.79746
G1 X115.601 Y115.601 E3.87238
G1 X115.6 Y119.351 E3.94721
G0 F15000 X115.2 Y119.794
;TYPE:WALL-OUTER
G1 F600 X115.527 Y119.768 E3.95376
G1 X116.022 Y119.688 E3.96377
G1 X116.468 Y119.569 E3.97298
G1 X116.873 Y119.423 E3.98157
G1 X117.257 Y119.231 E3.99014
G1 X117.565 Y119.054 E3.99723
G1 X117.779 Y118.909 E4.00238
G1 X117.999 Y118.743 E4.00788
G1 X118.195 Y118.578 E4.013
G1 X118.403 Y118.386 E4.01865
G1 X118.578 Y118.199 E4.02376
G1 X118.979 Y117.692 E4.03666
G1 X119.235 Y117.257 E4.04673
G1 X119.419 Y116.874 E4.05521
G1 X119.588 Y116.401 E4.06523
G1 X119.692 Y115.996 E4.07358
G1 X119.745 Y115.711 E4.07936
G1 X119.799 Y115.201 E4.0896
G1 X115.201 Y115.201 E4.18135
G1 X115.2 Y119.794 E4.27301
G0 F15000 X115.477 Y119.497
G0 X115.701 Y118.914
G0 X115.96 Y118.915
;TYPE:SKIN
G1 F600 X115.96 Y115.96 E4.33198
G1 X118.913 Y115.96 E4.39091
G1 X118.86 Y116.181 E4.39545
G1 X118.719 Y116.57 E4.40371
G1 X118.559 Y116.905 E4.41111
G1 X118.346 Y117.262 E4.41941
G1 X117.938 Y117.778 E4.43254
G1 X117.526 Y118.143 E4.44352
G1 X117.151 Y118.415 E4.45277
G1 X116.901 Y118.556 E4.45849
G1 X116.573 Y118.723 E4.46584
G1 X116.248 Y118.838 E4.47272
G1 X115.96 Y118.915 E4.47867
G0 F15000 X115.701 Y118.914
G0 X115.776 Y119.158
G0 X116.652 Y118.907
G0 X117.648 Y118.305
G0 X118.586 Y117.374
G0 X118.187 Y117.139
G1 F600 X117.174 Y118.151 E4.50724
G0 F15000 X117.443 Y118.527
G0 X116.3 Y119.034
G0 X115.776 Y119.158
G0 X115.701 Y118.033
G0 X116.16 Y118.034
G1 F600 X118.034 Y116.16 E4.56013
G0 F15000 X118.599 Y116.16
G1 F600 X116.16 Y118.599 E4.62897
G0 F15000 X115.701 Y118.598
G0 X115.701 Y117.467
G0 X116.16 Y117.468
G1 F600 X117.468 Y116.16 E4.66588
G0 F15000 X116.902 Y116.16
G1 F600 X116.16 Y116.902 E4.68682
G0 F15000 X116.16 Y116.337
G1 F600 X116.337 Y116.16 E4.69182
;MESH:NONMESH
G0 F300 X116.337 Y116.16 Z0.68
G0 F15000 X116.337 Y115.7
G0 X115.773 Y115.773
G0 X115.601 Y119.371
;TIME_ELAPSED:29.256673
;LAYER:4
;note -- min layer time used
;TYPE:WALL-INNER
;MESH:LedGuide.stl
G1 F600 X116.222 Y119.226 E4.70454
G1 X116.583 Y119.103 E4.71215
G1 X116.914 Y118.959 E4.71936
G1 X117.232 Y118.789 E4.72655
G1 X117.443 Y118.654 E4.73155
G1 X117.692 Y118.476 E4.73766
G1 X117.929 Y118.278 E4.74382
G1 X118.285 Y117.927 E4.7538
G1 X118.476 Y117.69 E4.75987
G1 X118.73 Y117.342 E4.76847
G1 X119.048 Y116.753 E4.78183
G1 X119.042 Y116.743 E4.78206
G1 X119.193 Y116.329 E4.79086
G1 X119.285 Y116.013 E4.79742
G1 X119.349 Y115.602 E4.80573
G1 X115.601 Y115.601 E4.88052
G1 X115.601 Y119.371 E4.95576
G0 F15000 X115.2 Y119.794
;TYPE:WALL-OUTER
G1 F600 X115.531 Y119.768 E4.96238
G1 X115.906 Y119.711 E4.96995
G1 X116.332 Y119.611 E4.97868
G1 X116.727 Y119.477 E4.98701
G1 X117.088 Y119.319 E4.99487
G1 X117.434 Y119.135 E5.00269
G1 X117.667 Y118.986 E5.00821
G1 X117.937 Y118.793 E5.01483
G1 X118.195 Y118.578 E5.02154
G1 X118.399 Y118.385 E5.02714
G1 X118.585 Y118.191 E5.0325
G1 X118.793 Y117.934 E5.0391
G1 X118.994 Y117.659 E5.0459
G1 X119.135 Y117.435 E5.05118
G1 X119.429 Y116.891 E5.06352
G1 X119.419 Y116.877 E5.06386
G1 X119.573 Y116.453 E5.07287
G1 X119.676 Y116.1 E5.0802
G1 X119.78 Y115.444 E5.09346
G1 X119.79 Y115.201 E5.09831
G1 X115.201 Y115.201 E5.18989
G1 X115.2 Y119.794 E5.28155
G0 F15000 X115.477 Y119.497
G0 X116.016 Y119.172
G0 X115.961 Y118.932
;TYPE:SKIN
G1 F600 X115.96 Y115.96 E5.34086
G1 X118.935 Y115.96 E5.40023
G1 X118.688 Y116.658 E5.415
G1 X118.422 Y117.149 E5.42615
G1 X118.22 Y117.426 E5.43299
G1 X118.011 Y117.69 E5.43971
G1 X117.693 Y118.003 E5.44861
G1 X117.469 Y118.189 E5.45442
G1 X117.133 Y118.429 E5.46266
G1 X116.752 Y118.636 E5.47132
G1 X116.456 Y118.765 E5.47776
G1 X115.961 Y118.932 E5.48819
G0 F15000 X116.336 Y118.599
G1 F600 X116.161 Y118.423 E5.49314
G0 F15000 X116.161 Y117.858
G1 F600 X116.726 Y118.423 E5.50908
G0 F15000 X117.085 Y118.216
G1 F600 X116.16 Y117.291 E5.53519
G0 F15000 X116.16 Y116.726
G1 F600 X117.411 Y117.977 E5.5705
G0 F15000 X117.708 Y117.708
G1 F600 X116.16 Y116.16 E5.61418
G0 F15000 X116.726 Y116.16
G1 F600 X117.978 Y117.412 E5.64952
G0 F15000 X118.22 Y117.088
G1 F600 X117.291 Y116.16 E5.67572
G0 F15000 X117.857 Y116.16
G1 F600 X118.424 Y116.727 E5.69172
G0 F15000 X118.593 Y116.33
G1 F600 X118.423 Y116.16 E5.69652
;MESH:NONMESH
G0 F300 X118.423 Y116.16 Z0.8
G0 F15000 X118.423 Y115.701
G0 X119.168 Y115.777
G0 X118.897 Y116.683
G0 X118.363 Y117.572
G0 X117.594 Y118.349
G0 X116.986 Y118.725
G0 X115.6 Y119.351
;TIME_ELAPSED:35.333781
;LAYER:5
;note -- min layer time used
;TYPE:WALL-INNER
;MESH:LedGuide.stl
G1 F600 X116.004 Y119.286 E5.70469
G1 X116.472 Y119.149 E5.71442
G1 X116.881 Y118.979 E5.72326
G1 X117.339 Y118.721 E5.73375
G1 X117.745 Y118.443 E5.74357
G1 X118.181 Y118.047 E5.75532
G1 X118.504 Y117.661 E5.76537
G1 X118.719 Y117.344 E5.77301
G1 X118.954 Y116.938 E5.78237
G1 X119.146 Y116.477 E5.79234
G1 X119.252 Y116.13 E5.79958
G1 X119.376 Y115.601 E5.81042
G1 X115.6 Y115.6 E5.88577
G1 X115.6 Y119.351 E5.96063
G0 F15000 X115.2 Y119.794
;TYPE:WALL-OUTER
G1 F600 X115.527 Y119.768 E5.96718
G1 X116.092 Y119.676 E5.9786
G1 X116.605 Y119.527 E5.98926
G1 X117.056 Y119.339 E5.99901
G1 X117.55 Y119.061 E6.01032
G1 X117.9 Y118.823 E6.01877
G1 X118.097 Y118.664 E6.02382
G1 X118.402 Y118.386 E6.03206
G1 X118.581 Y118.191 E6.03734
G1 X118.824 Y117.903 E6.04486
G1 X119.058 Y117.557 E6.0532
G1 X119.239 Y117.244 E6.06041
G1 X119.358 Y117.008 E6.06569
G1 X119.469 Y116.746 E6.07136
G1 X119.558 Y116.5 E6.07658
G1 X119.638 Y116.235 E6.08211
G1 X119.741 Y115.803 E6.09097
G1 X119.8 Y115.2 E6.10306
G1 X115.2 Y115.2 E6.19486
G1 X115.2 Y119.794 E6.28654
G0 F15000 X115.477 Y119.497
G0 X115.7 Y118.921
G0 X115.96 Y118.921
;TYPE:SKIN
G1 F600 X115.961 Y115.961 E6.34561
G1 X118.92 Y115.96 E6.40466
G1 X118.871 Y116.157 E6.40871
G1 X118.634 Y116.769 E6.42181
G1 X118.414 Y117.153 E6.43064
G1 X118.22 Y117.434 E6.43745
G1 X117.919 Y117.797 E6.44686
G1 X117.512 Y118.166 E6.45783
G1 X117.158 Y118.406 E6.46636
G1 X116.712 Y118.659 E6.47659
G1 X116.35 Y118.806 E6.48439
G1 X115.96 Y118.921 E6.49251
G0 F15000 X115.7 Y118.921
G0 X115.777 Y119.169
G0 X116.81 Y118.834
G0 X117.554 Y118.375
G0 X118.548 Y117.417
G0 X118.168 Y117.157
G1 F600 X117.168 Y118.158 E6.52074
G0 F15000 X117.427 Y118.54
G0 X116.418 Y118.997
G0 X115.777 Y119.169
G0 X115.7 Y118.033
G0 X116.161 Y118.033
G1 F600 X118.033 Y116.161 E6.57357
G0 F15000 X118.599 Y116.161
G1 F600 X116.161 Y118.599 E6.64238
G0 F15000 X115.7 Y118.599
G0 X115.7 Y117.467
G0 X116.161 Y117.467
G1 F600 X117.467 Y116.161 E6.67924
G0 F15000 X116.902 Y116.161
G1 F600 X116.161 Y116.902 E6.70015
G0 F15000 X116.161 Y116.336
G1 F600 X116.336 Y116.161 E6.70509
;MESH:NONMESH
G0 F300 X116.336 Y116.161 Z0.92
G0 F15000 X116.337 Y115.701
G0 X115.772 Y115.772
G0 X115.777 Y119.169
G0 X115.867 Y119.313
;TIME_ELAPSED:41.726244
;LAYER:6
;note -- min layer time used
;TYPE:WALL-INNER
;MESH:LedGuide.stl
G1 F600 X116.349 Y119.188 E6.71503
G1 X116.801 Y119.014 E6.72469
G1 X117.243 Y118.79 E6.73458
G1 X117.751 Y118.439 E6.7469
G1 X118.183 Y118.038 E6.75866
G1 X118.432 Y117.751 E6.76625
G1 X118.717 Y117.35 E6.77606
G1 X118.955 Y116.925 E6.78579
G1 X119.191 Y116.35 E6.79819
G1 X119.304 Y115.9 E6.80745
G1 X119.354 Y115.601 E6.8135
G1 X115.601 Y115.601 E6.88839
G1 X115.599 Y119.353 E6.96327
G1 X115.867 Y119.313 E6.96868
G0 F15000 X115.2 Y119.794
;TYPE:WALL-OUTER
G1 F600 X115.526 Y119.769 E6.9752
G1 X115.934 Y119.707 E6.98344
G1 X116.471 Y119.569 E6.9945
G1 X116.888 Y119.419 E7.00334
