;FLAVOR:Marlin
;TIME:6174
;Filament used: 4.39021m
;Layer height: 0.12
;MINX:70.9
;MINY:83.701
;MINZ:0.2
;MAXX:164.1
;MAXY:149.1
;MAXZ:8
;TARGET_MACHINE.NAME:Creality Ender-3
;Generated with Cura_SteamEngine 5.11.0
M140 S60
M105
M190 S60
M104 S200
M105
M109 S200
; Ender 3 Custom Start G-code
G92 E0 ; Reset Extruder
G28 ; Home all axes
G1 Z2.0 F3000 ; Move Z Axis up little to prevent scratching of Heat Bed
G1 X0.1 Y20 Z0.3 F5000.0 ; Move to start position
G1 X0.1 Y200.0 Z0.3 F1500.0 E15 ; Draw the first line
G1 X0.4 Y200.0 Z0.3 F5000.0 ; Move to side a little
G1 X0.4 Y20 Z0.3 F1500.0 E30 ; Draw the second line
G92 E0 ; Reset Extruder
G1 Z2.0 F3000 ; Move Z Axis up little to prevent scratching of Heat Bed
G1 X5 Y20 Z0.3 F5000.0 ; Move over to prevent blob squish
M82 ;absolute extrusion mode
G92 E0
G92 E0
G1 F2700 E-5
;LAYER_COUNT:66
;LAYER:0
M107
G0 F6000 X92.792 Y84.9 Z0.2
;TYPE:SKIRT
G1 F2700 E0
G1 F1200 X98.208 Y84.9 E0.18014
G1 X98.208 Y85.272 E0.19251
G1 X92.792 Y85.272 E0.37265
G1 X92.792 Y84.9 E0.38502
G1 F2700 E-4.61498
G0 F6000 X113.633 Y84.873
G1 F2700 E0.38502
G1 F1200 X113.668 Y84.861 E0.38625
G1 X113.74 Y84.759 E0.3904
G1 X113.825 Y84.485 E0.39994
G1 X113.83 Y84.468 E0.40053
G1 X113.858 Y84.336 E0.40502
G1 X114.276 Y83.912 E0.42482
G1 X114.679 Y83.727 E0.43957
G1 X114.799 Y83.701 E0.44366
G1 X120.157 Y83.706 E0.62187
G1 X120.475 Y83.777 E0.6327
G1 X120.728 Y83.916 E0.6423
G1 X121.102 Y84.313 E0.66044
G1 X121.177 Y84.491 E0.66687
G1 X121.262 Y84.76 E0.67625
G1 X121.335 Y84.862 E0.68042
G1 X121.372 Y84.874 E0.68172
G1 X121.367 Y85.273 E0.69499
G1 X113.638 Y85.272 E0.95206
G1 X113.633 Y84.873 E0.96533
G0 F6000 X114.124 Y84.872
G1 F1200 X114.207 Y84.604 E0.97466
G1 X114.221 Y84.552 E0.97645
G1 X114.225 Y84.534 E0.97706
G1 X114.511 Y84.244 E0.99061
G1 X114.804 Y84.109 E1.00134
G1 X114.843 Y84.101 E1.00267
G1 X120.111 Y84.106 E1.17788
G1 X120.332 Y84.155 E1.18541
G1 X120.48 Y84.237 E1.19104
G1 X120.761 Y84.535 E1.20466
G1 X120.803 Y84.635 E1.20827
G1 X120.878 Y84.873 E1.21657
G1 X114.124 Y84.872 E1.44121
G1 F2700 E-3.55879
G0 F6000 X136.792 Y84.9
G1 F2700 E1.44121
G1 F1200 X142.208 Y84.9 E1.62134
G1 X142.208 Y85.273 E1.63375
G1 X136.792 Y85.273 E1.81389
G1 X136.792 Y84.9 E1.82629
G1 F2700 E-3.17371
G0 F6000 X119.178 Y111.686
G1 F2700 E1.82629
G1 F1200 X118.963 Y112.318 E1.84849
G1 X117.54 Y112.318 E1.89582
G1 X117.54 Y111.686 E1.91684
G1 X119.178 Y111.686 E1.97132
G1 F2700 E-3.02868
G0 F6000 X117.775 Y124.049
G1 F2700 E1.97132
G1 F1200 X117.935 Y124.321 E1.98182
G1 X118.093 Y124.645 E1.99381
G1 X118.261 Y125.14 E2.0112
G1 X118.315 Y125.383 E2.01948
G1 X118.358 Y125.652 E2.02854
G1 X118.386 Y126.194 E2.04659
G1 X118.364 Y126.642 E2.06151
G1 X118.337 Y126.927 E2.07103
G1 X118.263 Y127.262 E2.08244
G1 X118.093 Y127.767 E2.10016
G1 X117.936 Y128.078 E2.11175
G1 X117.757 Y128.375 E2.12328
G1 X117.644 Y128.513 E2.12921
G1 X117.417 Y128.362 E2.13828
G1 X117.628 Y127.966 E2.15321
G1 X117.634 Y127.952 E2.15371
G1 X117.768 Y127.645 E2.16485
G1 X117.776 Y127.624 E2.1656
G1 X117.876 Y127.301 E2.17685
G1 X117.88 Y127.288 E2.1773
G1 X117.965 Y126.93 E2.18954
G1 X117.969 Y126.906 E2.19035
G1 X118.006 Y126.564 E2.20179
G1 X118.007 Y126.551 E2.20222
G1 X118.023 Y126.203 E2.21381
G1 X118.023 Y126.185 E2.21441
G1 X118.007 Y125.834 E2.22609
G1 X118.006 Y125.821 E2.22653
G1 X117.967 Y125.467 E2.23837
G1 X117.963 Y125.444 E2.23915
G1 X117.884 Y125.098 E2.25095
G1 X117.881 Y125.086 E2.25136
G1 X117.781 Y124.751 E2.26299
G1 X117.772 Y124.728 E2.26381
G1 X117.631 Y124.407 E2.27547
G1 X117.626 Y124.395 E2.27591
G1 X117.52 Y124.189 E2.28361
G1 X117.775 Y124.049 E2.29329
G1 F2700 E-2.70671
;MESH:Bottom.stl
G0 F6000 X126.079 Y127.722
G0 X126.769 Y128.319
;TYPE:WALL-INNER
G1 F2700 E2.29329
G1 F1200 X127.508 Y128.324 E2.31787
G1 X127.508 Y127.404 E2.34847
G1 X126.956 Y127.415 E2.36683
G1 X126.554 Y127.49 E2.38043
G1 X126.279 Y127.669 E2.39135
G1 X126.232 Y127.896 E2.39906
G1 X126.275 Y128.104 E2.40612
G1 X126.388 Y128.204 E2.41114
G1 X126.769 Y128.319 E2.42438
G0 F6000 X126.912 Y128.72
;TYPE:WALL-OUTER
G1 F1200 X127.908 Y128.726 E2.4575
G1 X127.908 Y127.004 E2.51478
G1 X127.191 Y127.004 E2.53862
G1 X126.922 Y127.016 E2.54758
G1 X126.507 Y127.071 E2.5615
G1 X126.1 Y127.26 E2.57643
G1 X125.928 Y127.466 E2.58536
G1 X125.853 Y127.67 E2.59258
G1 X125.853 Y128.12 E2.60755
G1 X125.927 Y128.312 E2.6144
G1 X126.196 Y128.558 E2.62652
G1 X126.495 Y128.676 E2.63721
G1 X126.912 Y128.72 E2.65116
G0 F6000 X127.098 Y127.865
;TYPE:SKIN
G1 F813.6 X127.062 Y127.928 E2.65472
G1 X126.989 Y127.928 E2.6583
G1 X126.952 Y127.865 E2.66188
G1 X126.988 Y127.802 E2.66544
G1 X127.061 Y127.802 E2.66902
G1 X127.098 Y127.865 E2.67261
G1 F2700 E-2.32739
G0 F6000 X126.79 Y127.546
G0 X127.335 Y127.576
G0 X127.684 Y128.502
G0 X128.773 Y128.502
G0 X129.617 Y128.502
G0 X130.973 Y129.685
;TYPE:WALL-INNER
G1 F2700 E2.67261
G1 F819.1 X130.973 Y129.923 E2.6842
G0 F6000 X130.973 Y129.685
G1 F973.6 X131.22 Y129.392 E2.69991
G1 F1200 X132.603 Y127.927 E2.76692
G1 X132.809 Y127.785 E2.77524
G1 X133.024 Y127.74 E2.78255
G1 F1188.1 X133.257 Y127.776 E2.79047
G1 F1132.1 X133.476 Y127.898 E2.79931
G1 F1000 X133.772 Y128.135 E2.81444
G1 F902.3 X134.064 Y128.289 E2.82905
G1 F875.9 X134.361 Y128.397 E2.84345
G1 F874.3 X134.665 Y128.438 E2.85745
G1 X134.997 Y128.41 E2.87266
G1 X135.194 Y128.287 E2.88326
G1 X135.212 Y128.172 E2.88857
G1 X135.12 Y128.101 E2.89388
G1 X134.795 Y127.964 E2.90998
G1 F875.9 X134.268 Y127.784 E2.93535
G1 F902.3 X134.013 Y127.683 E2.94749
G1 F1034.5 X133.53 Y127.45 E2.96818
G1 F1182.3 X133.058 Y127.261 E2.98534
G1 F1200 X132.775 Y127.121 E2.99584
G1 X132.364 Y126.87 E3.01186
G1 X132.043 Y126.593 E3.02596
G1 X131.812 Y126.355 E3.03699
G1 X131.502 Y125.96 E3.05369
G1 F1197 X131.291 Y125.49 E3.07087
G1 F864.9 X131.033 Y125.162 E3.09013
G1 X130.882 Y125.554 E3.10952
G1 F1197 X130.88 Y129.257 E3.23299
G1 F973.6 X130.973 Y129.685 E3.25094
G0 F6000 X131.033 Y125.162
G1 F701.8 X131.01 Y124.854 E3.26851
G1 F740.7 X130.998 Y124.452 E3.29018
G1 F739.6 X131.011 Y124 E3.31458
G1 F700.7 X131.033 Y123.665 E3.3337
G0 F6000 X131.445 Y125.468
G0 X131.762 Y126.049
G0 X132.386 Y126.693
G0 X135.009 Y128.636
G0 X133.028 Y127.72
G0 X131.012 Y129.849
G0 X132.089 Y130.681
G0 X133.316 Y131.181
G0 X134.167 Y131.334
G0 X135.297 Y131.315
G0 X136.301 Y131.083
G0 X137.239 Y130.619
G0 X137.763 Y130.16
G0 X138.1 Y129.697
G0 X138.964 Y128.008
G0 X138.791 Y128.507
G1 F776.7 X139.139 Y128.197 E3.35765
G1 F912.5 X139.676 Y128.214 E3.38115
G1 F1081.1 X142.79 Y128.214 E3.49611
G1 X142.79 Y127.77 E3.51251
G1 F1071.4 X139.574 Y127.77 E3.63231
G1 F923.1 X139.249 Y127.696 E3.64672
G1 F928.4 X139.087 Y127.35 E3.66314
G1 F1066.7 X139.049 Y127.148 E3.67083
G1 F1124.1 X139.076 Y126.746 E3.68514
G1 F1200 X139.076 Y125.319 E3.7326
G1 F1103.4 X139.187 Y125.028 E3.74387
G1 F948.6 X139.56 Y124.743 E3.76362
G1 F892.2 X142.745 Y124.737 E3.9061
G1 F898.9 X142.745 Y124.203 E3.92981
G1 F892.2 X139.514 Y124.206 E4.07435
G1 F948.6 X139.099 Y124.133 E4.09208
G1 F1103.4 X138.915 Y124.048 E4.09941
G1 F1200 X138.618 Y123.518 E4.11961
G1 X137.536 Y124.617 E4.17091
G1 X137.356 Y124.743 E4.17822
G1 F1159.4 X137.014 Y124.829 E4.19036
G1 F1076.2 X136.705 Y124.686 E4.20298
G1 F1066.7 X136.4 Y124.321 E4.22078
G1 F1153.8 X135.973 Y124.049 E4.23829
G1 F1200 X135.574 Y123.9 E4.25246
G1 X135.178 Y123.848 E4.26574
G1 X134.772 Y123.89 E4.27932
G1 X134.566 Y124.032 E4.28764
G1 X134.521 Y124.201 E4.29346
G1 X134.54 Y124.306 E4.29701
G1 X134.643 Y124.415 E4.30199
G1 X134.981 Y124.601 E4.31483
G1 F1191.1 X136.143 Y124.998 E4.35597
G1 F1100.9 X136.469 Y125.079 E4.36815
G1 F1052.6 X136.877 Y125.26 E4.38508
G1 F1132.1 X137.384 Y125.575 E4.40612
G1 F1200 X137.782 Y125.872 E4.42264
G1 X138.16 Y126.312 E4.44193
G1 X138.411 Y126.741 E4.45846
G1 F1124.1 X138.602 Y127.202 E4.47618
G1 F919.5 X138.774 Y127.936 E4.5089
G1 F789.5 X138.791 Y128.507 E4.53778
G0 F6000 X138.964 Y128.008
G0 X137.98 Y129.887
G0 X137.511 Y130.401
G0 X136.936 Y130.802
G0 X136.158 Y131.109
G0 X134.596 Y131.508
G1 F1200 X134.145 Y131.48 E4.55281
G1 X133.668 Y131.419 E4.5688
G1 X133.28 Y131.324 E4.58209
G1 X132.851 Y131.195 E4.59699
G1 X132.409 Y131.012 E4.6129
G1 X131.984 Y130.794 E4.62879
G1 X131.74 Y130.638 E4.63842
G1 X131.28 Y130.272 E4.65797
G1 F973.6 X130.973 Y129.923 E4.67703
G1 X130.88 Y130.463 E4.69949
G1 F1200 X130.854 Y130.857 E4.71262
G1 X130.769 Y131.029 E4.719
G1 X130.53 Y131.226 E4.7293
G1 X130.326 Y131.279 E4.73631
G1 X126.966 Y131.28 E4.84807
G1 X126.573 Y131.27 E4.86114
G1 X126.205 Y131.238 E4.87343
G1 X125.821 Y131.181 E4.88634
G1 X125.457 Y131.109 E4.89868
G1 X125.102 Y131.015 E4.9109
G1 X124.755 Y130.889 E4.92318
G1 X124.428 Y130.724 E4.93536
G1 X124.158 Y130.562 E4.94583
G1 X123.883 Y130.351 E4.95736
G1 X123.609 Y130.09 E4.96994
G1 X123.389 Y129.798 E4.9821
G1 X123.194 Y129.468 E4.99485
G1 X123.04 Y129.088 E5.00849
G1 X122.935 Y128.739 E5.02061
G1 X122.868 Y128.27 E5.03637
G1 X122.856 Y127.88 E5.04935
G1 X122.872 Y127.532 E5.06093
G1 X122.951 Y126.933 E5.08103
G1 X123.219 Y126.284 E5.10438
G1 X123.421 Y125.97 E5.1168
G1 X123.637 Y125.696 E5.12841
G1 X123.926 Y125.426 E5.14156
G1 X124.192 Y125.215 E5.15285
G1 X124.541 Y125.012 E5.16628
G1 X124.885 Y124.849 E5.17894
G1 X125.216 Y124.734 E5.1906
G1 X125.559 Y124.639 E5.20244
G1 X125.931 Y124.566 E5.21504
G1 X126.301 Y124.513 E5.22748
G1 X126.659 Y124.488 E5.23941
G1 X127.032 Y124.476 E5.25182
G1 X127.508 Y124.476 E5.26766
G1 X127.512 Y121.603 E5.36321
G1 X127.564 Y121.424 E5.36941
G1 X127.671 Y121.267 E5.37573
G1 X127.829 Y121.148 E5.38231
G1 X128.068 Y121.081 E5.39057
G1 X130.354 Y121.08 E5.4666
G1 X130.53 Y121.134 E5.47272
G1 X130.719 Y121.269 E5.48045
G1 X130.819 Y121.414 E5.48631
G1 X130.881 Y121.68 E5.49539
G1 X130.881 Y123.183 E5.54538
G1 F1006.3 X131.025 Y123.677 E5.56579
G1 X131.309 Y123.246 E5.58626
G1 F1200 X131.461 Y122.845 E5.60052
G1 X131.673 Y122.494 E5.61416
G1 X131.9 Y122.183 E5.62697
G1 X132.107 Y121.963 E5.63702
G1 X132.376 Y121.724 E5.64898
G1 X132.726 Y121.488 E5.66302
G1 X133.04 Y121.308 E5.67506
G1 X133.366 Y121.171 E5.68682
G1 X133.715 Y121.05 E5.69911
G1 X134.08 Y120.965 E5.71157
G1 X134.432 Y120.901 E5.72347
G1 X134.813 Y120.864 E5.73621
G1 X135.145 Y120.852 E5.74725
G1 X135.711 Y120.884 E5.76611
G1 X136.252 Y120.951 E5.78424
G1 X136.718 Y121.059 E5.80015
G1 X137.275 Y121.234 E5.81957
G1 X137.73 Y121.438 E5.83615
G1 X138.191 Y121.698 E5.85376
G1 X138.628 Y122.031 E5.87203
G1 X138.628 Y121.68 E5.88371
G1 X138.67 Y121.457 E5.89125
G1 X138.789 Y121.27 E5.89863
G1 X138.935 Y121.156 E5.90479
G1 X139.133 Y121.082 E5.91182
G1 X145.554 Y121.081 E6.12538
G1 X145.811 Y121.161 E6.13433
G1 X146.053 Y121.427 E6.14629
G1 X146.109 Y121.605 E6.1525
G1 X146.106 Y130.735 E6.45617
G1 X146.05 Y130.939 E6.4632
G1 X145.938 Y131.1 E6.46972
G1 X145.725 Y131.24 E6.4782
G1 X145.564 Y131.278 E6.4837
G1 X139.405 Y131.278 E6.68855
G1 X139.142 Y131.19 E6.69778
G1 X138.95 Y130.997 E6.70683
G1 X138.86 Y130.792 E6.71428
G1 X138.86 Y129.304 E6.76377
G1 F912.5 X138.734 Y128.862 E6.78387
G1 X138.489 Y129.248 E6.80387
G1 F1200 X138.329 Y129.618 E6.81728
G1 X138.092 Y129.988 E6.83189
G1 X137.844 Y130.289 E6.84486
G1 X137.585 Y130.535 E6.85674
G1 X137.295 Y130.759 E6.86893
G1 X136.992 Y130.944 E6.88074
G1 X136.651 Y131.112 E6.89338
G1 X136.341 Y131.225 E6.90436
G1 X135.996 Y131.332 E6.91637
G1 X135.66 Y131.403 E6.92779
G1 X135.296 Y131.466 E6.94008
G1 X134.943 Y131.496 E6.95186
G1 X134.596 Y131.508 E6.96341
G0 F6000 X136.301 Y131.083
G0 X137.239 Y130.619
G0 X137.763 Y130.16
G0 X138.1 Y129.697
G0 X138.964 Y128.008
G0 X138.734 Y128.862
G1 F728.4 X138.792 Y128.535 E6.98161
G1 F2700 E1.98161
G0 F6000 X138.964 Y128.008
G0 X137.98 Y129.887
G0 X137.511 Y130.401
G0 X136.936 Y130.802
G0 X135.976 Y131.181
G0 X134.951 Y131.346
G0 X133.737 Y131.281
G0 X132.487 Y130.883
G0 X131.804 Y130.5
G0 X131.012 Y129.849
G0 X133.028 Y127.72
G0 X135.39 Y128.419
G0 X132.386 Y126.693
G0 X131.762 Y126.049
G0 X131.445 Y125.468
G0 X130.727 Y123.155
G0 X130.72 Y121.244
G0 X127.466 Y121.234
G0 X119.714 Y114.097
G0 X116.5 Y113.915
G1 F2700 E6.98161
G1 F1200 X116.187 Y113.802 E6.99268
G1 X116.044 Y113.548 E7.00237
G1 X115.901 Y113.802 E7.01207
G1 X115.614 Y113.913 E7.0223
G1 X108.183 Y113.916 E7.26946
G1 X107.951 Y113.814 E7.27789
G1 X107.824 Y113.697 E7.28363
G1 X107.689 Y113.442 E7.29323
G1 X107.691 Y111.393 E7.36138
G1 X107.737 Y111.22 E7.36733
G1 X107.892 Y111.008 E7.37606
G1 X108.171 Y110.86 E7.38657
G1 X110.232 Y110.86 E7.45512
G1 X110.235 Y104.251 E7.67493
G1 X110.33 Y103.986 E7.6843
G1 X110.488 Y103.823 E7.69185
G1 X110.778 Y103.718 E7.70211
G1 X113.063 Y103.718 E7.7781
G1 X113.262 Y103.773 E7.78497
G1 X113.463 Y103.929 E7.79343
G1 X113.557 Y104.083 E7.79943
G1 X113.604 Y104.316 E7.80734
G1 X113.604 Y110.86 E8.02499
G1 X115.548 Y110.86 E8.08965
G1 X115.94 Y111.252 E8.10809
G1 X115.94 Y104.316 E8.33878
G1 X115.987 Y104.083 E8.34669
G1 X116.081 Y103.929 E8.35269
G1 X116.282 Y103.773 E8.36115
G1 X116.481 Y103.718 E8.36802
G1 X118.752 Y103.722 E8.44355
G1 X118.98 Y103.807 E8.45165
G1 X119.089 Y103.896 E8.45633
G1 X119.224 Y104.108 E8.46469
G1 X119.262 Y104.321 E8.47188
G1 X119.237 Y107.339 E8.57227
G1 X120.424 Y104.108 E8.68675
G1 X120.559 Y103.896 E8.69511
G1 X120.668 Y103.807 E8.69979
G1 X120.91 Y103.72 E8.70834
G1 X122.601 Y103.722 E8.76459
G1 X122.756 Y103.767 E8.76996
G1 X122.939 Y103.893 E8.77735
G1 X123.078 Y104.114 E8.78603
G1 X124.199 Y107.261 E8.89714
G1 X124.176 Y104.321 E8.99493
G1 X124.21 Y104.114 E9.00191
G1 X124.349 Y103.893 E9.01059
G1 X124.46 Y103.805 E9.0153
G1 X124.701 Y103.72 E9.0238
G1 X126.878 Y103.718 E9.09621
G1 X127.032 Y103.752 E9.10145
G1 X127.271 Y103.914 E9.11106
G1 X127.364 Y104.052 E9.11659
G1 X127.421 Y104.247 E9.12335
G1 X127.424 Y113.349 E9.42608
G1 X127.354 Y113.599 E9.43472
G1 X127.248 Y113.741 E9.44061
G1 X127.097 Y113.851 E9.44682
G1 X126.886 Y113.917 E9.45418
G1 X123.679 Y113.914 E9.56084
G1 X123.393 Y113.812 E9.57094
G1 X123.206 Y113.63 E9.57962
G1 X121.673 Y109.3 E9.7324
G1 X120.242 Y113.517 E9.88051
G1 X120.081 Y113.76 E9.89021
G1 X119.924 Y113.863 E9.89645
G1 X119.735 Y113.914 E9.90296
G1 X116.5 Y113.915 E10.01056
G1 F2700 E5.01056
G0 F6000 X115.594 Y114.096
G0 X110.627 Y123.106
G0 X110.809 Y129.078
G1 F2700 E10.01056
G1 F1200 X112.187 Y127.699 E10.0754
G1 X112.467 Y127.541 E10.08609
G1 X112.81 Y127.557 E10.09751
G1 X113.023 Y127.685 E10.10578
G1 X113.292 Y127.992 E10.11935
G1 X113.65 Y128.197 E10.13307
G1 X113.955 Y128.301 E10.14379
G1 X114.364 Y128.357 E10.15752
G1 X114.904 Y128.306 E10.17556
G1 X115.311 Y128.16 E10.18994
G1 X115.637 Y127.96 E10.20267
G1 X115.855 Y127.754 E10.21264
G1 X116.061 Y127.503 E10.22344
G1 X116.243 Y127.156 E10.23647
G1 X116.38 Y126.716 E10.2518
G1 X116.419 Y126.191 E10.26931
G1 X116.376 Y125.642 E10.28763
G1 X116.249 Y125.225 E10.30213
G1 X116.06 Y124.849 E10.31612
G1 X115.875 Y124.616 E10.32602
G1 X115.586 Y124.373 E10.33858
G1 X115.255 Y124.191 E10.35114
G1 X114.877 Y124.075 E10.36429
G1 X114.465 Y124.037 E10.37805
G1 X114.025 Y124.079 E10.39275
G1 X113.604 Y124.23 E10.40763
G1 X113.245 Y124.471 E10.42201
G1 X112.983 Y124.779 E10.43546
G1 X112.774 Y124.913 E10.44372
G1 X112.431 Y124.939 E10.45516
G1 X112.148 Y124.789 E10.46581
G1 X110.807 Y123.525 E10.5271
G1 X110.809 Y129.078 E10.7118
G1 F2700 E5.7118
G0 F6000 X112.632 Y127.508
G0 X112.617 Y129.049
G0 X113.154 Y129.363
G0 X113.924 Y129.554
G0 X116.194 Y129.97
G0 X117.5 Y130.74
G1 F2700 E10.7118
G1 F1200 X117.096 Y130.955 E10.72702
G1 X116.664 Y131.143 E10.74269
G1 X116.093 Y131.317 E10.76254
G1 X115.58 Y131.436 E10.78006
G1 X115.029 Y131.5 E10.79851
G1 X114.457 Y131.523 E10.81755
G1 X113.8 Y131.481 E10.83944
G1 X113.184 Y131.369 E10.86027
G1 X112.461 Y131.156 E10.88534
G1 X111.936 Y130.93 E10.90435
G1 X111.496 Y130.693 E10.92097
G1 X111.06 Y130.353 E10.93936
G1 X110.809 Y130.117 E10.95082
G1 X110.808 Y131.424 E10.99429
G1 X110.708 Y131.625 E11.00176
G1 X110.553 Y131.784 E11.00914
G1 X110.273 Y131.889 E11.01909
G1 X108.04 Y131.89 E11.09336
G1 X107.806 Y131.816 E11.10152
G1 X107.575 Y131.584 E11.11241
