;FLAVOR:Marlin
;TIME:4746
;Filament used: 3.20651m
;Layer height: 0.12
;MINX:70.689
;MINY:85.903
;MINZ:0.2
;MAXX:164.427
;MAXY:149.451
;MAXZ:1.64
;TARGET_MACHINE.NAME:Creality Ender-3
;POSTPROCESSED
;  [PauseAtHeight]
;Generated with Cura_SteamEngine 5.11.0
M140 S60
M105
M190 S60
M104 S200
M105
M109 S200
; Ender 3 Custom Start G-code
G92 E0 ; Reset Extruder
G28 ; Home all axes
G1 Z2.0 F3000 ; Move Z Axis up little to prevent scratching of Heat Bed
G1 X0.1 Y20 Z0.3 F5000.0 ; Move to start position
G1 X0.1 Y200.0 Z0.3 F1500.0 E15 ; Draw the first line
G1 X0.4 Y200.0 Z0.3 F5000.0 ; Move to side a little
G1 X0.4 Y20 Z0.3 F1500.0 E30 ; Draw the second line
G92 E0 ; Reset Extruder
G1 Z2.0 F3000 ; Move Z Axis up little to prevent scratching of Heat Bed
G1 X5 Y20 Z0.3 F5000.0 ; Move over to prevent blob squish
M82 ;absolute extrusion mode
G92 E0
G92 E0
G1 F2700 E-5
;LAYER_COUNT:13
;LAYER:0
M107
;MESH:Wall Mount.stl
G0 F6000 X117.954 Y93.112 Z0.2
;TYPE:WALL-INNER
G1 F2700 E0
G1 F1200 X118.18 Y93.112 E0.00752
G1 X118.417 Y93.01 E0.0161
G1 X118.567 Y92.768 E0.02557
G1 X118.61 Y92.593 E0.03156
G1 X118.562 Y92.248 E0.04315
G1 X118.439 Y92.039 E0.05121
G1 X118.207 Y91.892 E0.06035
G1 X117.923 Y91.892 E0.06979
G1 X117.693 Y92.037 E0.07884
G1 X117.563 Y92.25 E0.08714
G1 X117.514 Y92.589 E0.09853
G1 X117.604 Y92.861 E0.10806
G1 X117.761 Y93.029 E0.11571
G1 X117.954 Y93.112 E0.12269
G0 F6000 X117.873 Y93.512
;TYPE:WALL-OUTER
G1 F1200 X118.262 Y93.512 E0.13563
G1 X118.615 Y93.36 E0.14841
G1 X118.737 Y93.253 E0.15381
G1 X118.941 Y92.925 E0.16666
G1 X119.014 Y92.627 E0.17686
G1 X118.979 Y92.168 E0.19217
G1 X118.741 Y91.763 E0.2078
G1 X118.437 Y91.546 E0.22022
G1 X118.269 Y91.492 E0.22609
G1 X117.863 Y91.492 E0.23959
G1 X117.691 Y91.546 E0.24559
G1 X117.394 Y91.759 E0.25775
G1 X117.146 Y92.166 E0.2736
G1 X117.11 Y92.628 E0.28901
G1 X117.221 Y93.035 E0.30304
G1 X117.526 Y93.364 E0.31796
G1 X117.873 Y93.512 E0.33051
G0 F6000 X118.104 Y92.764
;TYPE:SKIN
G1 F1273.2 X117.965 Y92.736 E0.33496
G1 X117.865 Y92.554 E0.34147
G1 X117.889 Y92.381 E0.34694
G1 X118.001 Y92.24 E0.35259
G1 X118.12 Y92.24 E0.35632
G1 X118.23 Y92.375 E0.36177
G1 X118.254 Y92.55 E0.36731
G1 X118.167 Y92.736 E0.37375
G1 X118.104 Y92.764 E0.37591
G1 F2700 E-4.62409
G0 F6000 X118.44 Y92.743
G0 X118.786 Y92.611
G0 X122.143 Y93.265
G0 X122.145 Y93.485
;TYPE:WALL-OUTER
G1 F2700 E0.37591
G1 F1041.2 X121.992 Y93.405 E0.38253
G1 F1043.5 X121.942 Y93.323 E0.3862
G1 X121.942 Y93.195 E0.3911
G1 X122.05 Y93.08 E0.39713
G1 X122.233 Y93.022 E0.40447
G1 F1039 X122.624 Y93.019 E0.4195
G1 F1034.5 X122.624 Y93.486 E0.43751
G1 F1036.7 X122.145 Y93.485 E0.45595
G1 F2700 E-4.54405
G0 F6000 X122.21 Y93.272
G0 X125.883 Y126.211
G0 X125.994 Y126.746
G0 X125.974 Y126.986
;TYPE:WALL-INNER
G1 F2700 E0.45595
G1 F888.9 X126.256 Y126.986 E0.46862
G1 X126.258 Y126.438 E0.49322
G1 F890.5 X125.919 Y126.447 E0.50842
G1 F892.2 X125.645 Y126.482 E0.52078
G1 X125.417 Y126.626 E0.53284
G1 X125.417 Y126.855 E0.54309
G1 X125.608 Y126.954 E0.55271
G1 F890.5 X125.974 Y126.986 E0.56918
G0 F6000 X125.953 Y127.456
;TYPE:WALL-OUTER
G1 F1200 X126.727 Y127.456 E0.59492
G1 X126.728 Y125.968 E0.64441
G1 X125.971 Y125.968 E0.66959
G1 X125.513 Y126.027 E0.68495
G1 X125.162 Y126.19 E0.69782
G1 X125.015 Y126.371 E0.70557
G1 X124.948 Y126.535 E0.71147
G1 X124.948 Y126.945 E0.7251
G1 X125.011 Y127.1 E0.73067
G1 X125.241 Y127.311 E0.74105
G1 X125.496 Y127.415 E0.75021
G1 X125.953 Y127.456 E0.76547
G1 F2700 E-4.23453
G0 F6000 X125.997 Y126.747
G0 X126.505 Y127.233
G0 X127.594 Y127.233
G0 X128.197 Y127.233
G0 X129.47 Y128.436
;TYPE:WALL-INNER
G1 F2700 E0.76547
G1 F1170.7 X129.644 Y128.023 E0.78075
G1 F1200 X130.876 Y126.723 E0.84032
G1 F1048 X131.099 Y126.567 E0.85068
G1 F833.3 X131.569 Y126.465 E0.87372
G1 F928.4 X131.216 Y126.204 E0.89259
G1 F1200 X131.11 Y126.151 E0.89653
G1 X130.612 Y125.833 E0.91618
G1 X130.19 Y125.447 E0.93521
G1 X129.847 Y124.971 E0.95472
G1 F1188.1 X129.694 Y124.625 E0.96743
G1 F1093.4 X129.525 Y124.3 E0.9808
G1 X129.463 Y124.661 E0.99417
G1 F1188.1 X129.46 Y127.95 E1.10466
G1 F1170.7 X129.47 Y128.436 E1.12123
G1 F1129.4 X129.474 Y128.542 E1.12498
G0 F6000 X129.443 Y128.58
G0 X131.303 Y126.515
G0 X132.697 Y127.017
G0 X132.76 Y127.202
G1 F1078.7 X133.045 Y127.178 E1.13556
G1 X133.22 Y127.043 E1.14374
G1 X133.167 Y126.966 E1.1472
G1 X132.894 Y126.832 E1.15845
G1 F971.7 X132.094 Y126.559 E1.19317
G1 F810.8 X131.683 Y126.514 E1.21352
G1 X131.954 Y126.908 E1.23706
G1 F975.6 X132.243 Y127.075 E1.25072
G1 F1081.1 X132.484 Y127.164 E1.2602
G1 F1078.7 X132.76 Y127.202 E1.27051
G0 F6000 X132.697 Y127.017
G0 X131.303 Y126.515
G0 X129.438 Y128.482
G0 X130.437 Y129.257
G0 X131.545 Y129.709
G0 X132.699 Y129.871
G0 X133.633 Y129.777
G0 X134.522 Y129.512
G0 X135.321 Y129.005
G0 X135.664 Y128.586
G0 X136.37 Y127.68
G1 F952.4 X136.428 Y127.297 E1.28675
G0 F6000 X136.428 Y127.276
G1 F981.6 X136.641 Y127.058 E1.29914
G1 F995.9 X136.764 Y126.989 E1.30479
G1 F1153.8 X137.212 Y127.001 E1.32029
G1 F1371.4 X139.957 Y127.001 E1.40018
G1 X139.957 Y126.651 E1.41037
G1 F1359.8 X137.121 Y126.651 E1.49361
G1 F1148.3 X136.816 Y126.58 E1.50449
G1 F1142.9 X136.681 Y126.31 E1.51503
G1 F1318.7 X136.628 Y126.076 E1.5223
G1 F1250 X136.612 Y125.759 E1.53243
G1 F1200 X136.612 Y124.441 E1.57627
G1 X136.702 Y124.212 E1.58445
G1 F1182.3 X136.938 Y123.986 E1.59548
G1 F1126.8 X137.105 Y123.917 E1.60188
G1 F1103.4 X139.916 Y123.912 E1.70356
G1 F1111.1 X139.916 Y123.48 E1.71908
G1 F1103.4 X137.068 Y123.483 E1.82209
G1 F1121.5 X136.688 Y123.463 E1.83563
G1 F1170.7 X136.503 Y123.376 E1.8426
G1 F1200 X136.264 Y122.95 E1.85885
G1 X135.356 Y123.873 E1.90191
G1 X135.173 Y124 E1.90932
G1 F1243.5 X134.896 Y124.038 E1.91829
G1 F1297.3 X134.559 Y123.906 E1.92943
G1 F1142.9 X134.179 Y123.61 E1.94625
G1 F979.6 X133.836 Y123.418 E1.96227
G1 F935.7 X133.592 Y123.32 E1.97348
G1 F948.6 X133.263 Y123.25 E1.98763
G1 F969.7 X132.941 Y123.285 E2.00097
G1 X132.76 Y123.395 E2.00968
G1 X132.761 Y123.508 E2.01434
G1 F960 X133.043 Y123.694 E2.02838
G1 F937.5 X133.434 Y123.813 E2.04578
G1 F971.7 X133.955 Y124.017 E2.06876
G1 F1165 X134.566 Y124.308 E2.09195
G1 F1326 X134.792 Y124.397 E2.09926
G1 F1243.5 X135.147 Y124.581 E2.11209
G1 F1200 X135.578 Y124.896 E2.12985
G1 X135.917 Y125.293 E2.14721
G1 X136.192 Y125.759 E2.16521
G1 F1073.8 X136.439 Y126.833 E2.20617
G1 F971.7 X136.428 Y127.276 E2.22437
G0 F6000 X135.745 Y128.54
G0 X135.073 Y129.202
G0 X134.228 Y129.621
G0 X133.325 Y129.83
G0 X132.31 Y129.847
G0 X131.173 Y129.595
G0 X130.437 Y129.257
G0 X129.438 Y128.482
G0 X131.303 Y126.515
G0 X130.236 Y125.207
G0 X129.527 Y124.286
G1 F926.6 X129.509 Y124.032 E2.23534
G1 F981.6 X129.498 Y123.638 E2.25136
G1 F987.7 X129.506 Y123.341 E2.26337
G1 F924.9 X129.531 Y122.97 E2.27942
G0 F6000 X129.75 Y124.298
G0 X129.985 Y124.901
G0 X131.099 Y126.356
G0 X129.438 Y128.482
G0 X130.437 Y129.257
G0 X131.334 Y129.623
G0 X132.696 Y130.02
G1 F1200 X132.271 Y129.996 E2.29358
G1 X131.93 Y129.952 E2.30501
G1 X131.49 Y129.847 E2.32006
G1 X131.122 Y129.735 E2.33285
G1 X130.751 Y129.584 E2.34617
G1 X130.393 Y129.403 E2.35952
G1 X130.029 Y129.163 E2.37402
G1 X129.704 Y128.904 E2.38784
G1 F1156.6 X129.474 Y128.542 E2.40264
G1 F1137.4 X129.459 Y129.334 E2.43044
G1 F1176.5 X129.355 Y129.555 E2.43872
G1 F1200 X129.224 Y129.694 E2.44507
G1 X128.947 Y129.816 E2.45514
G1 X125.913 Y129.816 E2.55605
G1 X125.56 Y129.807 E2.5678
G1 X125.214 Y129.778 E2.57935
G1 X124.922 Y129.734 E2.58917
G1 X124.55 Y129.661 E2.60178
G1 X124.236 Y129.576 E2.6126
G1 X123.959 Y129.479 E2.62236
G1 X123.65 Y129.326 E2.63383
G1 X123.24 Y129.076 E2.6498
G1 X122.877 Y128.73 E2.66648
G1 X122.69 Y128.483 E2.67678
G1 X122.495 Y128.157 E2.68942
G1 X122.352 Y127.795 E2.70236
G1 X122.248 Y127.416 E2.71543
G1 X122.212 Y127.132 E2.72495
G1 X122.192 Y126.78 E2.73668
G1 X122.208 Y126.406 E2.74913
G1 X122.259 Y126.026 E2.76188
G1 X122.361 Y125.679 E2.77391
G1 X122.529 Y125.269 E2.78865
G1 X122.707 Y124.995 E2.79952
G1 X122.945 Y124.697 E2.8122
G1 X123.133 Y124.521 E2.82077
G1 X123.41 Y124.306 E2.83243
G1 X123.716 Y124.124 E2.84427
G1 X124.017 Y123.982 E2.85534
G1 X124.339 Y123.868 E2.8667
G1 X124.655 Y123.778 E2.87763
G1 X125.28 Y123.67 E2.89873
G1 X125.636 Y123.644 E2.9106
G1 X125.972 Y123.632 E2.92178
G1 X126.328 Y123.632 E2.93362
G1 X126.329 Y121.18 E3.01518
G1 X126.384 Y120.96 E3.02272
G1 X126.514 Y120.781 E3.03008
G1 X126.792 Y120.617 E3.04081
G1 X128.934 Y120.616 E3.11205
G1 X129.212 Y120.729 E3.12203
G1 X129.354 Y120.873 E3.12876
G1 X129.46 Y121.141 E3.13835
G1 X129.46 Y122.572 E3.18594
G1 F1016.9 X129.531 Y122.97 E3.20181
G1 X129.703 Y122.606 E3.21761
G1 F1200 X129.876 Y122.179 E3.23293
G1 X130.042 Y121.899 E3.24376
G1 X130.25 Y121.621 E3.25531
G1 X130.438 Y121.42 E3.26446
G1 X130.674 Y121.205 E3.27508
G1 X130.977 Y121 E3.28725
G1 X131.302 Y120.82 E3.2996
G1 X131.582 Y120.7 E3.30974
G1 X131.922 Y120.583 E3.3217
G1 X132.194 Y120.519 E3.33099
G1 X132.565 Y120.454 E3.34352
G1 X132.886 Y120.424 E3.35424
G1 X133.23 Y120.412 E3.36569
G1 X133.697 Y120.439 E3.38125
G1 X134.117 Y120.487 E3.39531
G1 X134.605 Y120.6 E3.41197
G1 X135.071 Y120.744 E3.42819
G1 X135.475 Y120.924 E3.4429
G1 X135.932 Y121.179 E3.46031
G1 X136.216 Y121.392 E3.47211
G1 X136.233 Y121.072 E3.48277
G1 X136.377 Y120.806 E3.49283
G1 X136.586 Y120.661 E3.50129
G1 X136.762 Y120.618 E3.50732
G1 X142.445 Y120.617 E3.69634
G1 X142.629 Y120.662 E3.70264
G1 X142.827 Y120.797 E3.71061
G1 X142.957 Y121.001 E3.71865
G1 X142.995 Y121.171 E3.72445
G1 X142.995 Y129.263 E3.99359
G1 X142.89 Y129.559 E4.00403
G1 X142.627 Y129.771 E4.01527
G1 X142.444 Y129.815 E4.02153
G1 X136.976 Y129.815 E4.2034
G1 X136.826 Y129.785 E4.20848
G1 X136.645 Y129.686 E4.21534
G1 X136.509 Y129.532 E4.22218
G1 X136.42 Y129.326 E4.22964
G1 X136.42 Y128.356 E4.2619
G1 F1129.4 X136.379 Y127.661 E4.28651
G1 X136.026 Y128.385 E4.31497
G1 F1200 X135.848 Y128.652 E4.32564
G1 X135.631 Y128.914 E4.33696
G1 X135.402 Y129.13 E4.34743
G1 X135.129 Y129.342 E4.35893
G1 X134.856 Y129.51 E4.36959
G1 X134.541 Y129.666 E4.38128
G1 X133.954 Y129.861 E4.40185
G1 X133.376 Y129.976 E4.42145
G1 X133.009 Y130.008 E4.43371
G1 X132.696 Y130.02 E4.44412
G1 F2700 E-0.55588
G0 F6000 X129.646 Y129.09
G0 X129.3 Y129.656
G0 X125.26 Y129.633
G0 X124.309 Y129.442
G0 X123.617 Y129.114
G0 X122.331 Y128.233
G0 X115.539 Y127.093
G0 X111.62 Y127.631
G1 F2700 E4.44412
G1 F1200 X112.727 Y126.52 E4.49629
G1 X113.045 Y126.34 E4.50844
G1 X113.351 Y126.377 E4.51869
G1 X113.562 Y126.505 E4.5269
G1 X113.843 Y126.792 E4.54026
G1 X114.105 Y126.942 E4.5503
G1 X114.432 Y127.044 E4.56169
G1 X114.77 Y127.077 E4.57299
G1 X115.126 Y127.044 E4.58488
G1 X115.462 Y126.935 E4.59663
G1 X115.757 Y126.77 E4.60787
G1 X115.986 Y126.572 E4.61794
G1 X116.188 Y126.303 E4.62913
G1 X116.343 Y125.981 E4.64102
G1 X116.442 Y125.616 E4.65359
G1 X116.474 Y125.221 E4.66678
G1 X116.459 Y124.895 E4.67763
G1 X116.366 Y124.496 E4.69126
G1 X116.19 Y124.129 E4.70479
G1 X116 Y123.867 E4.71556
G1 X115.761 Y123.665 E4.72597
G1 X115.484 Y123.512 E4.73649
G1 X115.148 Y123.408 E4.74819
G1 X114.802 Y123.378 E4.75974
G1 X114.485 Y123.395 E4.7703
G1 X114.13 Y123.501 E4.78262
G1 X113.812 Y123.713 E4.79533
G1 X113.53 Y124.016 E4.8091
G1 X113.321 Y124.15 E4.81736
G1 X113.014 Y124.193 E4.82767
G1 X112.696 Y124.026 E4.83962
G1 X111.621 Y123.014 E4.88872
G1 X111.62 Y127.631 E5.04228
G1 F2700 E0.04228
G0 F6000 X110.355 Y127.69
G0 X109.809 Y127.69
G0 X108.434 Y128.18
G1 F2700 E5.04228
G1 F813.6 X108.464 Y128.636 E5.0647
G1 F837.7 X108.451 Y128.955 E5.07991
G0 F6000 X108.162 Y128.119
G0 X108.24 Y128.629
G0 X108.209 Y128.948
G0 X107.99 Y129.463
G0 X107.571 Y129.859
G0 X107.032 Y130.084
G0 X106.436 Y130.089
G0 X105.892 Y129.874
G0 X105.481 Y129.482
G0 X105.284 Y129.082
G0 X105.211 Y128.656
G0 X105.333 Y127.544
G0 X105.172 Y124.771
G1 F1132.1 X105.196 Y124.378 E5.09379
G1 F1224.5 X105.204 Y124.028 E5.10521
G1 F1159.4 X105.174 Y123.318 E5.12967
G1 F2700 E0.12967
G0 F6000 X105.361 Y120.78
G0 X108.091 Y120.78
G0 X108.706 Y130.198
G0 X111.095 Y130.538
G0 X111.095 Y147.784
G0 X117.5 Y147.984
G1 F2700 E5.12967
G1 F1200 X157.48 Y147.983 E6.45941
G1 X157.951 Y147.965 E6.47509
G1 X158.416 Y147.907 E6.49067
G1 X158.835 Y147.818 E6.50492
G1 X159.274 Y147.687 E6.52016
G1 X159.716 Y147.517 E6.53591
G1 X160.096 Y147.332 E6.54996
G1 X160.51 Y147.082 E6.56605
G1 X160.859 Y146.833 E6.58031
G1 X161.209 Y146.538 E6.59553
G1 X161.538 Y146.209 E6.61101
G1 X161.837 Y145.855 E6.62642
G1 X162.081 Y145.51 E6.64048
G1 X162.331 Y145.098 E6.6565
G1 X162.513 Y144.715 E6.67061
G1 X162.691 Y144.269 E6.68658
G1 X162.817 Y143.833 E6.70167
G1 X162.907 Y143.416 E6.71586
G1 X162.965 Y142.939 E6.73184
G1 X162.983 Y142.48 E6.74712
G1 X162.984 Y92.505 E8.4093
G1 X162.965 Y92.057 E8.42421
G1 X162.907 Y91.584 E8.44006
G1 X162.817 Y91.163 E8.45438
G1 X162.691 Y90.731 E8.46935
G1 X162.514 Y90.281 E8.48543
G1 X162.331 Y89.903 E8.4994
G1 X162.081 Y89.488 E8.51551
G1 X161.836 Y89.139 E8.5297
G1 X161.538 Y88.787 E8.54504
G1 X161.21 Y88.46 E8.56044
G1 X160.855 Y88.163 E8.57583
G1 X160.51 Y87.915 E8.58997
G1 X160.098 Y87.669 E8.60593
G1 X159.715 Y87.483 E8.62009
G1 X159.268 Y87.308 E8.63605
G1 X158.834 Y87.178 E8.65112
G1 X158.418 Y87.089 E8.66527
G1 X157.951 Y87.035 E8.68091
G1 X157.477 Y87.012 E8.69669
G1 X77.519 Y87.012 E11.35611
G1 X77.045 Y87.035 E11.37189
G1 X76.578 Y87.089 E11.38753
G1 X76.162 Y87.178 E11.40167
G1 X75.728 Y87.308 E11.41674
G1 X75.282 Y87.482 E11.43267
G1 X74.903 Y87.668 E11.44671
G1 X74.489 Y87.915 E11.46274
G1 X74.139 Y88.164 E11.47703
G1 X73.786 Y88.46 E11.49235
G1 X73.46 Y88.786 E11.50768
G1 X73.164 Y89.139 E11.52301
G1 X72.915 Y89.489 E11.53729
G1 X72.668 Y89.903 E11.55333
G1 X72.483 Y90.281 E11.56733
G1 X72.308 Y90.731 E11.58338
G1 X72.178 Y91.166 E11.59848
G1 X72.089 Y91.584 E11.6127
G1 X72.031 Y92.057 E11.62855
G1 X72.012 Y92.517 E11.64386
G1 X72.013 Y142.491 E13.306
G1 X72.031 Y142.939 E13.32092
G1 X72.089 Y143.416 E13.3369
G1 X72.178 Y143.831 E13.35101
G1 X72.309 Y144.269 E13.36622
G1 X72.483 Y144.715 E13.38214
G1 X72.669 Y145.098 E13.3963
G1 X72.915 Y145.51 E13.41226
G1 X73.163 Y145.855 E13.4264
G1 X73.46 Y146.21 E13.44179
G1 X73.787 Y146.537 E13.45717
G1 X74.136 Y146.832 E13.47237
G1 X74.489 Y147.081 E13.48674
G1 X74.905 Y147.332 E13.5029
G1 X75.28 Y147.517 E13.51681
G1 X75.726 Y147.687 E13.53268
G1 X76.162 Y147.818 E13.54782
G1 X76.58 Y147.907 E13.56204
G1 X77.045 Y147.965 E13.57762
G1 X77.516 Y147.984 E13.5933
G1 X117.5 Y147.984 E14.92318
G1 F2700 E9.92318
G0 F6000 X99.236 Y147.784
G0 X99.052 Y126.01
G0 X99.236 Y125.516
G1 F2700 E14.92318
G1 F1200 X100.079 Y124.536 E14.96617
G1 X100.386 Y124.427 E14.97701
G1 X100.509 Y124.426 E14.9811
G1 X100.83 Y124.557 E14.99263
G1 X101.011 Y124.731 E15.00098
G1 X101.285 Y124.855 E15.01098
G1 X101.571 Y124.859 E15.0205
G1 X101.815 Y124.74 E15.02952
G1 X102.014 Y124.51 E15.03964
G1 X102.121 Y124.207 E15.05033
G1 X102.121 Y123.848 E15.06227
G1 X102.011 Y123.526 E15.07359
G1 X101.932 Y123.414 E15.07814
G1 X101.716 Y123.256 E15.08705
G1 X101.413 Y123.196 E15.09732
G1 X101.086 Y123.257 E15.10838
G1 X100.806 Y123.462 E15.11992
G1 X100.491 Y123.606 E15.13144
G1 X100.368 Y123.61 E15.13554
G1 X100.106 Y123.531 E15.14464
G1 X99.944 Y123.393 E15.15172
G1 X99.237 Y122.532 E15.18877
G1 X99.236 Y125.516 E15.28802
G1 F2700 E10.28802
G0 F6000 X100.43 Y124.408
G0 X100.55 Y125.917
G0 X101.009 Y126.097
G0 X101.436 Y126.146
G0 X101.782 Y126.108
G0 X103.549 Y125.389
G0 X117.5 Y129.341
G1 F2700 E15.28802
G1 F1200 X117.171 Y129.52 E15.30048
G1 X116.729 Y129.706 E15.31643
G1 X116.258 Y129.849 E15.3328
G1 X115.808 Y129.951 E15.34815
G1 X115.309 Y130.008 E15.36485
G1 X114.861 Y130.032 E15.37977
G1 X114.336 Y130.004 E15.39726
G1 X113.855 Y129.939 E15.4134
G1 X113.398 Y129.825 E15.42907
G1 X112.941 Y129.677 E15.44504
G1 X112.564 Y129.517 E15.45867
G1 X112.13 Y129.288 E15.47499
G1 X111.621 Y128.889 E15.4965
G1 X111.62 Y129.76 E15.52547
G1 X111.518 Y130.097 E15.53718
G1 X111.376 Y130.244 E15.54398
G1 X111.077 Y130.358 E15.55462
G1 X109.092 Y130.358 E15.62064
G1 X108.85 Y130.284 E15.62906
